the_perfect_mother_1.1/luts/TPM_lut.cube
# IRIDAS cube from Truelight v4.0
LUT_3D_SIZE	33
0.0000 0.0000 0.0000
0.0000 0.0000 0.0000
0.0000 0.0000 0.0000
0.0000 0.0000 0.0000
0.0167 0.0000 0.0010
0.0486 0.0000 0.0000
0.0836 0.0000 0.0000
0.1283 0.0000 0.0000
0.1836 0.0000 0.0000
0.2354 0.0000 0.0000
0.2769 0.0000 0.0000
0.3237 0.0000 0.0000
0.3901 0.0000 0.0000
0.4578 0.0000 0.0000
0.5303 0.0000 0.0000
0.6138 0.0000 0.0000
0.7041 0.0000 0.0077
0.7749 0.0000 0.0313
0.8599 0.0000 0.1093
0.9565 0.0000 0.2118
1.0000 0.0048 0.3074
1.0000 0.2280 0.3569
1.0000 0.3574 0.4192
1.0000 0.4670 0.5562
1.0000 0.5171 0.6904
1.0000 0.5835 0.7490
1.0000 0.6597 0.7808
1.0000 0.7236 0.8140
1.0000 0.7725 0.8472
1.0000 0.8125 0.8774
1.0000 0.8442 0.9009
1.0000 0.8667 0.9170
1.0000 0.8750 0.9233
0.0000 0.0000 0.0000
0.0000 0.0000 0.0000
0.0000 0.0000 0.0000
0.0000 0.0006 0.0006
0.0212 0.0000 0.0001
0.0500 0.0000 0.0000
0.0842 0.0000 0.0000
0.1273 0.0000 0.0000
0.1818 0.0000 0.0000
0.2318 0.0000 0.0000
0.2722 0.0000 0.0000
0.3220 0.0001 0.0000
0.3928 0.0000 0.0000
0.4612 0.0000 0.0000
0.5327 0.0000 0.0000
0.6128 0.0000 0.0000
0.7002 0.0000 0.0066
0.7759 0.0000 0.0310
0.8618 0.0000 0.1166
0.9580 0.0000 0.2147
1.0000 0.0048 0.3074
1.0000 0.2280 0.3569
1.0000 0.3574 0.4192
1.0000 0.4670 0.5562
1.0000 0.5171 0.6904
1.0000 0.5835 0.7490
1.0000 0.6597 0.7808
1.0000 0.7236 0.8140
1.0000 0.7729 0.8467
1.0000 0.8125 0.8774
1.0000 0.8442 0.9009
1.0000 0.8667 0.9170
1.0000 0.8750 0.9233
0.0000 0.0000 0.0000
0.0000 0.0000 0.0000
0.0000 0.0006 0.0006
0.0018 0.0058 0.0047
0.0283 0.0123 0.0000
0.0550 0.0179 0.0000
0.0867 0.0252 0.0000
0.1293 0.0299 0.0000
0.1815 0.0236 0.0000
0.2308 0.0135 0.0000
0.2717 0.0000 0.0000
0.3240 0.0146 0.0000
0.3977 0.0000 0.0000
0.4675 0.0000 0.0000
0.5337 0.0000 0.0006
0.6079 0.0000 0.0013
0.6963 0.0000 0.0056
0.7788 0.0000 0.0287
0.8701 0.0000 0.1394
0.9692 0.0000 0.2218
1.0000 0.0195 0.3113
1.0000 0.2327 0.3564
1.0000 0.3591 0.4207
1.0000 0.4673 0.5576
1.0000 0.5171 0.6904
1.0000 0.5835 0.7490
1.0000 0.6597 0.7808
1.0000 0.7236 0.8140
1.0000 0.7729 0.8467
1.0000 0.8125 0.8774
1.0000 0.8442 0.9009
1.0000 0.8667 0.9170
1.0000 0.8750 0.9233
0.0000 0.0163 0.0000
0.0000 0.0197 0.0000
0.0000 0.0263 0.0000
0.0000 0.0317 0.0000
0.0342 0.0368 0.0000
0.0603 0.0400 0.0000
0.0923 0.0458 0.0000
0.1366 0.0538 0.0000
0.1866 0.0557 0.0000
0.2369 0.0538 0.0000
0.2803 0.0568 0.0000
0.3369 0.0565 0.0000
0.4121 0.0054 0.0000
0.4788 0.0000 0.0000
0.5400 0.0000 0.0000
0.6201 0.0000 0.0000
0.7124 0.0000 0.0145
0.7915 0.0000 0.0362
0.8784 0.0000 0.1390
0.9766 0.0000 0.2269
1.0000 0.0565 0.3125
1.0000 0.2415 0.3572
1.0000 0.3606 0.4199
1.0000 0.4673 0.5562
1.0000 0.5166 0.6919
1.0000 0.5835 0.7490
1.0000 0.6597 0.7808
1.0000 0.7236 0.8140
1.0000 0.7729 0.8467
1.0000 0.8125 0.8774
1.0000 0.8442 0.9009
1.0000 0.8667 0.9170
1.0000 0.8750 0.9233
0.0000 0.0498 0.0000
0.0000 0.0528 0.0000
0.0000 0.0571 0.0000
0.0000 0.0576 0.0000
0.0283 0.0577 0.0000
0.0627 0.0579 0.0000
0.0923 0.0624 0.0000
0.1307 0.0698 0.0000
0.1799 0.0748 0.0000
0.2312 0.0766 0.0000
0.2773 0.0842 0.0000
0.3345 0.0888 0.0000
0.4094 0.0472 0.0000
0.4795 0.0000 0.0000
0.5435 0.0005 0.0000
0.6201 0.0000 0.0000
0.7114 0.0000 0.0148
0.7939 0.0000 0.0413
0.8774 0.0000 0.1394
0.9780 0.0000 0.2283
1.0000 0.0977 0.3132
1.0000 0.2563 0.3586
1.0000 0.3701 0.4280
1.0000 0.4712 0.5615
1.0000 0.5171 0.6904
1.0000 0.5835 0.7490
1.0000 0.6597 0.7808
1.0000 0.7236 0.8140
1.0000 0.7729 0.8467
1.0000 0.8125 0.8774
1.0000 0.8442 0.9009
1.0000 0.8667 0.9170
1.0000 0.8750 0.9233
0.0000 0.0782 0.0000
0.0000 0.0802 0.0000
0.0000 0.0837 0.0000
0.0000 0.0869 0.0000
0.0000 0.0779 0.0000
0.0560 0.0756 0.0000
0.0908 0.0822 0.0000
0.1305 0.0898 0.0000
0.1794 0.0954 0.0000
0.2312 0.1005 0.0000
0.2842 0.1102 0.0000
0.3435 0.1162 0.0000
0.4175 0.0986 0.0000
0.4871 0.0445 0.0000
0.5498 0.0234 0.0000
0.6226 0.0062 0.0035
0.7095 0.0000 0.0136
0.7930 0.0000 0.0395
0.8706 0.0000 0.1353
0.9678 0.0024 0.2188
1.0000 0.0842 0.3025
1.0000 0.2491 0.3499
1.0000 0.3562 0.4070
1.0000 0.4712 0.5591
1.0000 0.5215 0.6919
1.0000 0.5835 0.7480
1.0000 0.6611 0.7803
1.0000 0.7236 0.8140
1.0000 0.7729 0.8467
1.0000 0.8125 0.8774
1.0000 0.8442 0.9009
1.0000 0.8667 0.9170
1.0000 0.8750 0.9233
0.0000 0.1086 0.0000
0.0000 0.1106 0.0000
0.0000 0.1142 0.0000
0.0000 0.1173 0.0000
0.0000 0.1039 0.0000
0.0405 0.1011 0.0000
0.0875 0.1041 0.0000
0.1306 0.1096 0.0000
0.1793 0.1168 0.0000
0.2324 0.1243 0.0000
0.2878 0.1342 0.0000
0.3477 0.1412 0.0000
0.4221 0.1348 0.0000
0.4912 0.1164 0.0036
0.5537 0.0899 0.0018
0.6255 0.0568 0.0000
0.7104 0.0177 0.0039
0.7910 0.0055 0.0414
0.8652 0.0016 0.1309
0.9604 0.0295 0.2107
0.9985 0.1283 0.2974
1.0000 0.2605 0.3450
1.0000 0.3562 0.3997
1.0000 0.4556 0.5317
1.0000 0.5122 0.6758
1.0000 0.5874 0.7480
1.0000 0.6611 0.7803
1.0000 0.7246 0.8140
1.0000 0.7729 0.8467
1.0000 0.8125 0.8774
1.0000 0.8442 0.9009
1.0000 0.8667 0.9170
1.0000 0.8750 0.9233
0.0000 0.1479 0.0000
0.0000 0.1500 0.0000
0.0000 0.1533 0.0000
0.0000 0.1547 0.0000
0.0000 0.1394 0.0000
0.0062 0.1343 0.0000
0.0768 0.1311 0.0000
0.1251 0.1315 0.0000
0.1765 0.1393 0.0000
0.2360 0.1525 0.0000
0.2959 0.1642 0.0000
0.3599 0.1730 0.0000
0.4346 0.1718 0.0000
0.5024 0.1644 0.0018
0.5645 0.1547 0.0000
0.6421 0.1255 0.0000
0.7295 0.0879 0.0117
0.8027 0.0616 0.0540
0.8740 0.0592 0.1268
0.9683 0.0798 0.2167
1.0000 0.2073 0.2986
1.0000 0.2861 0.3447
1.0000 0.3701 0.4058
1.0000 0.4568 0.5283
1.0000 0.5117 0.6665
1.0000 0.5698 0.7344
1.0000 0.6509 0.7759
1.0000 0.7227 0.8125
1.0000 0.7715 0.8462
1.0000 0.8125 0.8774
1.0000 0.8442 0.9009
1.0000 0.8667 0.9170
1.0000 0.8750 0.9233
0.0000 0.1937 0.0000
0.0000 0.1937 0.0000
0.0000 0.1969 0.0000
0.0000 0.1998 0.0000
0.0000 0.1824 0.0000
0.0000 0.1757 0.0000
0.0302 0.1699 0.0000
0.1157 0.1658 0.0000
0.1759 0.1704 0.0000
0.2402 0.1827 0.0000
0.3005 0.1956 0.0000
0.3682 0.2052 0.0000
0.4485 0.2083 0.0017
0.5132 0.2039 0.0000
0.5781 0.1952 0.0075
0.6548 0.1774 0.0056
0.7383 0.1588 0.0008
0.8037 0.1425 0.0283
0.8794 0.1298 0.1294
0.9746 0.1772 0.2234
1.0000 0.2505 0.2998
1.0000 0.3167 0.3459
1.0000 0.3950 0.4260
1.0000 0.4802 0.5625
1.0000 0.5254 0.6729
1.0000 0.5776 0.7344
1.0000 0.6431 0.7700
1.0000 0.7129 0.8057
1.0000 0.7705 0.8438
1.0000 0.8125 0.8774
1.0000 0.8423 0.8989
1.0000 0.8662 0.9165
1.0000 0.8750 0.9233
0.0000 0.2407 0.0000
0.0000 0.2383 0.0000
0.0000 0.2460 0.0000
0.0000 0.2477 0.0000
0.0000 0.2278 0.0000
0.0000 0.2203 0.0000
0.0000 0.2136 0.0000
0.0878 0.2064 0.0000
0.1744 0.2114 0.0000
0.2416 0.2235 0.0000
0.3032 0.2339 0.0000
0.3745 0.2457 0.0000
0.4575 0.2520 0.0005
0.5273 0.2498 0.0066
0.5889 0.2412 0.0000
0.6616 0.2329 0.0011
0.7407 0.2272 0.0000
0.8047 0.2196 0.0401
0.8818 0.2135 0.1274
0.9751 0.2397 0.2236
1.0000 0.2922 0.2964
1.0000 0.3481 0.3440
1.0000 0.4231 0.4492
1.0000 0.4954 0.5869
1.0000 0.5420 0.6841
1.0000 0.5981 0.7383
1.0000 0.6582 0.7734
1.0000 0.7124 0.8032
1.0000 0.7603 0.8364
1.0000 0.8110 0.8755
1.0000 0.8423 0.8989
1.0000 0.8662 0.9165
1.0000 0.8750 0.9233
0.0000 0.2957 0.0000
0.0000 0.2903 0.0000
0.0000 0.3013 0.0000
0.0000 0.2949 0.0000
0.0000 0.2761 0.0000
0.0000 0.2671 0.0000
0.0000 0.2622 0.0000
0.0341 0.2554 0.0000
0.1680 0.2644 0.0000
0.2404 0.2747 0.0000
0.3081 0.2815 0.0000
0.3857 0.2949 0.0000
0.4670 0.3069 0.0006
0.5386 0.3066 0.0000
0.5991 0.3013 0.0012
0.6724 0.2986 0.0000
0.7461 0.3005 0.0106
0.8091 0.2898 0.0519
0.8872 0.2822 0.1279
0.9746 0.3066 0.2212
1.0000 0.3459 0.2905
1.0000 0.3872 0.3450
1.0000 0.4502 0.4668
1.0000 0.5103 0.6025
1.0000 0.5532 0.6802
1.0000 0.6099 0.7358
1.0000 0.6738 0.7744
1.0000 0.7290 0.8101
1.0000 0.7666 0.8394
1.0000 0.8032 0.8682
1.0000 0.8364 0.8940
1.0000 0.8662 0.9165
1.0000 0.8750 0.9233
0.0000 0.3479 0.0000
0.0000 0.3486 0.0000
0.0000 0.3540 0.0000
0.0000 0.3379 0.0000
0.0000 0.3264 0.0000
0.0000 0.3188 0.0000
0.0000 0.3140 0.0000
0.0067 0.3149 0.0000
0.1427 0.3254 0.0000
0.2402 0.3345 0.0000
0.3171 0.3430 0.0000
0.3999 0.3530 0.0000
0.4771 0.3633 0.0000
0.5469 0.3699 0.0000
0.6113 0.3721 0.0000
0.6860 0.3733 0.0009
0.7568 0.3679 0.0088
0.8262 0.3521 0.0412
0.8965 0.3525 0.1082
0.9707 0.3721 0.2177
0.9995 0.3979 0.2827
1.0000 0.4277 0.3489
1.0000 0.4778 0.4836
1.0000 0.5264 0.6001
1.0000 0.5649 0.6733
1.0000 0.6187 0.7314
1.0000 0.6777 0.7681
1.0000 0.7329 0.8076
1.0000 0.7729 0.8403
1.0000 0.8105 0.8726
1.0000 0.8384 0.8950
1.0000 0.8628 0.9136
1.0000 0.8750 0.9233
0.0000 0.3982 0.0000
0.0000 0.4067 0.0000
0.0000 0.4043 0.0000
0.0000 0.3857 0.0000
0.0000 0.3831 0.0000
0.0000 0.3774 0.0000
0.0000 0.3784 0.0000
0.0000 0.3843 0.0000
0.0459 0.3948 0.0000
0.2163 0.4062 0.0000
0.3171 0.4141 0.0000
0.3984 0.4202 0.0000
0.4775 0.4287 0.0000
0.5522 0.4338 0.0000
0.6230 0.4370 0.0000
0.6997 0.4382 0.0000
0.7705 0.4336 0.0000
0.8389 0.4226 0.0497
0.9062 0.4268 0.1420
0.9775 0.4424 0.2148
1.0000 0.4587 0.2812
1.0000 0.4785 0.3667
1.0000 0.5171 0.5151
1.0000 0.5537 0.6108
1.0000 0.5879 0.6768
1.0000 0.6343 0.7280
1.0000 0.6880 0.7676
1.0000 0.7388 0.8052
1.0000 0.7749 0.8389
1.0000 0.8101 0.8696
1.0000 0.8398 0.8950
1.0000 0.8667 0.9155
1.0000 0.8755 0.9233
0.0000 0.4612 0.0000
0.0000 0.4678 0.0000
0.0000 0.4536 0.0000
0.0000 0.4526 0.0000
0.0000 0.4514 0.0000
0.0000 0.4526 0.0000
0.0000 0.4546 0.0000
0.0000 0.4614 0.0000
0.0000 0.4707 0.0000
0.1475 0.4795 0.0000
0.2896 0.4856 0.0000
0.3796 0.4917 0.0000
0.4688 0.4939 0.0000
0.5513 0.4951 0.0000
0.6270 0.4973 0.0000
0.7017 0.5039 0.0000
0.7700 0.5029 0.0088
0.8311 0.5020 0.0385
0.9033 0.5063 0.1205
0.9814 0.5161 0.2086
1.0000 0.5259 0.2817
1.0000 0.5405 0.4021
1.0000 0.5630 0.5376
1.0000 0.5898 0.6187
1.0000 0.6206 0.6851
1.0000 0.6675 0.7314
1.0000 0.7119 0.7759
1.0000 0.7510 0.8105
1.0000 0.7842 0.8398
1.0000 0.8140 0.8691
1.0000 0.8428 0.8950
1.0000 0.8677 0.9155
1.0000 0.8760 0.9229
0.0000 0.5469 0.0000
0.0000 0.5371 0.0000
0.0000 0.5337 0.0000
0.0000 0.5317 0.0000
0.0000 0.5317 0.0000
0.0000 0.5308 0.0000
0.0000 0.5342 0.0000
0.0000 0.5400 0.0000
0.0000 0.5469 0.0000
0.0460 0.5532 0.0000
0.2365 0.5576 0.0000
0.3582 0.5581 0.0000
0.4612 0.5581 0.0000
0.5454 0.5601 0.0000
0.6211 0.5635 0.0000
0.6919 0.5698 0.0000
0.7563 0.5747 0.0000
0.8193 0.5776 0.0574
0.8945 0.5806 0.1071
0.9668 0.5850 0.2072
1.0000 0.5933 0.2786
1.0000 0.5962 0.4062
1.0000 0.6099 0.5337
1.0000 0.6240 0.6089
1.0000 0.6489 0.6729
1.0000 0.6870 0.7271
1.0000 0.7295 0.7739
1.0000 0.7637 0.8140
1.0000 0.7944 0.8452
1.0000 0.8223 0.8730
1.0000 0.8481 0.8970
1.0000 0.8696 0.9150
1.0000 0.8774 0.9229
0.0000 0.6074 0.0000
0.0000 0.6069 0.0000
0.0000 0.6050 0.0000
0.0000 0.6060 0.0000
0.0000 0.6060 0.0000
0.0000 0.6084 0.0000
0.0000 0.6123 0.0000
0.0000 0.6167 0.0000
0.0000 0.6226 0.0000
0.0000 0.6226 0.0000
0.1647 0.6226 0.0000
0.3345 0.6245 0.0000
0.4458 0.6279 0.0000
0.5361 0.6299 0.0000
0.6123 0.6318 0.0000
0.6807 0.6372 0.0000
0.7471 0.6436 0.0233
0.8130 0.6470 0.0688
0.8877 0.6475 0.1521
0.9668 0.6489 0.2140
1.0000 0.6558 0.2932
1.0000 0.6538 0.4116
1.0000 0.6553 0.5288
1.0000 0.6655 0.6021
1.0000 0.6826 0.6636
1.0000 0.7148 0.7202
1.0000 0.7466 0.7725
1.0000 0.7759 0.8115
1.0000 0.8027 0.8452
1.0000 0.8276 0.8735
1.0000 0.8521 0.8970
1.0000 0.8726 0.9155
1.0000 0.8799 0.9224
0.0000 0.6812 0.0000
0.0000 0.6816 0.0000
0.0000 0.6816 0.0000
0.0000 0.6821 0.0000
0.0000 0.6826 0.0000
0.0000 0.6816 0.0000
0.0000 0.6816 0.0000
0.0000 0.6807 0.0000
0.0000 0.6812 0.0000
0.0000 0.6826 0.0000
0.0966 0.6890 0.0000
0.3083 0.6934 0.0000
0.4265 0.6953 0.0000
0.5142 0.6978 0.0000
0.5928 0.6982 0.0000
0.6729 0.7021 0.0140
0.7461 0.7075 0.0711
0.8105 0.7114 0.1366
0.8823 0.7139 0.1954
0.9590 0.7163 0.2529
0.9995 0.7158 0.3286
1.0000 0.7075 0.4292
1.0000 0.7041 0.5244
1.0000 0.7090 0.5967
1.0000 0.7212 0.6597
1.0000 0.7422 0.7183
1.0000 0.7666 0.7690
1.0000 0.7896 0.8091
1.0000 0.8145 0.8452
1.0000 0.8364 0.8755
1.0000 0.8608 0.9009
1.0000 0.8774 0.9160
1.0000 0.8823 0.9219
0.0000 0.7388 0.0000
0.0000 0.7373 0.0000
0.0000 0.7363 0.0000
0.0000 0.7388 0.0000
0.0000 0.7393 0.0000
0.0000 0.7407 0.0000
0.0000 0.7422 0.0000
0.0000 0.7437 0.0000
0.0000 0.7466 0.0000
0.0145 0.7515 0.0000
0.1125 0.7529 0.0000
0.2764 0.7563 0.0331
0.3889 0.7598 0.0569
0.4858 0.7656 0.0779
0.5781 0.7671 0.1024
0.6616 0.7686 0.1370
0.7383 0.7710 0.1735
0.8052 0.7759 0.2090
0.8755 0.7759 0.2532
0.9512 0.7778 0.3074
0.9951 0.7720 0.3735
1.0000 0.7603 0.4470
1.0000 0.7559 0.5244
1.0000 0.7544 0.5903
1.0000 0.7593 0.6538
1.0000 0.7729 0.7158
1.0000 0.7891 0.7676
1.0000 0.8066 0.8110
1.0000 0.8276 0.8477
1.0000 0.8486 0.8784
1.0000 0.8687 0.9033
1.0000 0.8833 0.9170
1.0000 0.8857 0.9214
0.0000 0.8018 0.1197
0.0000 0.8018 0.1340
0.0000 0.8037 0.1554
0.0000 0.8052 0.1691
0.0000 0.8071 0.1765
0.0000 0.8076 0.1788
0.0000 0.8091 0.1852
0.0000 0.8101 0.1929
0.0000 0.8125 0.2012
0.0069 0.8159 0.2091
0.0629 0.8203 0.2135
0.2510 0.8257 0.2157
0.3728 0.8296 0.2163
0.4756 0.8330 0.2278
0.5645 0.8340 0.2421
0.6523 0.8306 0.2554
0.7251 0.8306 0.2683
0.7920 0.8359 0.2954
0.8623 0.8364 0.3286
0.9346 0.8320 0.3674
0.9873 0.8213 0.4185
0.9995 0.8076 0.4775
1.0000 0.8022 0.5444
1.0000 0.7969 0.6040
1.0000 0.7969 0.6621
1.0000 0.8018 0.7217
1.0000 0.8110 0.7695
1.0000 0.8232 0.8101
1.0000 0.8389 0.8457
1.0000 0.8564 0.8755
1.0000 0.8740 0.8999
1.0000 0.8867 0.9160
1.0000 0.8901 0.9204
0.0000 0.8701 0.3037
0.0000 0.8691 0.3035
0.0000 0.8716 0.3071
0.0000 0.8721 0.3088
0.0000 0.8735 0.3105
0.0000 0.8750 0.3115
0.0000 0.8765 0.3120
0.0105 0.8789 0.3142
0.0138 0.8818 0.3154
0.0688 0.8853 0.3179
0.2004 0.8867 0.3193
0.3064 0.8882 0.3208
0.3918 0.8896 0.3252
0.4805 0.8887 0.3303
0.5586 0.8906 0.3423
0.6367 0.8901 0.3560
0.7065 0.8911 0.3708
0.7700 0.8940 0.3914
0.8413 0.8892 0.4089
0.9053 0.8828 0.4331
0.9707 0.8726 0.4705
1.0000 0.8589 0.5151
1.0000 0.8491 0.5703
1.0000 0.8398 0.6235
1.0000 0.8335 0.6753
1.0000 0.8340 0.7261
1.0000 0.8379 0.7715
1.0000 0.8447 0.8091
1.0000 0.8545 0.8447
1.0000 0.8672 0.8726
1.0000 0.8813 0.8975
1.0000 0.8931 0.9146
1.0000 0.8960 0.9194
0.0211 0.9282 0.3931
0.0334 0.9287 0.3940
0.0417 0.9292 0.3945
0.0458 0.9307 0.3962
0.0552 0.9302 0.3960
0.0574 0.9312 0.3972
0.1019 0.9321 0.3982
0.1459 0.9321 0.3977
0.2074 0.9331 0.3984
0.2827 0.9346 0.3999
0.3291 0.9360 0.4016
0.3855 0.9360 0.4016
0.4441 0.9370 0.4053
0.5093 0.9395 0.4136
0.5737 0.9399 0.4250
0.6382 0.9395 0.4387
0.6978 0.9380 0.4529
0.7588 0.9360 0.4692
0.8198 0.9321 0.4856
0.8823 0.9248 0.5054
0.9409 0.9175 0.5342
0.9902 0.9072 0.5684
0.9995 0.8950 0.6084
1.0000 0.8794 0.6470
1.0000 0.8701 0.6909
1.0000 0.8652 0.7349
1.0000 0.8647 0.7734
1.0000 0.8667 0.8125
1.0000 0.8726 0.8447
1.0000 0.8804 0.8726
1.0000 0.8911 0.8970
1.0000 0.9004 0.9136
1.0000 0.9033 0.9185
0.3259 0.9785 0.4641
0.3364 0.9785 0.4641
0.3516 0.9795 0.4653
0.3574 0.9795 0.4651
0.3633 0.9795 0.4658
0.3708 0.9795 0.4653
0.3801 0.9795 0.4661
0.3940 0.9800 0.4675
0.4099 0.9805 0.4688
0.4304 0.9829 0.4731
0.4592 0.9824 0.4756
0.4878 0.9834 0.4819
0.5298 0.9834 0.4907
0.5669 0.9834 0.5010
0.6128 0.9819 0.5127
0.6558 0.9790 0.5215
0.7026 0.9746 0.5298
0.7578 0.9702 0.5415
0.8105 0.9668 0.5586
0.8662 0.9619 0.5791
0.9097 0.9585 0.6040
0.9658 0.9482 0.6274
1.0000 0.9321 0.6519
1.0000 0.9185 0.6802
1.0000 0.9048 0.7139
1.0000 0.8965 0.7510
1.0000 0.8896 0.7861
1.0000 0.8892 0.8164
1.0000 0.8901 0.8472
1.0000 0.8950 0.8740
1.0000 0.9019 0.8984
1.0000 0.9092 0.9131
1.0000 0.9106 0.9180
0.5127 1.0000 0.5635
0.5176 1.0000 0.5664
0.5220 1.0000 0.5664
0.5264 1.0000 0.5679
0.5308 1.0000 0.5703
0.5337 1.0000 0.5708
0.5410 1.0000 0.5732
0.5464 1.0000 0.5747
0.5571 1.0000 0.5806
0.5693 1.0000 0.5854
0.5815 1.0000 0.5903
0.6016 1.0000 0.5972
0.6206 1.0000 0.5996
0.6426 1.0000 0.6045
0.6646 1.0000 0.6094
0.6938 1.0000 0.6104
0.7280 0.9990 0.6177
0.7690 0.9966 0.6230
0.8086 0.9951 0.6348
0.8506 0.9927 0.6484
0.8882 0.9863 0.6616
0.9399 0.9780 0.6821
0.9839 0.9673 0.7041
1.0000 0.9541 0.7251
1.0000 0.9424 0.7485
1.0000 0.9302 0.7759
1.0000 0.9204 0.8027
1.0000 0.9141 0.8301
1.0000 0.9121 0.8560
1.0000 0.9131 0.8809
1.0000 0.9175 0.9028
1.0000 0.9204 0.9150
1.0000 0.9219 0.9170
0.6265 1.0000 0.6523
0.6294 1.0000 0.6533
0.6318 1.0000 0.6533
0.6338 1.0000 0.6543
0.6372 1.0000 0.6553
0.6382 1.0000 0.6553
0.6426 1.0000 0.6577
0.6460 1.0000 0.6587
0.6499 1.0000 0.6597
0.6567 1.0000 0.6616
0.6636 1.0000 0.6621
0.6704 1.0000 0.6631
0.6802 1.0000 0.6646
0.6934 1.0000 0.6660
0.7090 1.0000 0.6685
0.7290 1.0000 0.6724
0.7534 1.0000 0.6758
0.7808 1.0000 0.6821
0.8115 1.0000 0.6885
0.8447 0.9995 0.6973
0.8755 0.9985 0.7085
0.9204 0.9961 0.7207
0.9658 0.9883 0.7402
0.9941 0.9780 0.7563
1.0000 0.9653 0.7729
1.0000 0.9541 0.7910
1.0000 0.9424 0.8130
1.0000 0.9341 0.8364
1.0000 0.9287 0.8604
1.0000 0.9272 0.8828
1.0000 0.9287 0.9033
1.0000 0.9307 0.9146
1.0000 0.9307 0.9170
0.7026 1.0000 0.7124
0.7036 1.0000 0.7129
0.7056 1.0000 0.7144
0.7046 1.0000 0.7129
0.7070 1.0000 0.7139
0.7080 1.0000 0.7148
0.7100 1.0000 0.7144
0.7104 1.0000 0.7148
0.7139 1.0000 0.7158
0.7158 1.0000 0.7148
0.7202 1.0000 0.7158
0.7251 1.0000 0.7168
0.7305 1.0000 0.7173
0.7397 1.0000 0.7197
0.7495 1.0000 0.7212
0.7622 1.0000 0.7222
0.7778 1.0000 0.7266
0.7993 1.0000 0.7290
0.8203 1.0000 0.7358
0.8447 1.0000 0.7402
0.8721 1.0000 0.7476
0.9062 0.9995 0.7583
0.9438 0.9995 0.7754
0.9814 0.9932 0.7817
0.9980 0.9829 0.7920
1.0000 0.9717 0.8071
1.0000 0.9624 0.8252
1.0000 0.9517 0.8447
1.0000 0.9443 0.8647
1.0000 0.9399 0.8848
1.0000 0.9399 0.9038
1.0000 0.9395 0.9150
1.0000 0.9395 0.9175
0.7563 1.0000 0.7632
0.7573 1.0000 0.7637
0.7573 1.0000 0.7627
0.7573 1.0000 0.7627
0.7578 1.0000 0.7632
0.7588 1.0000 0.7632
0.7607 1.0000 0.7632
0.7612 1.0000 0.7632
0.7627 1.0000 0.7642
0.7642 1.0000 0.7642
0.7671 1.0000 0.7651
0.7695 1.0000 0.7646
0.7729 1.0000 0.7651
0.7778 1.0000 0.7656
0.7852 1.0000 0.7666
0.7935 1.0000 0.7690
0.8047 1.0000 0.7705
0.8184 1.0000 0.7739
0.8350 1.0000 0.7764
0.8525 1.0000 0.7812
0.8726 1.0000 0.7856
0.8999 1.0000 0.7944
0.9297 1.0000 0.8062
0.9624 0.9995 0.8066
0.9907 0.9961 0.8149
1.0000 0.9883 0.8271
1.0000 0.9790 0.8408
1.0000 0.9688 0.8560
1.0000 0.9614 0.8726
1.0000 0.9551 0.8892
1.0000 0.9521 0.9062
1.0000 0.9512 0.9165
1.0000 0.9507 0.9189
0.7988 1.0000 0.8047
0.7988 1.0000 0.8052
0.7988 1.0000 0.8047
0.7993 1.0000 0.8047
0.8008 1.0000 0.8047
0.8013 1.0000 0.8047
0.8013 1.0000 0.8047
0.8018 1.0000 0.8047
0.8027 1.0000 0.8047
0.8032 1.0000 0.8052
0.8057 1.0000 0.8047
0.8062 1.0000 0.8052
0.8086 1.0000 0.8057
0.8125 1.0000 0.8062
0.8169 1.0000 0.8071
0.8232 1.0000 0.8076
0.8311 1.0000 0.8096
0.8408 1.0000 0.8115
0.8501 1.0000 0.8135
0.8618 1.0000 0.8154
0.8794 1.0000 0.8188
0.8994 1.0000 0.8252
0.9214 1.0000 0.8320
0.9478 1.0000 0.8330
0.9741 1.0000 0.8408
0.9976 0.9990 0.8491
1.0000 0.9927 0.8584
1.0000 0.9849 0.8696
1.0000 0.9775 0.8828
1.0000 0.9697 0.8960
1.0000 0.9648 0.9102
1.0000 0.9629 0.9194
1.0000 0.9624 0.9214
0.8335 1.0000 0.8374
0.8335 1.0000 0.8374
0.8340 1.0000 0.8379
0.8340 1.0000 0.8379
0.8345 1.0000 0.8379
0.8345 1.0000 0.8379
0.8350 1.0000 0.8379
0.8354 1.0000 0.8379
0.8354 1.0000 0.8379
