the_perfect_mother_1.1/luts/TPM_lut.cube
# IRIDAS cube from Truelight v4.0
LUT_3D_SIZE 9
0.0000 0.0000 0.0000
0.0167 0.0000 0.0010
0.1836 0.0000 0.0000
0.3901 0.0000 0.0000
0.7041 0.0000 0.0077
1.0000 0.0048 0.3074
1.0000 0.5171 0.6904
1.0000 0.7725 0.8472
1.0000 0.8750 0.9233
0.0000 0.0498 0.0000
0.0283 0.0577 0.0000
0.1799 0.0748 0.0000
0.4094 0.0472 0.0000
0.7114 0.0000 0.0148
1.0000 0.0977 0.3132
1.0000 0.5171 0.6904
1.0000 0.7729 0.8467
1.0000 0.8750 0.9233
0.0000 0.1937 0.0000
0.0000 0.1824 0.0000
0.1759 0.1704 0.0000
0.4485 0.2083 0.0017
0.7383 0.1588 0.0008
1.0000 0.2505 0.2998
1.0000 0.5254 0.6729
1.0000 0.7705 0.8438
1.0000 0.8750 0.9233
0.0000 0.3982 0.0000
0.0000 0.3831 0.0000
0.0459 0.3948 0.0000
0.4775 0.4287 0.0000
0.7705 0.4336 0.0000
1.0000 0.4587 0.2812
1.0000 0.5879 0.6768
1.0000 0.7749 0.8389
1.0000 0.8755 0.9233
0.0000 0.6812 0.0000
0.0000 0.6826 0.0000
0.0000 0.6812 0.0000
0.4265 0.6953 0.0000
0.7461 0.7075 0.0711
0.9995 0.7158 0.3286
1.0000 0.7212 0.6597
1.0000 0.8145 0.8452
1.0000 0.8823 0.9219
0.0211 0.9282 0.3931
0.0552 0.9302 0.3960
0.2074 0.9331 0.3984
0.4441 0.9370 0.4053
0.6978 0.9380 0.4529
0.9409 0.9175 0.5342
1.0000 0.8701 0.6909
1.0000 0.8726 0.8447
1.0000 0.9033 0.9185
0.7026 1.0000 0.7124
0.7070 1.0000 0.7139
0.7139 1.0000 0.7158
0.7305 1.0000 0.7173
0.7778 1.0000 0.7266
0.8721 1.0000 0.7476
0.9980 0.9829 0.7920
1.0000 0.9443 0.8647
1.0000 0.9395 0.9175
0.8623 1.0000 0.8647
0.8633 1.0000 0.8652
0.8647 1.0000 0.8657
0.8677 1.0000 0.8652
0.8745 1.0000 0.8657
0.9004 1.0000 0.8716
0.9531 1.0000 0.8818
1.0000 0.9980 0.9048
1.0000 0.9839 0.9297
0.9346 1.0000 0.9336
0.9346 1.0000 0.9336
0.9346 1.0000 0.9336
0.9351 1.0000 0.9336
0.9370 1.0000 0.9336
0.9414 1.0000 0.9341
0.9561 1.0000 0.9365
0.9888 1.0000 0.9443
1.0000 1.0000 0.9521
0.0039 0.0052 0.0216
0.0146 0.0003 0.0494
0.1876 0.0000 0.0403
0.3962 0.0000 0.0137
0.7158 0.0000 0.0229
0.9990 0.0078 0.3108
1.0000 0.5005 0.6709
1.0000 0.7627 0.8398
1.0000 0.8750 0.9233
0.0000 0.0287 0.0489
0.0107 0.0392 0.0497
0.1765 0.0586 0.0160
0.4111 0.0064 0.0097
0.7217 0.0000 0.0328
1.0000 0.0279 0.3135
1.0000 0.5024 0.6709
1.0000 0.7627 0.8398
1.0000 0.8750 0.9233
0.0000 0.1726 0.0554
0.0000 0.1677 0.0294
0.1613 0.1725 0.0039
0.4424 0.1985 0.0300
0.7344 0.1578 0.0017
1.0000 0.2345 0.3042
1.0000 0.5137 0.6616
1.0000 0.7607 0.8384
1.0000 0.8740 0.9233
0.0000 0.3933 0.0000
0.0000 0.3831 0.0000
0.0106 0.3892 0.0000
0.4741 0.4297 0.0000
0.7637 0.4314 0.0014
0.9995 0.4543 0.2795
1.0000 0.5815 0.6719
1.0000 0.7681 0.8325
1.0000 0.8735 0.9214
0.0000 0.6870 0.0000
0.0000 0.6870 0.0000
0.0000 0.6875 0.0000
0.4136 0.6987 0.0000
0.7437 0.7080 0.0907
1.0000 0.7124 0.3259
1.0000 0.7192 0.6445
1.0000 0.8125 0.8428
1.0000 0.8828 0.9219
0.0203 0.9316 0.4023
0.0497 0.9316 0.4016
0.1965 0.9341 0.4028
0.4407 0.9404 0.4111
0.6909 0.9355 0.4470
0.9355 0.9185 0.5317
1.0000 0.8755 0.6812
1.0000 0.8711 0.8379
1.0000 0.9033 0.9185
0.6953 1.0000 0.7085
0.6987 1.0000 0.7085
0.7051 1.0000 0.7104
0.7212 1.0000 0.7129
0.7720 1.0000 0.7241
0.8657 1.0000 0.7422
0.9966 0.9858 0.7910
1.0000 0.9443 0.8638
1.0000 0.9404 0.9180
0.8594 1.0000 0.8638
0.8608 1.0000 0.8638
0.8618 1.0000 0.8638
0.8647 1.0000 0.8638
0.8721 1.0000 0.8638
0.8970 1.0000 0.8696
0.9482 1.0000 0.8809
1.0000 0.9985 0.9038
1.0000 0.9839 0.9297
0.9355 1.0000 0.9341
0.9355 1.0000 0.9341
0.9360 1.0000 0.9341
0.9360 1.0000 0.9341
0.9375 1.0000 0.9336
0.9424 1.0000 0.9341
0.9570 1.0000 0.9370
0.9863 1.0000 0.9443
1.0000 1.0000 0.9521
0.0000 0.0000 0.1650
0.0000 0.0000 0.2008
0.1549 0.0000 0.1637
0.4080 0.0000 0.1591
0.7271 0.0000 0.1782
1.0000 0.0000 0.3340
1.0000 0.5000 0.6772
1.0000 0.7607 0.8403
1.0000 0.8740 0.9233
0.0000 0.0000 0.2194
0.0000 0.0000 0.2247
0.1620 0.0000 0.1523
0.4136 0.0000 0.1516
0.7271 0.0000 0.1683
1.0000 0.0000 0.3301
1.0000 0.5020 0.6768
1.0000 0.7607 0.8403
1.0000 0.8740 0.9233
0.0000 0.1085 0.1740
0.0000 0.1158 0.1730
0.1239 0.1394 0.1639
0.4463 0.1710 0.1516
0.7383 0.0717 0.1564
1.0000 0.2064 0.3235
1.0000 0.5083 0.6646
1.0000 0.7607 0.8389
1.0000 0.8740 0.9233
0.0000 0.3467 0.1738
0.0000 0.3486 0.1749
0.0193 0.3604 0.1621
0.4668 0.4165 0.1229
0.7681 0.4197 0.1404
0.9995 0.4395 0.2964
1.0000 0.5718 0.6631
1.0000 0.7686 0.8354
1.0000 0.8735 0.9214
0.0000 0.6670 0.0000
0.0000 0.6685 0.0000
0.0000 0.6743 0.0000
0.4141 0.6885 0.0000
0.7549 0.7017 0.1338
1.0000 0.7065 0.3335
1.0000 0.7173 0.6338
1.0000 0.8027 0.8301
1.0000 0.8823 0.9224
0.0000 0.9214 0.3921
0.0530 0.9238 0.3945
0.1554 0.9258 0.3955
0.4358 0.9321 0.4019
0.6968 0.9302 0.4417
0.9448 0.9106 0.5244
1.0000 0.8711 0.6787
1.0000 0.8711 0.8413
1.0000 0.9028 0.9189
0.6914 1.0000 0.7026
0.6973 1.0000 0.7036
0.7056 1.0000 0.7065
0.7251 1.0000 0.7095
0.7788 1.0000 0.7231
0.8730 1.0000 0.7412
0.9971 0.9834 0.7896
1.0000 0.9478 0.8628
1.0000 0.9414 0.9180
0.8628 1.0000 0.8647
0.8633 1.0000 0.8643
0.8638 1.0000 0.8643
0.8662 1.0000 0.8643
0.8735 1.0000 0.8638
0.8994 1.0000 0.8701
0.9521 1.0000 0.8828
1.0000 0.9995 0.9058
1.0000 0.9854 0.9302
0.9360 1.0000 0.9341
0.9360 1.0000 0.9341
0.9365 1.0000 0.9346
0.9370 1.0000 0.9346
0.9385 1.0000 0.9346
0.9434 1.0000 0.9351
0.9575 1.0000 0.9375
0.9863 1.0000 0.9458
1.0000 1.0000 0.9531
0.0000 0.0000 0.4062
0.0000 0.0000 0.4116
0.0000 0.0000 0.4119
0.4211 0.0000 0.3650
0.7300 0.0000 0.3640
1.0000 0.0028 0.4160
1.0000 0.4878 0.6538
1.0000 0.7500 0.8374
1.0000 0.8735 0.9233
0.0000 0.0000 0.4287
0.0000 0.0000 0.4329
0.0000 0.0000 0.4155
0.4333 0.0000 0.3650
0.7280 0.0000 0.3579
1.0000 0.0000 0.4143
1.0000 0.4871 0.6455
1.0000 0.7520 0.8389
1.0000 0.8735 0.9233
0.0000 0.0000 0.4270
0.0000 0.0000 0.4287
0.0000 0.0000 0.4236
0.4426 0.0002 0.3752
0.7363 0.0000 0.3643
0.9985 0.0974 0.4062
1.0000 0.4939 0.6562
1.0000 0.7524 0.8374
1.0000 0.8735 0.9233
0.0000 0.3145 0.3960
0.0000 0.3232 0.3994
0.0000 0.3381 0.4011
0.4097 0.3735 0.4053
0.7524 0.3914 0.3916
0.9995 0.4048 0.3884
1.0000 0.5532 0.6743
1.0000 0.7632 0.8350
1.0000 0.8726 0.9224
0.0000 0.6484 0.3650
0.0000 0.6484 0.3711
0.0000 0.6499 0.3806
0.3569 0.6792 0.3857
0.7393 0.7002 0.3628
0.9985 0.7012 0.3884
1.0000 0.7090 0.6406
1.0000 0.8052 0.8374
1.0000 0.8828 0.9229
0.0000 0.9189 0.4141
0.0289 0.9214 0.4167
0.1247 0.9248 0.4167
0.4363 0.9282 0.4150
0.6992 0.9258 0.4478
0.9429 0.9092 0.5264
1.0000 0.8696 0.6816
1.0000 0.8711 0.8442
1.0000 0.9028 0.9189
0.6919 1.0000 0.7021
0.6958 1.0000 0.7021
0.7036 1.0000 0.7036
0.7222 1.0000 0.7075
0.7744 1.0000 0.7192
0.8750 1.0000 0.7363
0.9966 0.9839 0.7886
1.0000 0.9473 0.8643
1.0000 0.9414 0.9185
0.8608 1.0000 0.8638
0.8618 1.0000 0.8638
0.8623 1.0000 0.8633
0.8643 1.0000 0.8633
0.8730 1.0000 0.8643
0.8984 1.0000 0.8696
0.9521 1.0000 0.8809
1.0000 0.9990 0.9053
1.0000 0.9858 0.9307
0.9360 1.0000 0.9341
0.9360 1.0000 0.9346
0.9360 1.0000 0.9346
0.9365 1.0000 0.9341
0.9380 1.0000 0.9341
0.9424 1.0000 0.9341
0.9565 1.0000 0.9370
0.9873 1.0000 0.9448
1.0000 1.0000 0.9526
0.0000 0.0000 0.6201
0.0000 0.0000 0.6201
0.0000 0.0003 0.6226
0.3975 0.0000 0.6235
0.7300 0.0000 0.6260
1.0000 0.0392 0.6079
1.0000 0.4851 0.7588
1.0000 0.7632 0.8579
1.0000 0.8735 0.9272
0.0000 0.0005 0.6309
0.0000 0.0006 0.6279
0.0000 0.0004 0.6260
0.3979 0.0000 0.6240
0.7290 0.0000 0.6235
1.0000 0.0509 0.6099
1.0000 0.4849 0.7603
1.0000 0.7632 0.8579
1.0000 0.8735 0.9268
0.0000 0.0000 0.6387
0.0000 0.0000 0.6406
0.0000 0.0004 0.6445
0.3984 0.0000 0.6382
0.7427 0.0000 0.6367
1.0000 0.0792 0.6094
1.0000 0.4790 0.7520
1.0000 0.7622 0.8569
1.0000 0.8735 0.9268
0.0000 0.2000 0.6387
0.0000 0.2162 0.6392
0.0000 0.2130 0.6455
0.3767 0.2561 0.6440
0.7397 0.2539 0.6484
1.0000 0.3396 0.6338
1.0000 0.5127 0.7710
1.0000 0.7622 0.8521
1.0000 0.8740 0.9268
0.0000 0.6016 0.6426
0.0000 0.6011 0.6450
0.0000 0.6108 0.6509
0.2214 0.6401 0.6597
0.7021 0.6548 0.6660
0.9878 0.6465 0.6631
1.0000 0.6938 0.7314
1.0000 0.8052 0.8506
1.0000 0.8813 0.9253
0.0000 0.9038 0.5918
0.0000 0.9072 0.5894
0.0000 0.9097 0.5908
0.3550 0.9170 0.6006
0.6489 0.9229 0.6196
0.9336 0.9116 0.6284
1.0000 0.8750 0.7231
1.0000 0.8755 0.8525
1.0000 0.9043 0.9209
0.6875 1.0000 0.7114
0.6934 1.0000 0.7124
0.7021 1.0000 0.7144
0.7246 1.0000 0.7207
0.7754 1.0000 0.7329
0.8687 1.0000 0.7549
0.9941 0.9883 0.7993
1.0000 0.9536 0.8706
1.0000 0.9458 0.9204
0.8667 1.0000 0.8716
0.8672 1.0000 0.8716
0.8682 1.0000 0.8716
0.8696 1.0000 0.8711
0.8784 1.0000 0.8730
0.9014 1.0000 0.8794
0.9497 1.0000 0.8896
1.0000 0.9995 0.9116
1.0000 0.9897 0.9331
0.9399 1.0000 0.9385
0.9399 1.0000 0.9385
0.9399 1.0000 0.9385
0.9404 1.0000 0.9390
0.9414 1.0000 0.9390
0.9463 1.0000 0.9395
0.9590 1.0000 0.9429
0.9854 1.0000 0.9497
1.0000 1.0000 0.9561
0.2605 0.3601 0.8818
0.2605 0.3608 0.8838
0.2629 0.3599 0.8804
0.3281 0.3699 0.8965
0.6626 0.3384 0.9209
1.0000 0.3250 0.9541
1.0000 0.5269 0.9292
1.0000 0.7612 0.9229
1.0000 0.8701 0.9370
0.2600 0.3640 0.8867
0.2600 0.3640 0.8867
0.2642 0.3643 0.8882
0.3311 0.3699 0.8965
0.6660 0.3391 0.9224
1.0000 0.3313 0.9585
1.0000 0.5317 0.9321
1.0000 0.7612 0.9229
1.0000 0.8701 0.9370
0.2595 0.3557 0.8774
0.2595 0.3557 0.8774
0.2607 0.3530 0.8740
0.3198 0.3623 0.8872
0.6665 0.3337 0.9194
1.0000 0.3186 0.9492
1.0000 0.5200 0.9326
1.0000 0.7607 0.9248
1.0000 0.8701 0.9370
0.2620 0.3647 0.8848
0.2593 0.3638 0.8853
0.2683 0.3618 0.8818
0.3298 0.3743 0.8979
0.6729 0.3499 0.9170
1.0000 0.3450 0.9468
1.0000 0.5298 0.9292
1.0000 0.7632 0.9209
1.0000 0.8701 0.9370
0.1747 0.4854 0.8984
0.1554 0.4893 0.8911
0.1620 0.4841 0.8867
0.2476 0.5063 0.9043
0.6807 0.5288 0.9175
0.9878 0.5347 0.9263
1.0000 0.6353 0.9424
1.0000 0.7905 0.9214
1.0000 0.8770 0.9365
0.0000 0.8696 0.8647
0.0000 0.8721 0.8638
0.0000 0.8745 0.8682
0.2136 0.8848 0.8809
0.6001 0.8823 0.8823
0.9248 0.8672 0.8809
1.0000 0.8521 0.8735
1.0000 0.8726 0.8999
1.0000 0.9033 0.9302
0.6572 1.0000 0.8140
0.6641 1.0000 0.8130
0.6724 1.0000 0.8125
0.6958 1.0000 0.8130
0.7441 1.0000 0.8149
0.8423 0.9995 0.8188
0.9927 0.9907 0.8447
1.0000 0.9570 0.8916
1.0000 0.9502 0.9248
0.8726 1.0000 0.8833
0.8726 1.0000 0.8833
0.8740 1.0000 0.8843
0.8765 1.0000 0.8853
0.8848 1.0000 0.8872
0.9053 1.0000 0.8921
0.9492 1.0000 0.9014
0.9995 1.0000 0.9199
1.0000 0.9941 0.9370
0.9395 1.0000 0.9390
0.9395 1.0000 0.9390
0.9399 1.0000 0.9395
0.9404 1.0000 0.9395
0.9419 1.0000 0.9399
0.9463 1.0000 0.9409
0.9600 1.0000 0.9438
0.9873 1.0000 0.9502
1.0000 1.0000 0.9561
0.5327 0.5791 1.0000
0.5327 0.5791 1.0000
0.5327 0.5791 1.0000
0.5430 0.5840 1.0000
0.6118 0.6094 1.0000
0.8711 0.6055 1.0000
1.0000 0.6240 1.0000
1.0000 0.7568 1.0000
1.0000 0.8638 0.9951
0.5449 0.5889 1.0000
0.5449 0.5889 1.0000
0.5439 0.5879 1.0000
0.5469 0.5874 1.0000
0.6108 0.6084 1.0000
0.8682 0.6045 1.0000
1.0000 0.6240 1.0000
1.0000 0.7568 1.0000
1.0000 0.8638 0.9951
0.5327 0.5791 1.0000
0.5327 0.5791 1.0000
0.5327 0.5791 1.0000
0.5464 0.5869 1.0000
0.6050 0.6011 1.0000
0.8687 0.5991 1.0000
1.0000 0.6094 1.0000
1.0000 0.7578 1.0000
1.0000 0.8638 0.9951
0.5425 0.5864 1.0000
0.5425 0.5864 1.0000
0.5425 0.5864 1.0000
0.5527 0.5938 1.0000
0.6060 0.6021 1.0000
0.8672 0.6006 1.0000
1.0000 0.6113 1.0000
1.0000 0.7593 1.0000
1.0000 0.8638 0.9951
0.5669 0.6104 1.0000
0.5669 0.6104 1.0000
0.5669 0.6104 1.0000
0.5679 0.6099 1.0000
0.6206 0.6230 1.0000
0.8696 0.6240 1.0000
1.0000 0.6489 1.0000
1.0000 0.7759 1.0000
1.0000 0.8672 0.9951
0.5410 0.7129 1.0000
0.5479 0.7246 1.0000
0.5420 0.7183 1.0000
0.5566 0.7227 1.0000
0.6133 0.7505 1.0000
0.8804 0.7568 1.0000
0.9995 0.7715 1.0000
1.0000 0.8384 1.0000
1.0000 0.8887 0.9907
0.6016 0.9941 0.9922
0.6060 0.9951 0.9912
0.6157 0.9966 0.9902
0.6396 0.9976 0.9922
0.7002 0.9946 0.9932
0.8062 0.9829 0.9834
0.9893 0.9639 0.9731
1.0000 0.9429 0.9629
1.0000 0.9419 0.9600
0.8638 1.0000 0.9136
0.8638 1.0000 0.9136
0.8657 1.0000 0.9141
0.8687 1.0000 0.9141
0.8779 1.0000 0.9150
0.9004 1.0000 0.9175
0.9507 1.0000 0.9238
1.0000 0.9995 0.9360
1.0000 0.9922 0.9468
0.9385 1.0000 0.9409
0.9390 1.0000 0.9409
0.9390 1.0000 0.9409
0.9395 1.0000 0.9414
0.9409 1.0000 0.9414
0.9463 1.0000 0.9429
0.9604 1.0000 0.9453
0.9888 1.0000 0.9517
1.0000 1.0000 0.9575
0.7656 0.7773 1.0000
0.7656 0.7773 1.0000
0.7656 0.7773 1.0000
0.7656 0.7773 1.0000
0.7871 0.7959 1.0000
0.8125 0.8066 1.0000
0.9180 0.8164 1.0000
1.0000 0.8350 1.0000
1.0000 0.8755 1.0000
0.7656 0.7773 1.0000
0.7656 0.7773 1.0000
0.7656 0.7773 1.0000
0.7656 0.7773 1.0000
0.7856 0.7954 1.0000
0.8125 0.8066 1.0000
0.9180 0.8164 1.0000
1.0000 0.8359 1.0000
1.0000 0.8755 1.0000
0.7690 0.7812 1.0000
0.7690 0.7812 1.0000
0.7690 0.7812 1.0000
0.7690 0.7812 1.0000
0.7808 0.7915 1.0000
0.8115 0.8052 1.0000
0.9131 0.8076 1.0000
1.0000 0.8350 1.0000
1.0000 0.8755 1.0000
0.7729 0.7852 1.0000
0.7729 0.7852 1.0000
0.7729 0.7852 1.0000
0.7725 0.7847 1.0000
0.7842 0.7944 1.0000
0.8120 0.8052 1.0000
0.9150 0.8086 1.0000
1.0000 0.8354 1.0000
1.0000 0.8755 1.0000
0.7856 0.7959 1.0000
0.7856 0.7959 1.0000
0.7856 0.7959 1.0000
0.7861 0.7964 1.0000
0.7930 0.8018 1.0000
0.8149 0.8086 1.0000
0.9116 0.8218 1.0000
1.0000 0.8423 1.0000
1.0000 0.8774 1.0000
0.7944 0.8101 1.0000
0.7944 0.8101 1.0000
0.7944 0.8101 1.0000
0.7944 0.8101 1.0000
0.8032 0.8145 1.0000
0.8247 0.8218 1.0000
0.9253 0.8345 1.0000
1.0000 0.8540 1.0000
1.0000 0.8843 1.0000
0.7915 0.8789 1.0000
0.7896 0.8760 1.0000
0.7812 0.8696 1.0000
0.7876 0.8726 1.0000
0.8057 0.8804 1.0000
0.8296 0.8838 1.0000
0.9351 0.8862 1.0000
1.0000 0.8979 1.0000
1.0000 0.9160 1.0000
0.8452 1.0000 1.0000
0.8457 1.0000 1.0000
0.8462 1.0000 1.0000
0.8486 1.0000 1.0000
0.8574 1.0000 1.0000
0.8833 1.0000 0.9995
0.9390 1.0000 0.9990
1.0000 0.9932 0.9971
1.0000 0.9829 0.9941
0.9341 1.0000 0.9648
0.9346 1.0000 0.9653
0.9346 1.0000 0.9653
0.9346 1.0000 0.9653
0.9370 1.0000 0.9653
0.9424 1.0000 0.9653
0.9575 1.0000 0.9668
0.9888 1.0000 0.9692
1.0000 1.0000 0.9717
0.8877 0.8906 1.0000
0.8877 0.8906 1.0000
0.8877 0.8906 1.0000
0.8877 0.8906 1.0000
0.8877 0.8906 1.0000
0.9023 0.9038 1.0000
0.9102 0.9043 1.0000
0.9653 0.9102 1.0000
1.0000 0.9170 1.0000
0.8877 0.8906 1.0000
0.8877 0.8906 1.0000
0.8877 0.8906 1.0000
0.8877 0.8906 1.0000
0.8877 0.8906 1.0000
0.9023 0.9038 1.0000
0.9102 0.9043 1.0000
0.9653 0.9102 1.0000
1.0000 0.9170 1.0000
0.8877 0.8906 1.0000
0.8877 0.8906 1.0000
0.8877 0.8906 1.0000
0.8877 0.8906 1.0000
0.8877 0.8906 1.0000
0.9023 0.9038 1.0000
0.9102 0.9043 1.0000
0.9653 0.9102 1.0000
1.0000 0.9170 1.0000
0.8945 0.8979 1.0000
0.8945 0.8979 1.0000
0.8945 0.8979 1.0000
0.8945 0.8979 1.0000
0.8945 0.8979 1.0000
0.9023 0.9038 1.0000
0.9092 0.9043 1.0000
0.9722 0.9106 1.0000
1.0000 0.9170 1.0000
0.9014 0.9038 1.0000
0.9014 0.9038 1.0000
0.9014 0.9038 1.0000
0.9014 0.9038 1.0000
0.9014 0.9038 1.0000
0.9023 0.9038 1.0000
0.9102 0.9043 1.0000
0.9697 0.9106 1.0000
1.0000 0.9170 1.0000
0.9014 0.9038 1.0000
0.9014 0.9038 1.0000
0.9014 0.9038 1.0000
0.9014 0.9038 1.0000
0.9014 0.9038 1.0000
0.9028 0.9038 1.0000
0.9116 0.9053 1.0000
0.9741 0.9116 1.0000
1.0000 0.9180 1.0000
0.9014 0.9077 1.0000
0.9014 0.9077 1.0000
0.9014 0.9077 1.0000
0.9014 0.9077 1.0000
0.9014 0.9077 1.0000
0.9023 0.9082 1.0000
0.9126 0.9097 1.0000
0.9800 0.9155 1.0000
1.0000 0.9214 1.0000
0.8979 0.9600 1.0000
0.8979 0.9600 1.0000
0.8979 0.9541 1.0000
0.8984 0.9551 1.0000
0.8989 0.9629 1.0000
0.9019 0.9678 1.0000
0.9209 0.9668 1.0000
0.9902 0.9634 1.0000
1.0000 0.9634 1.0000
0.9248 1.0000 1.0000
0.9248 1.0000 1.0000
0.9248 1.0000 1.0000
0.9258 1.0000 1.0000
0.9272 1.0000 1.0000
0.9336 1.0000 1.0000
0.9497 1.0000 0.9995
0.9839 1.0000 1.0000
0.9995 1.0000 0.9995
