the_perfect_mother_1.1/luts/TPM_lut.cube
# IRIDAS cube from Truelight v4.0
LUT_3D_SIZE 5
0.0000 0.0000 0.0000
0.1836 0.0000 0.0000
0.7041 0.0000 0.0077
1.0000 0.5171 0.6904
1.0000 0.8750 0.9233
0.0000 0.1937 0.0000
0.1759 0.1704 0.0000
0.7383 0.1588 0.0008
1.0000 0.5254 0.6729
1.0000 0.8750 0.9233
0.0000 0.6812 0.0000
0.0000 0.6812 0.0000
0.7461 0.7075 0.0711
1.0000 0.7212 0.6597
1.0000 0.8823 0.9219
0.7026 1.0000 0.7124
0.7139 1.0000 0.7158
0.7778 1.0000 0.7266
0.9980 0.9829 0.7920
1.0000 0.9395 0.9175
0.9346 1.0000 0.9336
0.9346 1.0000 0.9336
0.9370 1.0000 0.9336
0.9561 1.0000 0.9365
1.0000 1.0000 0.9521
0.0000 0.0000 0.1650
0.1549 0.0000 0.1637
0.7271 0.0000 0.1782
1.0000 0.5000 0.6772
1.0000 0.8740 0.9233
0.0000 0.1085 0.1740
0.1239 0.1394 0.1639
0.7383 0.0717 0.1564
1.0000 0.5083 0.6646
1.0000 0.8740 0.9233
0.0000 0.6670 0.0000
0.0000 0.6743 0.0000
0.7549 0.7017 0.1338
1.0000 0.7173 0.6338
1.0000 0.8823 0.9224
0.6914 1.0000 0.7026
0.7056 1.0000 0.7065
0.7788 1.0000 0.7231
0.9971 0.9834 0.7896
1.0000 0.9414 0.9180
0.9360 1.0000 0.9341
0.9365 1.0000 0.9346
0.9385 1.0000 0.9346
0.9575 1.0000 0.9375
1.0000 1.0000 0.9531
0.0000 0.0000 0.6201
0.0000 0.0003 0.6226
0.7300 0.0000 0.6260
1.0000 0.4851 0.7588
1.0000 0.8735 0.9272
0.0000 0.0000 0.6387
0.0000 0.0004 0.6445
0.7427 0.0000 0.6367
1.0000 0.4790 0.7520
1.0000 0.8735 0.9268
0.0000 0.6016 0.6426
0.0000 0.6108 0.6509
0.7021 0.6548 0.6660
1.0000 0.6938 0.7314
1.0000 0.8813 0.9253
0.6875 1.0000 0.7114
0.7021 1.0000 0.7144
0.7754 1.0000 0.7329
0.9941 0.9883 0.7993
1.0000 0.9458 0.9204
0.9399 1.0000 0.9385
0.9399 1.0000 0.9385
0.9414 1.0000 0.9390
0.9590 1.0000 0.9429
1.0000 1.0000 0.9561
0.5327 0.5791 1.0000
0.5327 0.5791 1.0000
0.6118 0.6094 1.0000
1.0000 0.6240 1.0000
1.0000 0.8638 0.9951
0.5327 0.5791 1.0000
0.5327 0.5791 1.0000
0.6050 0.6011 1.0000
1.0000 0.6094 1.0000
1.0000 0.8638 0.9951
0.5669 0.6104 1.0000
0.5669 0.6104 1.0000
0.6206 0.6230 1.0000
1.0000 0.6489 1.0000
1.0000 0.8672 0.9951
0.6016 0.9941 0.9922
0.6157 0.9966 0.9902
0.7002 0.9946 0.9932
0.9893 0.9639 0.9731
1.0000 0.9419 0.9600
0.9385 1.0000 0.9409
0.9390 1.0000 0.9409
0.9409 1.0000 0.9414
0.9604 1.0000 0.9453
1.0000 1.0000 0.9575
0.8877 0.8906 1.0000
0.8877 0.8906 1.0000
0.8877 0.8906 1.0000
0.9102 0.9043 1.0000
1.0000 0.9170 1.0000
0.8877 0.8906 1.0000
0.8877 0.8906 1.0000
0.8877 0.8906 1.0000
0.9102 0.9043 1.0000
1.0000 0.9170 1.0000
0.9014 0.9038 1.0000
0.9014 0.9038 1.0000
0.9014 0.9038 1.0000
0.9102 0.9043 1.0000
1.0000 0.9170 1.0000
0.9014 0.9077 1.0000
0.9014 0.9077 1.0000
0.9014 0.9077 1.0000
0.9126 0.9097 1.0000
1.0000 0.9214 1.0000
0.9248 1.0000 1.0000
0.9248 1.0000 1.0000
0.9272 1.0000 1.0000
0.9497 1.0000 0.9995
0.9995 1.0000 0.9995
