sandaya_1.0/luts/KODAK_2383_ACESCG_TO_SRGB.cube
TITLE "Generated by Resolve"
LUT_3D_SIZE 9
0.00213626 0.00241093 0.00361639
0.3608 0.00567636 0
0.510811 0.00288396 0
0.571191 0.00364691 0
0.603128 0.0040589 0
0.6224 0.00430304 0
0.635218 0.00447089 0
0.643977 0.00457771 0
0.650614 0.00466926 0
0 0.153307 0.0215152
0.297948 0.213901 0
0.527153 0.224491 0
0.626627 0.210636 0
0.679042 0.18558 0
0.704952 0.156542 0
0.715953 0.129381 0
0.718517 0.100969 0
0.715663 0.0698405 0
0 0.245777 0.0153506
0.274891 0.341894 0
0.534295 0.377523 0
0.661845 0.380728 0
0.727718 0.370459 0
0.768368 0.357641 0
0.792233 0.344182 0
0.805524 0.328862 0
0.81323 0.313207 0
0 0.295872 0.00665293
0.24535 0.420523 0
0.525063 0.474388 0
0.672038 0.48986 0
0.748974 0.489754 0
0.797772 0.482872 0
0.828946 0.473793 0
0.847333 0.463294 0
0.858946 0.45182 0
0 0.328237 0.000244144
0.211948 0.466255 0
0.513603 0.532509 0
0.673838 0.557183 0
0.757137 0.564187 0
0.811399 0.563622 0
0.847364 0.55903 0
0.870756 0.552804 0
0.886595 0.545556 0
0 0.353109 0
0.17258 0.498741 0
0.502068 0.572183 0
0.669841 0.602182 0
0.758907 0.613275 0
0.816846 0.615808 0
0.856565 0.614527 0
0.884108 0.611688 0
0.902312 0.607477 0
0 0.372457 0
0.127749 0.523461 0
0.491112 0.60235 0
0.663386 0.636683 0
0.758282 0.651423 0
0.818479 0.656306 0
0.861418 0.656947 0
0.8916 0.655772 0
0.911131 0.652827 0
0 0.387564 0
0.085771 0.543328 0
0.481209 0.6262 0
0.656565 0.663188 0
0.756085 0.681224 0
0.818875 0.688228 0
0.864118 0.690776 0
0.895232 0.691066 0
0.917159 0.689616 0
0 0.399222 0
0.0675822 0.55758 0
0.472404 0.643946 0
0.650248 0.684245 0
0.752758 0.705135 0
0.817838 0.714641 0
0.864332 0.718349 0
0.897108 0.71928 0
0.921035 0.719066 0
0 0 0.290684
0.369818 4.57771e-05 0.245106
0.528466 0.00231937 0.227588
0.597009 0.000701915 0.21268
0.630304 7.62951e-05 0.199313
0.650355 1.5259e-05 0.187167
0.663706 0.000167849 0.177279
0.672908 0.000396735 0.168383
0.679255 0.000656138 0.15996
0 0.242725 0.415274
0.254414 0.274464 0.307347
0.50985 0.265446 0.263966
0.622034 0.237308 0.228779
0.680217 0.200702 0.200427
0.710674 0.157702 0.176898
0.723217 0.111589 0.157397
0.725429 0.0554208 0.139651
0.723079 0.00236515 0.124666
0 0.360281 0.420783
0.142245 0.415625 0.301076
0.486198 0.434791 0.250355
0.636316 0.428046 0.209964
0.710948 0.412375 0.177523
0.758007 0.393103 0.150942
0.787289 0.372824 0.128038
0.803403 0.353582 0.107362
0.812497 0.333883 0.090425
0 0.412848 0.405585
0.0269474 0.489158 0.27686
0.459449 0.528023 0.214588
0.632776 0.534813 0.163027
0.719875 0.529168 0.113558
0.774456 0.518303 0.0628824
0.810971 0.505394 0.0175784
0.836057 0.49369 0.00349432
0.853925 0.482795 0.00161746
0 0.438804 0.377081
0.00271611 0.525811 0.242802
0.43946 0.575387 0.166979
0.622751 0.59089 0.0896468
0.721401 0.593927 0.00428779
0.785 0.594705 0
0.83093 0.593057 0
0.863264 0.589624 0
0.884657 0.584726 0
0 0.453132 0.338811
1.5259e-05 0.548043 0.199512
0.425101 0.603998 0.101457
0.617136 0.629374 0.00715648
0.726864 0.644785 0
0.796262 0.651514 0
0.844892 0.652659 0
0.879438 0.651835 0
0.904356 0.649668 0
0 0.459815 0.29453
1.5259e-05 0.561975 0.148852
0.418235 0.625071 0.00698863
0.61825 0.66392 0
0.733303 0.685618 0
0.804746 0.695155 0
0.8551 0.698665 0
0.891142 0.699229 0
0.917876 0.697932 0
0 0.461616 0.242252
0.00015259 0.567529 0.0737469
0.422126 0.648661 0
0.623316 0.694286 0
0.739345 0.717311 0
0.810941 0.727901 0
0.860838 0.731106 0
0.897353 0.731472 0
0.924559 0.729992 0
0 0.45684 0.184527
0.00238041 0.576272 0.000442512
0.430289 0.668879 0
0.627253 0.712779 0
0.742 0.735882 0
0.812116 0.746059 0
0.862089 0.750149 0
0.898878 0.751614 0
0.926116 0.750835 0
0 0 0.390555
0.381445 0 0.379248
0.542596 0.000137331 0.369558
0.6094 0.00222782 0.359197
0.64152 0.00427253 0.349355
0.661158 0.00497444 0.34023
0.6748 0.0049897 0.33283
0.685069 0.00476081 0.32726
0.69192 0.00442512 0.321782
0 0.23769 0.555688
0.228534 0.289693 0.486229
0.505119 0.279454 0.4589
0.622324 0.248615 0.431815
0.680934 0.208865 0.407477
0.713512 0.162188 0.386023
0.726436 0.110002 0.365988
0.729381 0.037583 0.347402
0.730358 0.00424201 0.332387
0 0.37995 0.591577
0.0314183 0.447547 0.512596
0.461067 0.467933 0.48452
0.625177 0.460868 0.460166
0.70573 0.444556 0.439033
0.757275 0.425025 0.420478
0.789609 0.403525 0.404364
0.808392 0.383246 0.389288
0.819623 0.362539 0.376089
0 0.442741 0.599359
0.000183108 0.530739 0.52047
0.415717 0.569589 0.484413
0.608774 0.57702 0.459419
0.705043 0.572106 0.438102
0.763149 0.56144 0.418601
0.802853 0.548898 0.401816
0.83003 0.53489 0.386862
0.847578 0.520821 0.373983
0 0.475761 0.59353
0 0.574151 0.517311
0.378332 0.62208 0.475547
0.589242 0.638987 0.449897
0.698405 0.642069 0.4271
0.764111 0.637812 0.406882
0.809369 0.630152 0.388891
0.840482 0.622049 0.373495
0.862074 0.613352 0.359274
0 0.49868 0.585031
0 0.602609 0.507164
0.348211 0.656672 0.462181
0.571954 0.678218 0.434867
0.688762 0.685573 0.410574
0.759152 0.685222 0.389609
0.808194 0.680568 0.370794
0.843183 0.674876 0.353216
0.868757 0.668055 0.337881
0 0.513664 0.572778
0 0.622766 0.494026
0.323461 0.68011 0.44593
0.557321 0.705882 0.416388
0.680217 0.716548 0.390921
0.753643 0.719005 0.367926
0.805325 0.717083 0.346914
0.843427 0.712993 0.328511
0.871641 0.708186 0.311757
0 0.524025 0.558053
0 0.635554 0.479347
0.299886 0.695598 0.427451
0.54377 0.7252 0.396231
0.673014 0.739406 0.367193
0.748928 0.744015 0.342275
0.802441 0.743191 0.320027
0.842649 0.74081 0.300511
0.871427 0.737057 0.281636
0 0.530007 0.540673
0 0.644327 0.462196
0.282231 0.706722 0.40737
0.532891 0.737896 0.372747
0.667048 0.753796 0.341573
0.744823 0.760174 0.315053
0.799664 0.761868 0.290303
0.84126 0.761074 0.267063
0.871092 0.758907 0.246357
0 0 0.4365
0.385397 0 0.445838
0.548562 0 0.441749
0.618631 0.000137331 0.435752
0.651987 0.000793469 0.428519
0.672343 0.00181582 0.422141
0.685389 0.0028687 0.41706
0.69485 0.0037995 0.4121
0.700816 0.00445563 0.407233
0 0.226276 0.615976
0.214893 0.290486 0.570977
0.501289 0.277852 0.554376
0.62237 0.244175 0.532647
0.682948 0.198154 0.510338
0.715267 0.145968 0.488838
0.727337 0.0840009 0.467811
0.73109 0.00794995 0.448478
0.736309 0.00489815 0.435218
0 0.381643 0.665461
0.00602731 0.457725 0.612375
0.446372 0.478019 0.594919
0.618433 0.471824 0.578347
0.700404 0.455695 0.560494
0.752148 0.435523 0.544274
0.786267 0.414359 0.529854
0.806302 0.39321 0.516289
0.818311 0.371313 0.503258
0 0.447013 0.679911
0 0.544915 0.631647
0.389227 0.584848 0.606271
0.593469 0.592767 0.5888
0.693919 0.588586 0.572335
0.755138 0.578408 0.557076
0.797604 0.565744 0.543023
0.826947 0.551553 0.529992
0.845441 0.537179 0.518364
0 0.485298 0.683223
0 0.590845 0.637171
0.340826 0.639994 0.606912
0.569039 0.657649 0.589426
0.683696 0.661494 0.573251
0.751995 0.657786 0.557671
0.798749 0.651209 0.543328
0.831159 0.643091 0.530297
0.854673 0.635004 0.518975
0 0.511437 0.681712
0 0.62153 0.6365
0.29987 0.676432 0.602243
0.547112 0.699397 0.584924
0.670787 0.707668 0.568215
0.744289 0.707881 0.552254
0.795392 0.703731 0.53782
0.832135 0.698543 0.52517
0.859495 0.693141 0.513634
0 0.529152 0.677195
0 0.643687 0.632975
0.256031 0.701381 0.595163
0.526497 0.728923 0.577707
0.658625 0.74052 0.559838
0.73608 0.743847 0.54406
0.790219 0.742824 0.529442
0.830274 0.739635 0.516472
0.85948 0.735607 0.504906
0 0.541192 0.671016
0 0.657862 0.627146
0.209598 0.718669 0.587198
0.507897 0.749905 0.568597
0.648539 0.765133 0.55024
0.728725 0.771527 0.533974
0.784741 0.772229 0.519448
0.827237 0.769955 0.505913
0.857038 0.766857 0.493767
0 0.549355 0.663722
0 0.668254 0.619898
0.163821 0.731945 0.578775
0.492195 0.764721 0.558633
0.639918 0.781979 0.539971
0.722057 0.789944 0.523507
0.779812 0.792386 0.50837
0.822843 0.79176 0.494194
0.854643 0.790387 0.481773
0 0 0.462272
0.38645 0 0.487938
0.552316 0 0.488884
0.623667 0 0.48513
0.658061 9.15541e-05 0.478676
0.679026 0.000320439 0.473472
0.69308 0.000671397 0.468574
0.702449 0.00108339 0.464439
0.708782 0.00149538 0.460456
0 0.208179 0.64271
0.20856 0.284962 0.621744
0.499184 0.270436 0.611093
0.620584 0.233066 0.590845
0.681773 0.182528 0.569726
0.714107 0.122545 0.548516
0.726833 0.0433204 0.52752
0.734249 0.000564584 0.50927
0.742947 0.00123598 0.496635
0 0.380667 0.704204
0.0021973 0.459831 0.671565
0.437339 0.480507 0.659571
0.612833 0.474128 0.646494
0.697673 0.457893 0.632258
0.751675 0.437827 0.618387
0.784909 0.415915 0.604898
0.804303 0.394873 0.59263
0.816068 0.372564 0.580804
0 0.448722 0.722301
0 0.550301 0.696574
0.371283 0.591043 0.675303
0.583658 0.599634 0.663737
0.688396 0.595636 0.651179
0.749706 0.585779 0.638468
0.793835 0.57319 0.626627
0.824445 0.559319 0.615991
0.843336 0.544808 0.606332
0 0.48748 0.729305
0 0.598215 0.705837
0.31545 0.648234 0.680064
0.555383 0.666789 0.669779
0.673884 0.670832 0.657481
0.742885 0.667628 0.645396
0.791318 0.661448 0.634195
0.825528 0.653513 0.623987
0.850416 0.64538 0.614878
0 0.515602 0.733257
0 0.629557 0.708202
0.266957 0.685786 0.679805
0.530465 0.70988 0.669612
0.658595 0.718624 0.657588
0.734203 0.719249 0.646067
0.786465 0.716243 0.635386
0.824125 0.711223 0.625299
0.852415 0.705608 0.615351
0 0.533928 0.732235
0 0.65272 0.708186
0.203891 0.712169 0.677378
0.505608 0.740215 0.666651
0.64445 0.752667 0.65507
0.724437 0.756634 0.64387
0.779812 0.755978 0.63328
0.821439 0.753246 0.622263
0.851194 0.749264 0.612634
0 0.546654 0.730465
0 0.66804 0.705898
0.150362 0.730404 0.67422
0.483818 0.761898 0.66273
0.632532 0.778134 0.651011
0.715541 0.785245 0.64007
0.773373 0.786114 0.628214
0.816556 0.784512 0.61735
0.847807 0.781811 0.607492
0 0.557015 0.729015
0 0.679271 0.702998
0.111254 0.744472 0.670451
0.465522 0.7776 0.658167
0.621592 0.795819 0.646433
0.707576 0.804303 0.634363
0.767208 0.807141 0.622599
0.811002 0.807233 0.611673
0.844312 0.806287 0.60177
0 0 0.479271
0.3879 0 0.515801
0.5552 0 0.521706
0.626551 0 0.51928
0.66247 0 0.51577
0.682765 4.57771e-05 0.51014
0.697841 0.000137331 0.506691
0.707042 0.000259403 0.502327
0.713436 0.000411994 0.498238
0 0.1897 0.655543
0.207813 0.27805 0.654612
0.497887 0.259022 0.648615
0.61886 0.217502 0.631067
0.680201 0.1617 0.610178
0.711696 0.0912337 0.58854
0.726268 0.0081178 0.568032
0.738079 7.62951e-05 0.551751
0.746548 0.000259403 0.537408
0 0.37969 0.726375
0.00103761 0.458793 0.710506
0.431144 0.479423 0.704448
0.60885 0.473167 0.694163
0.694789 0.456641 0.681743
0.749126 0.435416 0.668864
0.783658 0.413962 0.656062
0.804044 0.391531 0.643809
0.816602 0.36875 0.632441
0 0.448646 0.747631
0 0.553079 0.739773
0.358984 0.59295 0.723308
0.576028 0.60209 0.715206
0.683314 0.598779 0.705119
0.747112 0.588663 0.69369
0.790906 0.576059 0.682689
0.820356 0.561807 0.672541
0.838956 0.547524 0.663386
0 0.488502 0.755627
0 0.60148 0.751156
0.296864 0.651957 0.730266
0.545739 0.671138 0.723568
0.666484 0.675731 0.714183
0.738308 0.67277 0.703807
0.787228 0.666316 0.693629
0.822736 0.658427 0.684291
0.848371 0.650843 0.675929
0 0.51725 0.761822
0 0.633951 0.756024
0.240757 0.690684 0.73196
0.518654 0.715282 0.726009
0.649653 0.72433 0.716747
0.726925 0.725521 0.706935
0.779706 0.722637 0.697475
0.818235 0.717647 0.688594
0.847639 0.712459 0.680568
0 0.538018 0.764797
0 0.657404 0.757946
0.167895 0.717647 0.73167
0.490562 0.746258 0.725261
0.634379 0.759579 0.716197
0.715923 0.763729 0.706966
0.772778 0.763409 0.697719
0.815061 0.760723 0.689158
0.845045 0.757366 0.681117
0 0.549935 0.764324
0 0.673594 0.758007
0.116289 0.73637 0.730739
0.466438 0.768414 0.72311
0.621088 0.785489 0.714443
0.705913 0.792676 0.705242
0.765286 0.794614 0.696391
0.80911 0.793317 0.68777
0.841031 0.790646 0.67953
0 0.559304 0.763714
0 0.685084 0.756771
0.0782177 0.751064 0.729305
0.445747 0.785031 0.7205
0.607904 0.803525 0.711635
0.697185 0.812467 0.7028
0.757794 0.816037 0.694011
0.802655 0.816449 0.684932
0.836896 0.815457 0.676738
0 0 0.491707
0.388907 0 0.535241
0.557275 0 0.544579
0.628794 0 0.543542
0.665492 0 0.541436
0.685786 0 0.537102
0.70106 3.0518e-05 0.53463
0.710765 6.10361e-05 0.53167
0.71754 0.000106813 0.528435
0 0.176959 0.663844
0.210895 0.269474 0.674525
0.497765 0.246769 0.67364
0.617594 0.199786 0.65774
0.678538 0.137011 0.637629
0.708522 0.0511635 0.615808
0.726452 1.5259e-05 0.597391
0.74078 1.5259e-05 0.581796
0.746929 6.10361e-05 0.564157
0 0.36994 0.735759
0.000762951 0.456275 0.735698
0.427207 0.477226 0.735103
0.605753 0.469963 0.728008
0.692164 0.452644 0.717647
0.747021 0.43093 0.706188
0.781659 0.409476 0.693889
0.802426 0.386358 0.682109
0.815167 0.362585 0.67097
0 0.448127 0.763806
0 0.552697 0.767514
0.349493 0.593698 0.756512
0.570916 0.602564 0.752331
0.679179 0.598856 0.744747
0.743664 0.588815 0.734585
0.788327 0.575677 0.724437
0.819257 0.561502 0.714961
0.838468 0.546899 0.706386
0 0.489708 0.773388
0 0.602792 0.781201
0.28278 0.65391 0.765454
0.537942 0.673091 0.762951
0.660716 0.677928 0.756085
0.733608 0.674952 0.74699
0.783948 0.668605 0.737957
0.818708 0.661234 0.729381
0.843778 0.653422 0.721691
0 0.517235 0.779416
0 0.636576 0.788281
0.215534 0.69308 0.768673
0.50898 0.717983 0.766934
0.642634 0.727779 0.760281
0.721111 0.729076 0.752087
0.775311 0.726375 0.743694
0.815564 0.721584 0.735866
0.845472 0.716228 0.728649
0 0.538155 0.783703
0 0.660639 0.791745
0.142107 0.720974 0.77023
0.478721 0.74963 0.767803
0.62652 0.763424 0.761212
0.709392 0.767865 0.753567
0.766949 0.767773 0.745647
0.810025 0.765698 0.738231
0.839826 0.761929 0.731014
0 0.552254 0.785977
0 0.676646 0.792844
0.0897841 0.740078 0.771023
0.453071 0.772412 0.766995
0.612207 0.789899 0.760723
0.698756 0.797757 0.753429
0.758862 0.799878 0.745968
0.80325 0.798383 0.738277
0.835889 0.796307 0.730953
0 0.562737 0.786648
0 0.688258 0.79295
0.0515908 0.755199 0.771176
0.431159 0.789303 0.765423
0.597436 0.808133 0.759335
0.689189 0.817807 0.752316
0.750607 0.821393 0.744778
0.796307 0.822141 0.737133
0.831113 0.821363 0.729885
0 0 0.500771
0.389502 0 0.549401
0.558297 0 0.560693
0.63093 0 0.561975
0.667323 0 0.559915
0.688212 0 0.556878
0.703975 0 0.555993
0.714092 1.5259e-05 0.55433
0.72108 3.0518e-05 0.551568
0 0.164965 0.668345
0.214633 0.259678 0.687999
0.498238 0.232807 0.689555
0.616724 0.180392 0.675273
0.677119 0.10869 0.656077
0.707958 0.0138247 0.635691
0.728603 0 0.617823
0.742992 0 0.602121
0.744717 1.5259e-05 0.579614
0 0.368887 0.746365
0.000564584 0.453605 0.753124
0.424857 0.473732 0.755764
0.603708 0.465965 0.7523
0.690288 0.448188 0.744076
0.745296 0.426123 0.732754
0.779904 0.403677 0.721386
0.800778 0.379797 0.710475
0.813382 0.355367 0.699794
0 0.446159 0.773205
0 0.552361 0.787137
0.343893 0.593133 0.779583
0.566735 0.60174 0.779095
0.67628 0.598337 0.773251
0.741131 0.588098 0.764675
0.786068 0.574716 0.755795
0.817151 0.55993 0.747402
0.83682 0.544961 0.73962
0 0.489906 0.786007
0 0.60325 0.802121
0.272419 0.654521 0.790082
0.532647 0.67422 0.791623
0.656458 0.67892 0.786252
0.729992 0.67631 0.77911
0.780835 0.670069 0.771527
0.816693 0.661967 0.76434
0.842741 0.654078 0.757595
0 0.518318 0.792782
0 0.637583 0.810239
0.197299 0.694759 0.794766
0.501274 0.719844 0.796506
0.637644 0.729335 0.791928
0.716884 0.731228 0.785809
0.771832 0.728405 0.779095
0.812238 0.723766 0.772671
0.841291 0.718288 0.765545
0 0.538689 0.797971
0 0.662318 0.81445
0.122026 0.722911 0.797711
0.46981 0.751873 0.798032
0.620554 0.76582 0.794232
0.704067 0.770672 0.788846
0.762509 0.770397 0.782528
0.806271 0.768734 0.775952
0.83743 0.764904 0.769284
0 0.552804 0.800214
0 0.67863 0.816327
0.0685435 0.74258 0.799832
0.442481 0.774945 0.798321
0.605615 0.792569 0.794949
0.692943 0.800809 0.789975
0.753735 0.80293 0.7841
0.798596 0.802029 0.777005
0.831693 0.799512 0.770306
0 0.564401 0.801953
0 0.690211 0.817349
0.0313573 0.757855 0.801358
0.419501 0.79205 0.797955
0.589258 0.811322 0.794675
0.682643 0.821149 0.790005
0.744671 0.825162 0.783734
0.791074 0.82594 0.776837
0.826703 0.825345 0.770352
0 0 0.508095
0.390295 0 0.56051
0.558877 0 0.5729
0.63209 0 0.575448
0.668742 0 0.574792
0.690242 0 0.57229
0.706508 0 0.571664
0.715953 0 0.569924
0.722866 1.5259e-05 0.567956
0 0.155749 0.671244
0.220325 0.248753 0.697307
0.499489 0.217166 0.700389
0.616129 0.159106 0.687083
0.674556 0.0742046 0.666972
0.707637 0.000488289 0.647456
0.730678 0 0.631281
0.742763 0 0.613214
0.740291 0 0.588327
0 0.367636 0.754101
0.000411994 0.449622 0.765805
0.423575 0.469551 0.771298
0.602564 0.461402 0.769955
0.689128 0.442832 0.762142
0.743725 0.420798 0.752377
0.778317 0.39707 0.742
0.799252 0.372747 0.732036
0.81149 0.34725 0.721492
0 0.444709 0.780133
0 0.55169 0.801984
0.339742 0.591806 0.796811
0.56434 0.59997 0.798154
0.674006 0.59678 0.793957
0.738857 0.586053 0.787121
0.78407 0.572106 0.779568
0.815381 0.557565 0.772015
0.835294 0.542245 0.76434
0 0.488685 0.795407
0 0.602777 0.817121
0.264057 0.655192 0.80856
0.528435 0.674189 0.811307
0.653361 0.679103 0.808621
0.727047 0.676402 0.803571
0.778149 0.669795 0.797436
0.81442 0.66212 0.790326
0.840909 0.6542 0.783886
0 0.51899 0.802075
0 0.637613 0.825254
0.184924 0.695506 0.814054
0.495964 0.72047 0.817273
0.633448 0.730159 0.815534
0.713314 0.732052 0.811505
0.768688 0.729519 0.805844
0.809522 0.724834 0.79942
0.839734 0.719295 0.7935
0 0.539986 0.808209
0 0.662699 0.830304
0.107286 0.724254 0.8177
0.462943 0.753048 0.819944
0.615473 0.767056 0.818952
0.700053 0.772351 0.815686
0.758846 0.772503 0.809873
0.803403 0.770321 0.804074
0.834363 0.766949 0.798352
0 0.553216 0.810788
0 0.679637 0.833417
0.0477302 0.744091 0.820127
0.43473 0.776638 0.82121
0.599847 0.79469 0.820874
0.688182 0.802823 0.817365
0.749691 0.805158 0.811887
0.794812 0.803983 0.806012
0.828214 0.801816 0.800595
0 0.564431 0.81268
0 0.691493 0.835111
0.0146944 0.759426 0.821866
0.410513 0.793957 0.821698
0.582544 0.813413 0.821439
0.676982 0.823438 0.81767
0.740063 0.827375 0.812543
0.786969 0.828168 0.806958
0.822889 0.828 0.801663
