sandaya_1.0/luts/KODAK_2383_ACESCG_TO_SRGB.cube
TITLE "Generated by Resolve"
LUT_3D_SIZE 5
0.00213626 0.00241093 0.00361639
0.510811 0.00288396 0
0.603128 0.0040589 0
0.635218 0.00447089 0
0.650614 0.00466926 0
0 0.245777 0.0153506
0.534295 0.377523 0
0.727718 0.370459 0
0.792233 0.344182 0
0.81323 0.313207 0
0 0.328237 0.000244144
0.513603 0.532509 0
0.757137 0.564187 0
0.847364 0.55903 0
0.886595 0.545556 0
0 0.372457 0
0.491112 0.60235 0
0.758282 0.651423 0
0.861418 0.656947 0
0.911131 0.652827 0
0 0.399222 0
0.472404 0.643946 0
0.752758 0.705135 0
0.864332 0.718349 0
0.921035 0.719066 0
0 0 0.390555
0.542596 0.000137331 0.369558
0.64152 0.00427253 0.349355
0.6748 0.0049897 0.33283
0.69192 0.00442512 0.321782
0 0.37995 0.591577
0.461067 0.467933 0.48452
0.70573 0.444556 0.439033
0.789609 0.403525 0.404364
0.819623 0.362539 0.376089
0 0.475761 0.59353
0.378332 0.62208 0.475547
0.698405 0.642069 0.4271
0.809369 0.630152 0.388891
0.862074 0.613352 0.359274
0 0.513664 0.572778
0.323461 0.68011 0.44593
0.680217 0.716548 0.390921
0.805325 0.717083 0.346914
0.871641 0.708186 0.311757
0 0.530007 0.540673
0.282231 0.706722 0.40737
0.667048 0.753796 0.341573
0.799664 0.761868 0.290303
0.871092 0.758907 0.246357
0 0 0.462272
0.552316 0 0.488884
0.658061 9.15541e-05 0.478676
0.69308 0.000671397 0.468574
0.708782 0.00149538 0.460456
0 0.380667 0.704204
0.437339 0.480507 0.659571
0.697673 0.457893 0.632258
0.784909 0.415915 0.604898
0.816068 0.372564 0.580804
0 0.48748 0.729305
0.31545 0.648234 0.680064
0.673884 0.670832 0.657481
0.791318 0.661448 0.634195
0.850416 0.64538 0.614878
0 0.533928 0.732235
0.203891 0.712169 0.677378
0.64445 0.752667 0.65507
0.779812 0.755978 0.63328
0.851194 0.749264 0.612634
0 0.557015 0.729015
0.111254 0.744472 0.670451
0.621592 0.795819 0.646433
0.767208 0.807141 0.622599
0.844312 0.806287 0.60177
0 0 0.491707
0.557275 0 0.544579
0.665492 0 0.541436
0.70106 3.0518e-05 0.53463
0.71754 0.000106813 0.528435
0 0.36994 0.735759
0.427207 0.477226 0.735103
0.692164 0.452644 0.717647
0.781659 0.409476 0.693889
0.815167 0.362585 0.67097
0 0.489708 0.773388
0.28278 0.65391 0.765454
0.660716 0.677928 0.756085
0.783948 0.668605 0.737957
0.843778 0.653422 0.721691
0 0.538155 0.783703
0.142107 0.720974 0.77023
0.62652 0.763424 0.761212
0.766949 0.767773 0.745647
0.839826 0.761929 0.731014
0 0.562737 0.786648
0.0515908 0.755199 0.771176
0.597436 0.808133 0.759335
0.750607 0.821393 0.744778
0.831113 0.821363 0.729885
0 0 0.508095
0.558877 0 0.5729
0.668742 0 0.574792
0.706508 0 0.571664
0.722866 1.5259e-05 0.567956
0 0.367636 0.754101
0.423575 0.469551 0.771298
0.689128 0.442832 0.762142
0.778317 0.39707 0.742
0.81149 0.34725 0.721492
0 0.488685 0.795407
0.264057 0.655192 0.80856
0.653361 0.679103 0.808621
0.778149 0.669795 0.797436
0.840909 0.6542 0.783886
0 0.539986 0.808209
0.107286 0.724254 0.8177
0.615473 0.767056 0.818952
0.758846 0.772503 0.809873
0.834363 0.766949 0.798352
0 0.564431 0.81268
0.0146944 0.759426 0.821866
0.582544 0.813413 0.821439
0.740063 0.827375 0.812543
0.822889 0.828 0.801663
