sandaya_1.0/luts/KODAK_2383_ACESCG_TO_SRGB.cube
TITLE "Generated by Resolve"
LUT_3D_SIZE 33
0.00213626 0.00241093 0.00361639
0.0795453 0.00936904 0.00369268
0.194324 0.0120394 0
0.290852 0.00999466 0
0.3608 0.00567636 0
0.411292 0.00167849 0
0.45243 0.00218204 0
0.485206 0.00257877 0
0.510811 0.00288396 0
0.531701 0.00314336 0
0.547051 0.00334173 0
0.560479 0.00350958 0
0.571191 0.00364691 0
0.581048 0.00376898 0
0.589136 0.00387579 0
0.596338 0.00396735 0
0.603128 0.0040589 0
0.60853 0.00411994 0
0.613535 0.00419623 0
0.618265 0.00425727 0
0.6224 0.00430304 0
0.625849 0.00434882 0
0.629175 0.0043946 0
0.632288 0.00442512 0
0.635218 0.00447089 0
0.637537 0.00450141 0
0.639765 0.00453193 0
0.641917 0.00456245 0
0.643977 0.00457771 0
0.645945 0.00460822 0
0.647547 0.00462348 0
0.649119 0.004654 0
0.650614 0.00466926 0
0 0.0320745 0.0120241
0.0421302 0.0393835 0.0100404
0.151766 0.0485542 0.00402838
0.237095 0.0510109 0
0.313649 0.0479591 0
0.381811 0.0409857 0
0.431846 0.032578 0
0.467384 0.0218814 0
0.495979 0.00833143 0
0.520256 0.0031281 0
0.540734 0.00325017 0
0.556954 0.0034638 0
0.565881 0.00357061 0
0.581247 0.00376898 0
0.589227 0.00387579 0
0.596506 0.00396735 0
0.603204 0.0040589 0
0.608591 0.00411994 0
0.613596 0.00419623 0
0.618326 0.00425727 0
0.622461 0.00430304 0
0.625895 0.00434882 0
0.629221 0.0043946 0
0.632334 0.00444038 0
0.635264 0.00447089 0
0.637583 0.00450141 0
0.639765 0.00453193 0
0.641917 0.00456245 0
0.644022 0.00457771 0
0.645975 0.00460822 0
0.647593 0.00462348 0
0.649149 0.004654 0
0.65066 0.00466926 0
0 0.0814374 0.0172732
0.0177005 0.0843061 0.0142367
0.134524 0.0976577 0.00769055
0.229068 0.105196 0.000183108
0.302846 0.110246 0
0.372869 0.110811 0
0.431815 0.109972 0
0.476783 0.10721 0
0.509224 0.102159 0
0.5355 0.0951095 0
0.557931 0.0859388 0
0.575921 0.0744488 0
0.59176 0.0617075 0
0.603098 0.0451514 0
0.61326 0.0216831 0
0.619821 0.00895705 0
0.626062 0.00488289 0
0.631174 0.00448615 0
0.634684 0.00447089 0
0.637781 0.00450141 0
0.638712 0.00451667 0
0.640055 0.00453193 0
0.640131 0.00453193 0
0.639277 0.00451667 0
0.637568 0.00450141 0
0.637629 0.00450141 0
0.639811 0.00453193 0
0.641962 0.00456245 0
0.644068 0.00457771 0
0.646021 0.00460822 0
0.647623 0.00462348 0
0.649195 0.004654 0
0.65069 0.00466926 0
0 0.121569 0.0201114
0.000244144 0.128206 0.0154269
0.114611 0.147158 0.0047303
0.222675 0.158846 1.5259e-05
0.300587 0.167544 0
0.371008 0.171389 0
0.431846 0.171756 0
0.481209 0.170336 0
0.520562 0.166934 0
0.549325 0.161761 0
0.573404 0.155352 0
0.593988 0.149569 0
0.611429 0.142794 0
0.626612 0.135286 0
0.639429 0.127443 0
0.649302 0.119356 0
0.658412 0.111742 0
0.664668 0.104891 0
0.669551 0.0974441 0
0.674098 0.0898604 0
0.676371 0.0815595 0
0.678172 0.0706645 0
0.679744 0.0577096 0
0.680201 0.0425422 0
0.679667 0.0263218 0
0.680156 0.0134585 0
0.680186 0.00680552 0
0.679881 0.00509651 0
0.679957 0.00503548 0
0.679988 0.00503548 0
0.67892 0.00502022 0
0.677165 0.00500496 0
0.674754 0.00497444 0
0 0.153307 0.0215152
0 0.162127 0.0158541
0.0935531 0.184039 0.00164797
0.215228 0.201328 0
0.297948 0.213901 0
0.369848 0.220737 0
0.432593 0.223941 0
0.486137 0.225284 0
0.527153 0.224491 0
0.559915 0.222751 0
0.58613 0.219837 0
0.607553 0.215412 0
0.626627 0.210636 0
0.642435 0.204868 0
0.656764 0.198627 0
0.669322 0.192203 0
0.679042 0.18558 0
0.687877 0.178439 0
0.695247 0.17142 0
0.700267 0.164019 0
0.704952 0.156542 0
0.709422 0.149996 0
0.711818 0.143252 0
0.714015 0.136416 0
0.715953 0.129381 0
0.717418 0.122133 0
0.717952 0.114778 0
0.718303 0.107637 0
0.718517 0.100969 0
0.718578 0.0938888 0
0.717815 0.0868391 0
0.716823 0.0793774 0
0.715663 0.0698405 0
0 0.181003 0.020798
0 0.191959 0.0151369
0.0649424 0.216052 0.000320439
0.20557 0.236637 0
0.293858 0.251682 0
0.367239 0.260945 0
0.432059 0.266407 0
0.487572 0.269413 0
0.532006 0.270695 0
0.568917 0.270802 0
0.595865 0.268986 0
0.619394 0.266682 0
0.638743 0.26302 0
0.656641 0.259342 0
0.67097 0.254597 0
0.684504 0.250019 0
0.696162 0.24506 0
0.705272 0.239902 0
0.713695 0.234653 0
0.721263 0.229328 0
0.726146 0.223728 0
0.730892 0.218494 0
0.735225 0.213001 0
0.738567 0.207401 0
0.740932 0.201328 0
0.743206 0.195209 0
0.745144 0.18883 0
0.746807 0.182437 0
0.747524 0.175845 0
0.748104 0.169009 0
0.748608 0.162142 0
0.748806 0.154833 0
0.748913 0.148684 0
0 0.205798 0.019852
0 0.218875 0.0119631
0.0275731 0.244846 0
0.194491 0.267475 0
0.288808 0.284718 0
0.364492 0.296727 0
0.430091 0.303395 0
0.486809 0.307561 0
0.534447 0.309865 0
0.573205 0.310872 0
0.603113 0.309941 0
0.627955 0.308629 0
0.648722 0.305898 0
0.666972 0.302937 0
0.68307 0.299977 0
0.696773 0.296376 0
0.709606 0.292668 0
0.720241 0.288731 0
0.72903 0.284611 0
0.737255 0.280415 0
0.744717 0.276143 0
0.749645 0.271565 0
0.754238 0.26714 0
0.758602 0.262486 0
0.762448 0.257984 0
0.764782 0.253223 0
0.766827 0.24802 0
0.768902 0.243198 0
0.770809 0.238148 0
0.772 0.233112 0
0.772671 0.227878 0
0.773327 0.222614 0
0.77377 0.217136 0
0 0.227268 0.0174563
0 0.242237 0.00868238
0.00669871 0.27155 0
0.181613 0.296437 0
0.282002 0.315419 0
0.360433 0.328817 0
0.426963 0.336797 0
0.485222 0.341756 0
0.535531 0.344793 0
0.575311 0.34609 0
0.608316 0.346761 0
0.633967 0.346166 0
0.656458 0.345022 0
0.674861 0.342794 0
0.691981 0.340169 0
0.706462 0.337072 0
0.719539 0.333898 0
0.731807 0.330419 0
0.741375 0.326619 0
0.749889 0.322713 0
0.758068 0.318959 0
0.76495 0.314885 0
0.769909 0.310719 0
0.774624 0.30721 0
0.779019 0.303441 0
0.782956 0.299626 0
0.785489 0.295659 0
0.787671 0.291447 0
0.78996 0.287434 0
0.791882 0.283177 0
0.793545 0.27892 0
0.794507 0.274662 0
0.795331 0.27039 0
0 0.245777 0.0153506
0 0.26305 0.00448615
0.00103761 0.295262 0
0.169085 0.321431 0
0.274891 0.341894 0
0.355917 0.357107 0
0.423514 0.366888 0
0.482475 0.373236 0
0.534295 0.377523 0
0.576028 0.380102 0
0.611902 0.381506 0
0.638102 0.381338 0
0.661845 0.380728 0
0.681392 0.378668 0
0.698741 0.376394 0
0.714534 0.37377 0
0.727718 0.370459 0
0.7402 0.367071 0
0.751431 0.364096 0
0.760311 0.361013 0
0.768368 0.357641 0
0.776272 0.354421 0
0.782635 0.351095 0
0.787549 0.347662 0
0.792233 0.344182 0
0.796597 0.340444 0
0.800641 0.336873 0
0.803265 0.333104 0
0.805524 0.328862 0
0.807935 0.325307 0
0.810132 0.321294 0
0.81207 0.31725 0
0.81323 0.313207 0
0 0.261036 0.0132143
0 0.281193 0.00218204
7.62951e-05 0.31635 0
0.151339 0.343832 0
0.267597 0.366064 0
0.350835 0.382818 0
0.419608 0.393805 0
0.4795 0.401022 0
0.532357 0.406195 0
0.575982 0.409583 0
0.612802 0.411749 0
0.641413 0.412467 0
0.665492 0.41236 0
0.686366 0.411505 0
0.704158 0.40972 0
0.720745 0.407996 0
0.7346 0.405509 0
0.747234 0.402792 0
0.759152 0.399969 0
0.76878 0.396841 0
0.777432 0.39382 0
0.785382 0.390463 0
0.792996 0.38732 0
0.798566 0.383993 0
0.803311 0.380346 0
0.807935 0.376928 0
0.812345 0.373495 0
0.816236 0.370138 0
0.818723 0.366598 0
0.821225 0.363287 0
0.823545 0.359731 0
0.825818 0.35642 0
0.827802 0.35285 0
0 0.274784 0.011429
0 0.296834 0.000732433
0 0.334096 0
0.129442 0.363317 0
0.260487 0.387213 0
0.345998 0.405493 0
0.415702 0.417792 0
0.476738 0.425986 0
0.530221 0.431998 0
0.57554 0.436576 0
0.612863 0.439368 0
0.643534 0.44094 0
0.668223 0.441215 0
0.690471 0.441108 0
0.708492 0.439597 0
0.725505 0.438178 0
0.74023 0.43621 0
0.753262 0.434012 0
0.765286 0.431434 0
0.776471 0.429099 0
0.784909 0.426169 0
0.793149 0.423453 0
0.800839 0.420417 0
0.80795 0.418036 0
0.812924 0.414954 0
0.817685 0.411826 0
0.822095 0.408682 0
0.826413 0.405509 0
0.829923 0.402441 0
0.832563 0.398962 0
0.83505 0.395483 0
0.837354 0.391989 0
0.839689 0.388754 0
0 0.285924 0.00891127
0 0.310796 9.15541e-05
0 0.349599 0
0.107591 0.379736 0
0.252827 0.404807 0
0.340917 0.424598 0
0.411658 0.438453 0
0.47361 0.447776 0
0.527993 0.454994 0
0.575036 0.460395 0
0.612741 0.463752 0
0.645457 0.466255 0
0.670405 0.467002 0
0.693431 0.467597 0
0.712215 0.466941 0
0.72929 0.465675 0
0.74522 0.464408 0
0.758389 0.462577 0
0.770687 0.46038 0
0.782315 0.458335 0
0.791714 0.455985 0
0.800137 0.453483 0
0.807965 0.450904 0
0.815473 0.448295 0
0.821347 0.445457 0
0.826215 0.442771 0
0.830762 0.439796 0
0.835294 0.437079 0
0.839399 0.434165 0
0.842344 0.431022 0
0.845029 0.428077 0
0.847456 0.424857 0
0.849897 0.421897 0
0 0.295872 0.00665293
0 0.32282 1.5259e-05
0 0.363775 0
0.0865492 0.39472 0
0.24535 0.420523 0
0.33608 0.441505 0
0.407767 0.456306 0
0.470314 0.466423 0
0.525063 0.474388 0
0.573648 0.480568 0
0.612116 0.484794 0
0.646555 0.48838 0
0.672038 0.48986 0
0.695521 0.490944 0
0.715496 0.491295 0
0.732769 0.490562 0
0.748974 0.489754 0
0.762798 0.488228 0
0.775372 0.486397 0
0.787259 0.484733 0
0.797772 0.482872 0
0.806149 0.480415 0
0.81416 0.478187 0
0.821866 0.475898 0
0.828946 0.473793 0
0.83386 0.471138 0
0.838544 0.468467 0
0.843107 0.466026 0
0.847333 0.463294 0
0.851362 0.460761 0
0.853971 0.457694 0
0.856596 0.454887 0
0.858946 0.45182 0
0 0.305028 0.00489815
0 0.33344 0
0 0.375067 0
0.0680247 0.407477 0
0.237263 0.434592 0
0.331441 0.456962 0
0.404166 0.472557 0
0.467399 0.483406 0
0.522438 0.491829 0
0.571405 0.498772 0
0.611154 0.503532 0
0.646082 0.507393 0
0.673121 0.509621 0
0.696727 0.51107 0
0.717418 0.511879 0
0.735256 0.511666 0
0.751644 0.511437 0
0.766293 0.510475 0
0.779019 0.509194 0
0.791226 0.50808 0
0.802579 0.5066 0
0.81149 0.504738 0
0.819791 0.503029 0
0.827527 0.501076 0
0.834943 0.499062 0
0.840635 0.496803 0
0.845457 0.494423 0
0.850065 0.492027 0
0.854429 0.489586 0
0.858793 0.487404 0
0.862028 0.484749 0
0.864668 0.481941 0
0.867231 0.479393 0
0 0.313298 0.00262455
0 0.343328 0
0 0.385473 0
0.0529488 0.41828 0
0.228809 0.445991 0
0.326116 0.469306 0
0.400259 0.486 0
0.464057 0.498161 0
0.519921 0.507759 0
0.569512 0.515251 0
0.610193 0.520653 0
0.645563 0.525017 0
0.673793 0.527672 0
0.697719 0.529534 0
0.719265 0.5308 0
0.737194 0.530938 0
0.753979 0.530861 0
0.769192 0.530449 0
0.782147 0.529503 0
0.794308 0.52845 0
0.805768 0.527047 0
0.815732 0.525887 0
0.823972 0.524208 0
0.832029 0.522499 0
0.839551 0.520958 0
0.846525 0.519341 0
0.851377 0.517174 0
0.856184 0.515236 0
0.860777 0.513283 0
0.865141 0.511299 0
0.869383 0.509285 0
0.872114 0.506844 0
0.874708 0.50428 0
0 0.320897 0.00102235
0 0.3523 0
0 0.395087 0
0.0402228 0.428397 0
0.22063 0.456672 0
0.321431 0.480491 0
0.396414 0.497871 0
0.460472 0.510536 0
0.516548 0.520485 0
0.56672 0.52874 0
0.608682 0.535012 0
0.644266 0.53994 0
0.674098 0.543679 0
0.698436 0.54609 0
0.720775 0.54818 0
0.739071 0.548531 0
0.755901 0.548791 0
0.771618 0.548837 0
0.784924 0.548074 0
0.797208 0.547097 0
0.808682 0.545998 0
0.819455 0.545022 0
0.827878 0.543648 0
0.83595 0.542229 0
0.843702 0.540749 0
0.850965 0.539223 0
0.856443 0.537408 0
0.861402 0.535744 0
0.865904 0.533791 0
0.87039 0.532082 0
0.874662 0.530098 0
0.878248 0.528191 0
0.880934 0.525811 0
0 0.328237 0.000244144
0 0.360616 0
0 0.403876 0
0.0296788 0.437919 0
0.211948 0.466255 0
0.316487 0.490684 0
0.39266 0.508858 0
0.456931 0.521981 0
0.513603 0.532509 0
0.563836 0.540963 0
0.606806 0.547646 0
0.642756 0.553002 0
0.673838 0.557183 0
0.698192 0.559884 0
0.720775 0.562203 0
0.740001 0.5635 0
0.757137 0.564187 0
0.773144 0.56466 0
0.786984 0.564477 0
0.799588 0.564111 0
0.811399 0.563622 0
0.822705 0.562875 0
0.831449 0.561593 0
0.839704 0.560464 0
0.847364 0.55903 0
0.854795 0.557794 0
0.861128 0.55613 0
0.865995 0.554482 0
0.870756 0.552804 0
0.875257 0.55111 0
0.879545 0.549386 0
0.883711 0.547646 0
0.886595 0.545556 0
0 0.335042 1.5259e-05
0 0.368444 0
0 0.412024 0
0.0202182 0.446326 0
0.202838 0.475288 0
0.312001 0.500282 0
0.389029 0.518944 0
0.453834 0.532769 0
0.510704 0.543587 0
0.561288 0.552285 0
0.604944 0.559472 0
0.641169 0.565026 0
0.673533 0.569848 0
0.69807 0.572702 0
0.720821 0.575143 0
0.74049 0.576745 0
0.757809 0.577737 0
0.773724 0.578271 0
0.788388 0.578592 0
0.801099 0.578302 0
0.813016 0.57789 0
0.824399 0.5776 0
0.833982 0.576791 0
0.84242 0.575967 0
0.850355 0.575082 0
0.857984 0.574151 0
0.865263 0.573175 0
0.870344 0.571801 0
0.875196 0.570565 0
0.879728 0.568887 0
0.884138 0.567422 0
0.888334 0.565698 0
0.891829 0.56405 0
0 0.34139 0
0 0.375906 0
0 0.419669 0
0.013489 0.454322 0
0.192676 0.483528 0
0.307256 0.508873 0
0.385214 0.528222 0
0.450294 0.542535 0
0.508125 0.553872 0
0.558892 0.563027 0
0.603433 0.570596 0
0.639597 0.576257 0
0.672984 0.581445 0
0.697871 0.584665 0
0.720607 0.587396 0
0.740917 0.589349 0
0.758297 0.590204 0
0.774533 0.59086 0
0.789624 0.591836 0
0.802258 0.591592 0
0.814359 0.59147 0
0.825757 0.591028 0
0.836088 0.5906 0
0.844572 0.589822 0
0.852659 0.589197 0
0.860319 0.588296 0
0.867506 0.587335 0
0.873426 0.586358 0
0.878462 0.585214 0
0.883055 0.58381 0
0.887602 0.582605 0
0.892027 0.581384 0
0.896208 0.580133 0
0 0.347372 0
0 0.382895 0
0 0.426978 0
0.00918593 0.461875 0
0.182589 0.491341 0
0.302785 0.517189 0
0.381506 0.536736 0
0.447105 0.551705 0
0.505013 0.563378 0
0.555703 0.572396 0
0.601297 0.580789 0
0.638086 0.586587 0
0.67155 0.592126 0
0.697566 0.595773 0
0.720516 0.598642 0
0.741482 0.601129 0
0.758816 0.602258 0
0.775235 0.603204 0
0.790524 0.603937 0
0.803388 0.603815 0
0.815641 0.603967 0
0.827207 0.6038 0
0.838163 0.60354 0
0.846616 0.603006 0
0.854673 0.602197 0
0.862455 0.601556 0
0.869764 0.600855 0
0.876402 0.600031 0
0.881346 0.598901 0
0.886168 0.597757 0
0.890745 0.596582 0
0.895079 0.595361 0
0.899397 0.594156 0
0 0.353109 0
0 0.389227 0
0 0.433875 0
0.00585946 0.468833 0
0.17258 0.498741 0
0.298558 0.524895 0
0.378027 0.544976 0
0.444129 0.560357 0
0.502068 0.572183 0
0.55314 0.581872 0
0.599161 0.590127 0
0.636194 0.596475 0
0.669841 0.602182 0
0.696559 0.606119 0
0.719676 0.609125 0
0.741314 0.611994 0
0.758907 0.613275 0
0.77554 0.614359 0
0.791089 0.615427 0
0.804562 0.615808 0
0.816846 0.615808 0
0.828305 0.615671 0
0.839338 0.615473 0
0.848478 0.615305 0
0.856565 0.614527 0
0.864408 0.613931 0
0.871763 0.61326 0
0.879011 0.612772 0
0.884108 0.611688 0
0.888853 0.610559 0
0.893538 0.609628 0
0.898009 0.608454 0
0.902312 0.607477 0
0 0.358541 0
0 0.395224 0
0 0.439979 0
0.00369268 0.475654 0
0.162951 0.505562 0
0.294286 0.532219 0
0.374762 0.552728 0
0.441047 0.568429 0
0.499321 0.580484 0
0.550698 0.590433 0
0.596674 0.598993 0
0.634409 0.605631 0
0.667903 0.611399 0
0.695811 0.615717 0
0.719112 0.619043 0
0.740597 0.621942 0
0.758923 0.62356 0
0.775494 0.624903 0
0.79115 0.626032 0
0.805051 0.626627 0
0.817288 0.626703 0
0.82916 0.626902 0
0.840238 0.626993 0
0.850126 0.626825 0
0.858289 0.626337 0
0.866255 0.625818 0
0.873716 0.625208 0
0.880934 0.624537 0
0.886732 0.623819 0
0.891569 0.622934 0
0.896193 0.621805 0
0.900664 0.620859 0
0.904997 0.619898 0
0 0.363729 0
0 0.400961 0
0 0.445762 0
0.00210575 0.481651 0
0.151186 0.512123 0
0.290242 0.538933 0
0.371405 0.55993 0
0.438209 0.576196 0
0.496483 0.588388 0
0.548135 0.598581 0
0.5944 0.607507 0
0.632486 0.614343 0
0.666453 0.620325 0
0.694942 0.624887 0
0.718349 0.628321 0
0.73994 0.631312 0
0.758587 0.633371 0
0.775265 0.634775 0
0.790997 0.635981 0
0.80531 0.63679 0
0.817868 0.637156 0
0.829618 0.637385 0
0.840894 0.637324 0
0.851194 0.637507 0
0.859403 0.637049 0
0.86743 0.636561 0
0.875013 0.636225 0
0.882216 0.635615 0
0.888685 0.635081 0
0.893629 0.634256 0
0.898451 0.633402 0
0.903014 0.632517 0
0.907454 0.631617 0
0 0.368261 0
0 0.40647 0
0 0.451377 0
0.0011902 0.487434 0
0.139055 0.517769 0
0.286397 0.545037 0
0.368078 0.566506 0
0.435096 0.583062 0
0.493797 0.595819 0
0.54583 0.606394 0
0.591974 0.615412 0
0.631022 0.622599 0
0.664836 0.628626 0
0.694209 0.633692 0
0.717708 0.637217 0
0.739391 0.640299 0
0.758511 0.642618 0
0.77525 0.644083 0
0.791089 0.645365 0
0.805631 0.64654 0
0.81825 0.646952 0
0.83006 0.647227 0
0.84126 0.64741 0
0.852033 0.647501 0
0.860517 0.647334 0
0.868421 0.64686 0
0.876066 0.646555 0
0.883513 0.64622 0
0.890425 0.645792 0
0.895521 0.645014 0
0.900252 0.644175 0
0.904845 0.64332 0
0.909316 0.642451 0
0 0.372457 0
0 0.411795 0
0 0.456687 0
0.000640879 0.492882 0
0.127749 0.523461 0
0.282872 0.550927 0
0.365026 0.572625 0
0.432135 0.589578 0
0.491112 0.60235 0
0.543084 0.61326 0
0.589532 0.622583 0
0.629297 0.630182 0
0.663386 0.636683 0
0.693553 0.641917 0
0.71693 0.645685 0
0.73872 0.648859 0
0.758282 0.651423 0
0.775113 0.652964 0
0.79086 0.654475 0
0.80589 0.655833 0
0.818479 0.656306 0
0.830549 0.656657 0
0.841794 0.656886 0
0.852689 0.657237 0
0.861418 0.656947 0
0.869429 0.656733 0
0.877119 0.656458 0
0.884596 0.656153 0
0.8916 0.655772 0
0.897078 0.6551 0
0.902022 0.654521 0
0.90663 0.653681 0
0.911131 0.652827 0
0 0.376394 0
0 0.416663 0
0 0.461845 0
0.000274662 0.49807 0
0.116014 0.529 0
0.278935 0.556512 0
0.361929 0.578561 0
0.42948 0.595819 0
0.488365 0.608667 0
0.540581 0.619791 0
0.587243 0.629267 0
0.627298 0.637201 0
0.661479 0.643626 0
0.69247 0.649393 0
0.715984 0.653178 0
0.737972 0.656748 0
0.758053 0.659693 0
0.774868 0.66157 0
0.790875 0.66302 0
0.805982 0.664424 0
0.818906 0.66508 0
0.830884 0.66566 0
0.842191 0.665919 0
0.853132 0.666316 0
0.862379 0.666362 0
0.870451 0.666178 0
0.878157 0.665934 0
0.885527 0.665644 0
0.892729 0.665309 0
0.898772 0.664973 0
0.903563 0.664179 0
0.908278 0.6636 0
0.912795 0.66276 0
0 0.38024 0
0 0.420829 0
0 0.466606 0
0.000106813 0.503319 0
0.104356 0.534066 0
0.275761 0.561837 0
0.359136 0.584085 0
0.426764 0.601633 0
0.485924 0.614908 0
0.538384 0.62623 0
0.584878 0.635752 0
0.625483 0.643732 0
0.659815 0.650446 0
0.691249 0.656413 0
0.714855 0.660273 0
0.736934 0.66392 0
0.757473 0.667292 0
0.774533 0.669078 0
0.790448 0.670619 0
0.805524 0.672358 0
0.819059 0.673335 0
0.831159 0.674052 0
0.842649 0.674662 0
0.853422 0.674937 0
0.863142 0.67512 0
0.871183 0.674754 0
0.879225 0.674998 0
0.886625 0.674723 0
0.893706 0.674403 0
0.900267 0.674189 0
0.905135 0.67364 0
0.909819 0.672847 0
0.914427 0.672267 0
0 0.384009 0
0 0.424857 0
0 0.470466 0
4.57771e-05 0.507866 0
0.0933242 0.539086 0
0.272175 0.567025 0
0.356298 0.589593 0
0.424369 0.607172 0
0.483421 0.6206 0
