sandaya_1.0/luts/SANDAYA_LOOK_001_0050_ACESCG_TO_ACESCG.cube
TITLE "Generated by Resolve"
LUT_3D_SIZE 5
0.00587472 0.00709545 0.00927749
0.162112 0.0302586 0.00627146
0.232792 0.0416419 0.00849927
0.275441 0.0478065 0.00967422
0.300603 0.0512093 0.0102846
0.0484321 0.0991836 0.0210422
0.296193 0.234928 0.0357977
0.510918 0.253117 0.0374762
0.609903 0.237339 0.0354925
0.648554 0.21503 0.0328222
0.0699321 0.145815 0.024094
0.219913 0.308003 0.0444495
0.579263 0.42443 0.0535286
0.778851 0.435203 0.0532692
0.908049 0.427924 0.052018
0.0819409 0.171374 0.0275273
0.112276 0.23859 0.03682
0.555322 0.512947 0.0601511
0.844465 0.561044 0.0611429
1 0.566995 0.0598611
0.0892805 0.186877 0.0298161
0.0864271 0.180819 0.0289311
0.473777 0.544915 0.0626993
0.844038 0.657298 0.0656443
1 0.683497 0.0641184
0.0162051 0.00611887 0.104616
0.171359 0.0367895 0.131151
0.251896 0.0495308 0.136751
0.305013 0.0558785 0.138308
0.336965 0.059266 0.13817
0.0872816 0.161288 0.217029
0.287587 0.285039 0.243427
0.543145 0.292317 0.220813
0.651942 0.268696 0.208438
0.695994 0.240101 0.197467
0.114382 0.222797 0.223606
0.190723 0.373892 0.229862
0.597971 0.485695 0.173877
0.808331 0.468727 0.131395
0.923278 0.434119 0.101915
0.124285 0.249485 0.208301
0.141161 0.294682 0.205234
0.539971 0.579568 0.168856
0.842374 0.601587 0.115236
1 0.584863 0.0829633
0.128237 0.26244 0.188144
0.121691 0.248447 0.168322
0.439918 0.603967 0.156817
0.813397 0.681163 0.0728161
1 0.706966 0.0650797
0.0231937 0.00862135 0.153796
0.176638 0.0384833 0.186984
0.252476 0.0519875 0.195956
0.29958 0.0589151 0.199588
0.328359 0.0625772 0.200702
0.0982376 0.170932 0.320607
0.265812 0.296529 0.384695
0.526513 0.306172 0.37705
0.640574 0.280385 0.361593
0.684871 0.252491 0.347433
0.127459 0.238453 0.34551
0.181476 0.390082 0.384085
0.557321 0.521141 0.393652
0.78381 0.522499 0.363134
0.931899 0.506477 0.349279
0.140383 0.273014 0.343923
0.152712 0.307027 0.350179
0.516457 0.633646 0.378103
0.868727 0.679988 0.301213
1 0.6551 0.260685
0.147158 0.293126 0.335042
0.141222 0.279988 0.310155
0.42652 0.673884 0.355535
0.795972 0.803784 0.319738
1 0.809735 0.255406
0.0273289 0.0101015 0.183398
0.178683 0.0392157 0.219669
0.255924 0.0529946 0.231098
0.303288 0.0603342 0.236942
0.331304 0.0642252 0.239017
0.102358 0.172305 0.379126
0.254749 0.298909 0.469459
0.506783 0.313191 0.469871
0.608515 0.288045 0.454002
0.650858 0.258778 0.436271
0.134707 0.246784 0.425818
0.181903 0.38056 0.486488
0.527672 0.533471 0.517555
0.793515 0.535225 0.499123
0.942489 0.518181 0.487846
0.148135 0.283101 0.430335
0.145251 0.276951 0.415106
0.49749 0.652049 0.506767
0.787213 0.708919 0.498299
1 0.704829 0.472709
0.155474 0.304646 0.427787
0.149676 0.291478 0.400046
0.4206 0.702495 0.48513
0.770504 0.847501 0.483665
1 0.869368 0.416098
0.0303197 0.0111543 0.205356
0.179095 0.0395666 0.244434
0.258961 0.053727 0.257877
0.306416 0.0611429 0.264637
0.334646 0.0651865 0.267857
0.10695 0.176272 0.430579
0.246235 0.29958 0.532647
0.502937 0.316304 0.544274
0.601404 0.29099 0.524239
0.641505 0.262242 0.505165
0.138018 0.248692 0.480934
0.184405 0.379538 0.56144
0.523278 0.539559 0.608606
0.785595 0.544289 0.590417
0.939071 0.525887 0.577646
0.15285 0.288487 0.494774
0.146685 0.274159 0.468376
0.456138 0.647929 0.606943
0.760586 0.72575 0.608148
1 0.717403 0.587396
0.160372 0.310872 0.493492
0.15491 0.298314 0.464118
0.388281 0.701091 0.582834
0.757259 0.871015 0.593332
1 0.896956 0.579843
