sandaya_1.0/luts/SANDAYA_LOOK_001_0060_ACESCG_TO_ACESCG.cube
TITLE "Generated by Resolve"
LUT_3D_SIZE 5
0.00444038 0.00468452 0.00561532
0.16936 0.0319371 0.00657664
0.223392 0.0402075 0.00822461
0.258915 0.0454871 0.00923171
0.283406 0.0489052 0.00987259
0.0614328 0.127337 0.0253758
0.391531 0.332586 0.0462654
0.636484 0.356756 0.0475166
0.751827 0.335744 0.0451362
0.781323 0.299748 0.0416266
0.0807965 0.168872 0.0282597
0.241047 0.377218 0.0511635
0.732067 0.567254 0.0622721
1 0.589761 0.0612192
1 0.581827 0.0594797
0.0920272 0.192752 0.0306859
0.0927443 0.194293 0.0309148
0.660227 0.669932 0.0675669
1 0.774777 0.0667887
1 0.799451 0.0641031
0.0992142 0.208499 0.0328832
0.100008 0.210285 0.0331273
0.475425 0.638682 0.0675669
1 0.887556 0.0693065
1 0.970611 0.0648661
0.0142214 0.00546273 0.0907149
0.181018 0.0385443 0.131014
0.241566 0.0481117 0.135576
0.284672 0.0535134 0.137148
0.314946 0.0569162 0.137758
0.0726329 0.131579 0.192798
0.353841 0.360632 0.322408
0.621683 0.373999 0.304448
0.736141 0.33904 0.290745
0.767498 0.298253 0.27628
0.113436 0.217136 0.247471
0.194995 0.439551 0.317754
0.727245 0.652873 0.272374
1 0.639139 0.223255
1 0.594446 0.193011
0.132326 0.26363 0.25597
0.139528 0.281971 0.26302
0.614908 0.784298 0.277974
1 0.86215 0.214206
1 0.857282 0.183398
0.140963 0.288426 0.24535
0.144671 0.298909 0.244572
0.40351 0.726528 0.270542
0.964477 0.956344 0.17116
1 0.988724 0.137926
0.0194247 0.00726329 0.127169
0.186679 0.0403449 0.180377
0.242832 0.0502785 0.186664
0.281697 0.0561532 0.189731
0.308858 0.0597848 0.191546
0.0716869 0.124178 0.222446
0.316915 0.343496 0.454444
0.562951 0.350042 0.457267
0.658824 0.311604 0.442649
0.675486 0.267323 0.421637
0.110964 0.203326 0.303273
0.203876 0.45452 0.489052
0.654856 0.663218 0.539223
0.941588 0.683833 0.518502
1 0.668177 0.508125
0.134157 0.255009 0.352483
0.154543 0.303258 0.417685
0.580743 0.83798 0.546304
1 0.9888 0.470069
1 0.987518 0.423835
0.148974 0.292226 0.379416
0.163119 0.328679 0.420356
0.385855 0.796216 0.525536
0.934203 1 0.514702
1 1 0.437949
0.0225223 0.0083772 0.149081
0.189563 0.0411841 0.21001
0.246586 0.0513313 0.218006
0.284764 0.0573892 0.222446
0.311131 0.0612039 0.225177
0.0722972 0.121859 0.24361
0.293294 0.316457 0.527504
0.535622 0.320928 0.534096
0.605463 0.280507 0.513481
0.614176 0.236072 0.485634
0.110185 0.197971 0.328252
0.375616 0.546227 0.586084
0.624414 0.654582 0.662211
0.920455 0.668879 0.666728
1 0.650416 0.662837
0.132708 0.24683 0.385138
0.157427 0.301305 0.49958
0.558511 0.838651 0.699748
0.953887 0.983413 0.720775
1 1 0.697368
0.147845 0.283101 0.42385
0.169192 0.33576 0.512474
0.373877 0.808026 0.672648
0.888991 1 0.730602
1 1 0.65304
0.0246433 0.00914015 0.164126
0.190631 0.0415961 0.230777
0.249271 0.0519875 0.240864
0.288182 0.0582284 0.246387
0.313954 0.0620432 0.249226
0.0731518 0.120699 0.261509
0.272267 0.288243 0.571405
0.509743 0.289113 0.584222
0.572915 0.248035 0.553246
0.571969 0.202197 0.514473
0.11078 0.196612 0.348363
0.341711 0.533806 0.633631
0.602304 0.637263 0.769406
0.867903 0.655421 0.770489
1 0.632715 0.765469
0.131884 0.242161 0.403708
0.277867 0.604257 0.690593
0.690517 0.875593 0.820691
0.934386 0.97052 0.859266
1 1 0.86154
0.14728 0.278141 0.450004
0.169924 0.330938 0.572534
0.332815 0.779507 0.78732
0.871427 1 0.897841
1 1 0.906447
