sandaya_1.0/luts/SANDAYA_LOOK_001_0020_ACESCG_TO_ACESCG.cube
TITLE "Generated by Resolve"
LUT_3D_SIZE 5
0.00729381 0.00959792 0.0121004
0.313634 0.0529183 0.0105898
0.362921 0.0590066 0.0116732
0.385016 0.0615549 0.0121309
0.39794 0.0630045 0.0123751
0.0669413 0.139406 0.0233921
0.411063 0.284413 0.0411994
0.576791 0.285206 0.0408026
0.674769 0.274342 0.0393835
0.724681 0.260792 0.0378271
0.0850233 0.177874 0.0284886
0.41912 0.385718 0.0511025
0.627573 0.417044 0.0526894
0.766491 0.4177 0.0520027
0.864454 0.410941 0.0509651
0.0954299 0.200137 0.0317235
0.416419 0.442847 0.0558633
0.644526 0.494667 0.0583505
0.808103 0.503166 0.0578927
0.94464 0.502678 0.0569924
0.102693 0.216342 0.0339361
0.41062 0.481834 0.0588388
0.65185 0.551461 0.0619364
0.830839 0.569635 0.0616922
0.988968 0.574105 0.0608072
0.0343633 0.0125582 0.236774
0.321675 0.0621805 0.21149
0.386084 0.0686961 0.200153
0.416892 0.0710155 0.192935
0.433539 0.0720531 0.187335
0.1411 0.257359 0.478721
0.36054 0.365667 0.313863
0.556527 0.356634 0.261921
0.667506 0.335332 0.235035
0.734707 0.316487 0.217929
0.156634 0.306493 0.440101
0.351537 0.484062 0.293721
0.586938 0.503899 0.200809
0.732067 0.486 0.15758
0.847456 0.459648 0.122698
0.163165 0.330175 0.410437
0.340597 0.542763 0.272328
0.561044 0.593866 0.22414
0.732982 0.582132 0.150973
0.850813 0.568826 0.128862
0.166247 0.343465 0.383215
0.331334 0.579644 0.250874
0.549813 0.651362 0.215778
0.721843 0.651469 0.145083
0.86508 0.637125 0.108141
0.0392309 0.0142367 0.277714
0.328939 0.0645457 0.280949
0.385733 0.0717174 0.271183
0.411765 0.0743877 0.263996
0.426169 0.0756542 0.258305
0.152514 0.269154 0.663432
0.34876 0.380545 0.488731
0.543648 0.375418 0.436301
0.670283 0.353124 0.404791
0.741238 0.331258 0.380667
0.171176 0.327245 0.644892
0.339773 0.51284 0.48452
0.550149 0.547646 0.442817
0.690806 0.540307 0.405936
0.815473 0.527153 0.37142
0.179538 0.356939 0.619165
0.335668 0.585534 0.46595
0.550683 0.646998 0.425391
0.721263 0.653468 0.348013
0.877943 0.631907 0.281071
0.183078 0.371801 0.590433
0.324651 0.632639 0.448432
0.544854 0.720363 0.409842
0.691951 0.744839 0.381704
0.876143 0.730449 0.283314
0.0388647 0.0140993 0.274571
0.334218 0.0656291 0.321447
0.390494 0.0730449 0.314275
0.415686 0.0759442 0.308431
0.42858 0.0772564 0.302174
0.155871 0.271229 0.753552
0.346349 0.384665 0.597223
0.528878 0.380255 0.540459
0.631617 0.360265 0.505455
0.704036 0.338231 0.479133
0.177111 0.33547 0.76875
0.304112 0.518181 0.624613
0.534722 0.562234 0.574838
0.702007 0.555688 0.525887
0.821485 0.542123 0.500847
0.186435 0.367071 0.756588
0.320104 0.59733 0.594339
0.537499 0.669215 0.561395
0.684886 0.680934 0.524742
0.812467 0.67599 0.498238
0.191165 0.384833 0.734859
0.320195 0.65301 0.573617
0.541741 0.75021 0.537911
0.689006 0.778347 0.510323
0.835492 0.781781 0.456016
0.0404669 0.0146639 0.288746
0.338308 0.066392 0.348241
0.395087 0.0738994 0.343725
0.420829 0.076997 0.339834
0.4336 0.0783856 0.334371
0.158633 0.274434 0.821347
0.345113 0.385946 0.68632
0.524453 0.381537 0.631281
0.624521 0.361242 0.582986
0.685313 0.340658 0.55375
0.180835 0.341192 0.8589
0.299519 0.52224 0.745647
0.533059 0.567895 0.678233
0.67689 0.565362 0.628382
0.816815 0.548959 0.589273
0.190478 0.373709 0.850736
0.285176 0.594614 0.714885
0.518624 0.680049 0.679088
0.669322 0.696117 0.638285
0.814252 0.68893 0.592264
0.195544 0.391745 0.838865
0.301305 0.656016 0.682551
0.524941 0.764843 0.653727
0.674846 0.798093 0.620279
0.80589 0.803601 0.589059
