sandaya_1.0/luts/SANDAYA_LOOK_001_0020_ACESCG_TO_ACESCG.cube
TITLE "Generated by Resolve"
LUT_3D_SIZE 33
0.00729381 0.00959792 0.0121004
0.0644846 0.0196536 0.00704967
0.141466 0.0280919 0.00576791
0.20708 0.0376135 0.00772107
0.243641 0.0432746 0.00881972
0.269322 0.046952 0.00950637
0.288777 0.0496376 0.00999466
0.302861 0.0515145 0.0103456
0.313634 0.0529183 0.0105898
0.32343 0.0541695 0.0108186
0.331044 0.0551308 0.0109865
0.337301 0.0559091 0.0111238
0.34345 0.0566567 0.0112612
0.348852 0.0573129 0.0113832
0.354055 0.0579385 0.01149
0.358892 0.0585184 0.0115969
0.362921 0.0590066 0.0116732
0.366323 0.0594034 0.0117494
0.36939 0.0597543 0.0118105
0.372549 0.0601205 0.0118715
0.375601 0.0604868 0.0119326
0.378058 0.0607614 0.0119936
0.380301 0.0610208 0.0120394
0.382605 0.0612802 0.0120851
0.385016 0.0615549 0.0121309
0.38819 0.0619211 0.012192
0.389868 0.0621042 0.0122225
0.391409 0.0622721 0.012253
0.392676 0.0624247 0.0122835
0.393973 0.062562 0.0122988
0.395361 0.0627146 0.0123293
0.396719 0.0628672 0.0123598
0.39794 0.0630045 0.0123751
0.0213626 0.0419471 0.0182956
0.056611 0.0500649 0.0110933
0.120073 0.060502 0.0105898
0.198627 0.0683299 0.0121004
0.257542 0.0721599 0.0129549
0.300694 0.0731365 0.0133059
0.332586 0.0726482 0.0133974
0.356085 0.0712291 0.0133059
0.373877 0.0691691 0.0131075
0.383398 0.0663615 0.0127718
0.3897 0.0630655 0.0123445
0.394614 0.0626688 0.012314
0.398611 0.0630808 0.0123903
0.400885 0.0633249 0.0124361
0.40058 0.0632944 0.0124361
0.400092 0.0632486 0.0124208
0.397375 0.0629435 0.0123751
0.392874 0.0624399 0.0122835
0.390295 0.06215 0.0122377
0.392706 0.0624247 0.0122835
0.395026 0.0626841 0.0123293
0.397177 0.0629129 0.0123598
0.399344 0.0631571 0.0124056
0.401007 0.0633402 0.0124361
0.40267 0.0635233 0.0124666
0.404196 0.0636912 0.0124971
0.405661 0.063859 0.0125277
0.407019 0.0639963 0.0125582
0.40827 0.0641337 0.0125734
0.409476 0.064271 0.012604
0.410437 0.0643778 0.0126192
0.411353 0.0644694 0.0126345
0.412299 0.0645762 0.0126497
0.0303349 0.0604562 0.0172732
0.0587625 0.0784009 0.0134127
0.124804 0.0979019 0.0162814
0.181857 0.108293 0.0179141
0.234852 0.114611 0.018967
0.281758 0.118059 0.0195621
0.319097 0.119265 0.0198215
0.349523 0.11841 0.0197757
0.377142 0.117342 0.0196994
0.401114 0.11545 0.0194858
0.421317 0.11313 0.0192264
0.43743 0.110384 0.0188754
0.450309 0.107271 0.0184939
0.459419 0.104295 0.0181125
0.467506 0.101381 0.017731
0.472694 0.0988937 0.0174105
0.476524 0.0963149 0.0170748
0.479789 0.0939193 0.0167697
0.480568 0.0913863 0.016434
0.480735 0.088838 0.0160983
0.481193 0.0869459 0.0158541
0.480552 0.0847639 0.0155642
0.479271 0.0829023 0.0153201
0.477363 0.0808728 0.0150454
0.475761 0.0775158 0.0145876
0.472938 0.0745251 0.0141909
0.469551 0.0722972 0.0138857
0.466377 0.0708476 0.0136873
0.464103 0.0701457 0.0135805
0.46038 0.0695659 0.013489
0.457664 0.0692912 0.0134432
0.45507 0.0690318 0.0134127
0.451591 0.0686809 0.0133516
0.040238 0.0813458 0.0194553
0.0612497 0.102586 0.0170901
0.128557 0.126467 0.0206149
0.183719 0.139498 0.0225376
0.234363 0.14725 0.0236973
0.279606 0.151492 0.0243381
0.320027 0.154452 0.0247959
0.352148 0.155596 0.0249943
0.378744 0.155337 0.024979
0.403326 0.155062 0.0249638
0.425727 0.15404 0.0248417
0.446342 0.152743 0.0246891
0.464179 0.150881 0.024445
0.478645 0.148928 0.0242008
0.492134 0.146715 0.0239109
0.503822 0.144488 0.023621
0.512215 0.14226 0.0233158
0.519905 0.140017 0.0230259
0.526864 0.13756 0.0227054
0.530755 0.134905 0.0223392
0.534066 0.132342 0.0220035
0.536706 0.129366 0.0216068
0.539071 0.126955 0.0212863
0.54052 0.124239 0.0209201
0.54168 0.121782 0.0205997
0.54255 0.119051 0.0202335
0.543297 0.116686 0.019913
0.543343 0.114015 0.0195621
0.542947 0.111788 0.0192721
0.542031 0.109117 0.0189059
0.540993 0.106538 0.0185702
0.540398 0.104768 0.0183261
0.538872 0.102571 0.0180362
0.0480659 0.0983902 0.0208896
0.0635386 0.123781 0.0203555
0.130861 0.149813 0.0241398
0.186267 0.165805 0.0264439
0.236057 0.174334 0.0276493
0.282414 0.179461 0.0283665
0.323476 0.18323 0.0289006
0.357748 0.185504 0.0292058
0.385626 0.186099 0.0292821
0.409888 0.186053 0.0292668
0.433005 0.185733 0.029221
0.454536 0.184848 0.029099
0.473548 0.183597 0.0289311
0.490745 0.181903 0.0287022
0.505959 0.180392 0.0285039
0.519097 0.178683 0.028275
0.532662 0.176745 0.0280156
0.544488 0.175235 0.0278172
0.552346 0.173602 0.0275883
0.560311 0.171649 0.0273289
0.566888 0.169833 0.0270848
0.573175 0.167681 0.0267948
0.576928 0.165469 0.0264897
0.580636 0.163272 0.0261997
0.584009 0.161273 0.0259251
0.587304 0.159091 0.0256352
0.590097 0.157092 0.0253758
0.59144 0.154772 0.0250553
0.592615 0.152865 0.0247959
0.593576 0.150515 0.0244907
0.594461 0.148577 0.0242313
0.59527 0.14638 0.0239261
0.59501 0.143908 0.0236057
0.0544289 0.112291 0.0219425
0.068452 0.141131 0.0229953
0.13315 0.169528 0.0270848
0.188602 0.187671 0.0296635
0.237842 0.197803 0.0310216
0.285557 0.205386 0.0319829
0.326543 0.209735 0.0325017
0.363317 0.212726 0.0328374
0.392401 0.214145 0.03299
0.418585 0.214771 0.0330358
0.439902 0.213825 0.0328985
0.462135 0.213306 0.0328069
0.481697 0.212177 0.0326543
0.499519 0.210986 0.0324865
0.517296 0.210056 0.0323491
0.532952 0.208469 0.0321355
0.545693 0.206882 0.0319371
0.557427 0.205478 0.031754
0.56965 0.203662 0.0315099
0.580163 0.202289 0.0313268
0.588205 0.200488 0.0310979
0.595773 0.198779 0.030869
0.603052 0.197055 0.0306554
0.610239 0.195193 0.0304112
0.615915 0.193225 0.0301518
0.620066 0.191424 0.0299229
0.623545 0.189075 0.0296178
0.626551 0.187137 0.0293584
0.629572 0.184817 0.0290532
0.632395 0.182788 0.0287938
0.634882 0.181018 0.0285649
0.636362 0.179095 0.0283055
0.637613 0.177508 0.0280919
0.0595102 0.123323 0.0226444
0.0748913 0.156191 0.0252537
0.13463 0.185458 0.0294499
0.190509 0.206546 0.0323186
0.24004 0.219135 0.0339055
0.287877 0.227665 0.0348974
0.330312 0.233295 0.0355077
0.369345 0.23769 0.0359655
0.399191 0.239597 0.0361334
0.425193 0.240421 0.0361791
0.448493 0.240528 0.0361486
0.470436 0.240375 0.0360876
0.491417 0.240284 0.0360418
0.509606 0.239475 0.0359045
0.526238 0.238361 0.0357519
0.542382 0.236591 0.035523
0.55758 0.235218 0.0353399
0.570108 0.233707 0.0351415
0.582803 0.232181 0.0349432
0.594507 0.230716 0.0347601
0.606897 0.229114 0.0345464
0.615534 0.227588 0.0343633
0.623713 0.225513 0.0341039
0.630488 0.223697 0.033875
0.63711 0.221363 0.0335851
0.643626 0.219379 0.033341
0.649882 0.21767 0.0331273
0.654231 0.215763 0.0328985
0.657801 0.213993 0.0326848
0.66212 0.212268 0.0324712
0.665827 0.210681 0.0322728
0.66923 0.208804 0.0320287
0.672847 0.206958 0.0317998
0.0636759 0.132342 0.0231785
0.0804303 0.168109 0.027039
0.135454 0.198932 0.0314031
0.19176 0.222736 0.0345006
0.241688 0.237751 0.036286
0.28983 0.248081 0.0374304
0.333623 0.254902 0.038117
0.372641 0.26009 0.0386053
0.405646 0.263478 0.0388952
0.431174 0.264149 0.0389105
0.456458 0.265461 0.0389868
0.478492 0.265461 0.0389258
0.49926 0.265492 0.03888
0.518807 0.265156 0.0387884
0.534722 0.263783 0.0386053
0.551202 0.261982 0.0383764
0.567605 0.261341 0.0382696
0.583047 0.260121 0.0381018
0.595804 0.258839 0.0379339
0.607584 0.257435 0.0377508
0.62034 0.256062 0.0375677
0.631632 0.254765 0.0373999
0.641794 0.252949 0.037171
0.648875 0.251102 0.0369573
0.655818 0.248875 0.0366979
0.66363 0.247089 0.0364843
0.67039 0.245624 0.0363012
0.677714 0.243809 0.0360876
0.683528 0.242267 0.0359045
0.687861 0.240391 0.0356909
0.692149 0.238331 0.0354467
0.696132 0.236851 0.0352636
0.699901 0.234806 0.0350347
0.0669413 0.139406 0.0233921
0.0851453 0.178134 0.0285344
0.135729 0.209949 0.0329442
0.192996 0.236301 0.0362554
0.242695 0.252872 0.0381476
0.291539 0.265522 0.0394751
0.336843 0.273869 0.0402838
0.375937 0.27985 0.0408179
0.411063 0.284413 0.0411994
0.437263 0.286015 0.0412909
0.463218 0.287785 0.0413977
0.486122 0.288151 0.0413672
0.506966 0.288487 0.0413367
0.527031 0.288548 0.0412909
0.544717 0.287907 0.0411688
0.560861 0.286168 0.04094
0.576791 0.285206 0.0408026
0.5935 0.284215 0.04065
0.608087 0.283375 0.0405127
0.620752 0.282032 0.0403449
0.633265 0.280644 0.0401617
0.645197 0.279393 0.0399939
0.657237 0.277913 0.0398108
0.667506 0.276249 0.0396124
0.674769 0.274342 0.0393835
0.682948 0.272511 0.0391699
0.689494 0.270985 0.0390021
0.69659 0.268894 0.0387579
0.704158 0.267308 0.0385748
0.710781 0.265873 0.038407
0.71606 0.264088 0.0381933
0.720455 0.26244 0.0380102
0.724681 0.260792 0.0378271
0.0698253 0.145586 0.0238804
0.0889143 0.186099 0.0297093
0.136706 0.220386 0.0343481
0.193622 0.247944 0.037705
0.243015 0.265797 0.0396735
0.291463 0.279545 0.0410773
0.337957 0.289708 0.0420233
0.377829 0.296361 0.0426032
0.414908 0.302129 0.0430762
0.442664 0.305364 0.0433204
0.467811 0.306996 0.0433967
0.492302 0.308492 0.0434577
0.513466 0.309163 0.0434577
0.53341 0.3093 0.0433967
0.553368 0.309621 0.0433661
0.571084 0.308675 0.0432136
0.586435 0.307591 0.043061
0.602853 0.306508 0.0428931
0.61828 0.305257 0.04271
0.631983 0.304173 0.0425574
0.64477 0.302937 0.0424048
0.657313 0.301885 0.0422522
0.669337 0.300511 0.0420844
0.681392 0.299092 0.0419013
0.692409 0.298039 0.0417639
0.700954 0.2963 0.0415503
0.708659 0.294942 0.0413977
0.715526 0.292851 0.0411688
0.722515 0.290745 0.0409247
0.728847 0.289311 0.0407721
0.73611 0.287465 0.0405585
0.742672 0.285786 0.0403601
0.747036 0.284367 0.0402075
0.0724651 0.151232 0.0245518
0.0919203 0.192523 0.0306401
0.136507 0.228321 0.0354009
0.194095 0.258366 0.0389563
0.244236 0.278386 0.0411078
0.291447 0.292302 0.0424811
0.338399 0.303685 0.043534
0.379278 0.311604 0.0441901
0.416403 0.317433 0.0446479
0.446052 0.321462 0.0449378
0.472572 0.324437 0.0451362
0.497871 0.326253 0.0452125
0.518608 0.326955 0.0452125
0.538613 0.327337 0.0451667
0.558968 0.328023 0.0451667
0.578302 0.327855 0.0450752
0.594888 0.32752 0.0449836
0.612436 0.326955 0.0448615
0.628946 0.32639 0.0447395
0.644327 0.325383 0.0445869
0.656229 0.323735 0.0443885
0.668482 0.322316 0.0442054
0.681117 0.321157 0.0440528
0.693828 0.319951 0.0438849
0.705455 0.318868 0.0437476
0.716823 0.317479 0.0435645
0.725093 0.316075 0.0434119
0.732952 0.314611 0.0432441
0.741207 0.312932 0.0430457
0.74818 0.311666 0.0428931
0.756481 0.310216 0.0427253
0.763241 0.308186 0.0425116
0.768597 0.306569 0.0423438
0.0749676 0.156588 0.02533
0.0949874 0.199161 0.0315862
0.135836 0.234852 0.0362554
0.193988 0.266651 0.0399329
0.244434 0.288701 0.0422675
0.29163 0.304021 0.0437476
0.338552 0.316503 0.0448615
0.381384 0.326162 0.0456703
0.418967 0.33254 0.0461433
0.449104 0.336614 0.0464179
0.475731 0.339834 0.0466163
0.502281 0.342626 0.0467842
0.524269 0.344045 0.0468147
0.545266 0.345113 0.0468452
0.564523 0.34519 0.0467689
0.58436 0.345068 0.0466773
0.601175 0.344762 0.0465705
0.619211 0.344472 0.046479
0.635981 0.343938 0.0463569
0.653056 0.343557 0.0462501
0.667765 0.342809 0.046128
0.681163 0.342092 0.0460059
0.69369 0.340993 0.0458534
0.705348 0.33904 0.0456245
0.716731 0.338003 0.0454871
0.730098 0.336858 0.0453346
0.740322 0.335653 0.045182
0.748989 0.334539 0.0450446
0.757671 0.333059 0.0448768
0.76524 0.331731 0.0447242
0.772885 0.330144 0.0445411
0.781003 0.328573 0.0443732
0.788403 0.327474 0.0442359
0.0773327 0.161593 0.0260777
0.0975204 0.204746 0.0323644
0.13608 0.24184 0.0371405
0.194125 0.274479 0.0408331
0.243702 0.297139 0.043183
0.291417 0.314015 0.0448005
0.337713 0.327001 0.0459297
0.380728 0.337575 0.0467994
0.419806 0.346075 0.0474556
0.453315 0.351934 0.0478676
0.4795 0.355261 0.0480659
0.504814 0.357504 0.0481575
0.528069 0.359548 0.048249
0.548928 0.360693 0.0482643
0.569696 0.361822 0.0482643
0.591623 0.362631 0.048249
0.609125 0.362478 0.0481575
0.625895 0.361517 0.0479896
0.641779 0.360861 0.0478676
0.659098 0.36051 0.0477607
0.67602 0.360021 0.0476387
0.68986 0.359304 0.0475166
0.702937 0.358465 0.0473945
0.716564 0.357366 0.0472267
0.728969 0.356619 0.0471046
0.742672 0.355688 0.0469673
0.755184 0.354604 0.0468147
0.764477 0.353475 0.0466773
0.772213 0.351431 0.0464637
0.779187 0.349844 0.0462959
0.787701 0.348608 0.0461585
0.796338 0.347127 0.0459907
0.804181 0.34609 0.0458686
0.079408 0.165988 0.0267185
0.100038 0.210346 0.0331273
0.1355 0.247272 0.0378119
0.193332 0.280934 0.0415808
0.243977 0.305913 0.0441291
0.29015 0.322301 0.045655
0.337133 0.336782 0.0469062
0.381674 0.348775 0.0478828
0.41915 0.356634 0.0484627
0.454551 0.363912 0.0489662
0.4813 0.367773 0.0491951
0.508598 0.371756 0.0494392
0.533471 0.375021 0.0496071
0.553094 0.375677 0.0495766
0.573495 0.376547 0.0495613
0.595239 0.377401 0.0495308
0.614664 0.377997 0.0495003
0.632898 0.377737 0.0493935
0.650355 0.377783 0.0493019
0.66804 0.377447 0.0491951
0.685206 0.377234 0.0491035
0.699702 0.376059 0.0489357
0.711315 0.374487 0.0487373
0.725536 0.373663 0.0486
0.737819 0.372869 0.0484779
0.751827 0.371923 0.0483406
0.764965 0.371115 0.0482032
0.777218 0.370199 0.0480812
0.78735 0.369024 0.0479286
0.795636 0.367712 0.047776
0.804501 0.36669 0.0476539
0.813107 0.365103 0.0474861
0.821241 0.364004 0.0473487
0.0814832 0.170413 0.0273899
0.102098 0.214969 0.033753
0.135805 0.253346 0.0385595
0.194125 0.288212 0.0423896
0.243534 0.312825 0.0448615
0.290944 0.331273 0.0465553
0.336828 0.345769 0.0477913
0.380606 0.357641 0.0487221
0.419776 0.367208 0.0494392
0.455848 0.375235 0.0499886
0.48304 0.379248 0.0502174
0.509407 0.382757 0.0504005
0.535134 0.386557 0.0506142
0.557092 0.388693 0.0506905
0.578271 0.390326 0.050721
0.600671 0.391684 0.0507362
0.62063 0.392599 0.0507057
0.637934 0.39205 0.0505837
0.655924 0.392432 0.0505226
0.673533 0.392187 0.0504158
0.691371 0.392035 0.0503243
0.708721 0.39173 0.0502022
0.722911 0.39118 0.0500954
0.737148 0.390311 0.0499428
0.749783 0.389502 0.0498207
0.764187 0.388525 0.0496681
0.777279 0.387671 0.0495308
0.789456 0.386694 0.0493935
0.800946 0.385061 0.0492103
0.809125 0.383658 0.0490578
0.817884 0.382574 0.0489204
0.82678 0.381201 0.0487678
0.835554 0.380087 0.0486305
0.0832532 0.174136 0.0279393
0.104219 0.219821 0.0344091
0.135073 0.257832 0.0391089
0.193912 0.293935 0.0430152
0.24419 0.320623 0.0456703
0.290379 0.338613 0.0472877
0.336706 0.354253 0.0486
0.381445 0.367315 0.0496223
0.419196 0.376196 0.050248
0.455039 0.384283 0.0507973
0.485023 0.390402 0.0511788
0.512642 0.394644 0.0514076
0.538598 0.398642 0.0516213
0.559915 0.400183 0.0516518
0.580682 0.401587 0.051667
0.603037 0.403265 0.0516823
0.623926 0.404654 0.0516976
0.64358 0.40531 0.0516518
0.662242 0.405798 0.0515908
0.6804 0.405814 0.0514992
0.698482 0.405966 0.0514229
0.716075 0.405921 0.0513313
0.73138 0.405249 0.051194
0.745159 0.404303 0.0510567
0.758709 0.404028 0.0509651
0.773236 0.403189 0.0508125
0.786633 0.402319 0.0506752
0.799969 0.401679 0.0505684
0.814298 0.400793 0.0504158
0.824765 0.399817 0.0502937
0.833844 0.398672 0.0501564
0.843061 0.397253 0.0499886
0.852216 0.396384 0.0498817
0.0850233 0.177874 0.0284886
0.105943 0.223758 0.0349279
0.13489 0.262974 0.0397192
0.193637 0.299718 0.0436561
0.242954 0.326223 0.0462501
0.289937 0.346441 0.0480659
0.336202 0.362554 0.0493935
0.378973 0.374975 0.0503395
0.41912 0.385718 0.0511025
0.455451 0.394507 0.0516823
0.486595 0.401053 0.0520943
0.512764 0.404852 0.0522774
0.538537 0.408774 0.0524758
0.562188 0.411856 0.0525978
0.583612 0.413718 0.0526436
0.606287 0.415274 0.0526589
0.627573 0.417044 0.0526894
0.647303 0.417655 0.0526284
0.665095 0.417807 0.0525368
0.682536 0.417777 0.0524453
0.701137 0.418006 0.052369
0.719615 0.418357 0.0522927
0.737652 0.41828 0.0522011
0.752361 0.417655 0.0520638
0.766491 0.4177 0.0520027
0.78146 0.416968 0.0518654
0.795499 0.416358 0.0517433
0.809461 0.415961 0.0516365
0.824552 0.41532 0.0515145
0.837888 0.414771 0.0513924
0.845624 0.413169 0.0512398
0.855131 0.411933 0.0510872
0.864454 0.410941 0.0509651
0.0865949 0.181201 0.0289921
0.107942 0.228397 0.035523
0.134691 0.267124 0.0402075
0.193942 0.305303 0.0442512
0.243503 0.332876 0.0469215
0.290227 0.353506 0.0487373
0.335317 0.36936 0.0500191
0.379919 0.383764 0.0511177
0.420478 0.395056 0.0519112
0.454551 0.402533 0.052369
0.487098 0.41001 0.052842
0.514961 0.415381 0.0531319
0.541253 0.419562 0.0533455
0.56614 0.423178 0.0534981
0.586862 0.424704 0.0535134
0.608331 0.425849 0.0534829
0.629068 0.427359 0.0534981
0.651102 0.429038 0.0534981
0.669734 0.429587 0.0534371
0.688502 0.429999 0.0533761
0.706935 0.430228 0.0532845
0.725704 0.430625 0.0532235
0.744457 0.4309 0.0531319
0.760693 0.430442 0.0530098
0.773526 0.429816 0.0528878
0.787137 0.428397 0.0527199
0.80174 0.428092 0.0526131
0.815915 0.427695 0.0525063
0.830716 0.427024 0.052369
0.844907 0.42652 0.0522621
0.857267 0.426078 0.0521553
0.867887 0.425147 0.0520333
0.877485 0.424125 0.0518959
0.0880293 0.184222 0.0294347
0.109453 0.231922 0.0359808
0.134813 0.27187 0.0407721
0.193271 0.309804 0.0447395
0.243168 0.338933 0.0475166
0.288869 0.359533 0.0493172
0.33492 0.376974 0.050721
0.377371 0.390219 0.0516976
0.418494 0.402167 0.0525216
0.454932 0.411673 0.0531472
0.488441 0.419806 0.0536355
0.516365 0.425193 0.0539254
0.541665 0.429267 0.0541085
0.56672 0.432746 0.0542611
0.588693 0.435157 0.0543221
0.61146 0.43714 0.0543526
0.632364 0.438727 0.0543526
0.654856 0.440589 0.0543679
0.67425 0.441382 0.0543221
0.693233 0.44184 0.0542458
0.709941 0.441321 0.0541238
0.727596 0.441337 0.0540169
0.74641 0.441642 0.0539406
0.765469 0.44184 0.0538491
0.779248 0.441566 0.0537423
0.795026 0.441138 0.0536202
0.809903 0.440848 0.0535286
0.824353 0.440452 0.0534066
0.83946 0.43978 0.0532845
0.853834 0.439551 0.0531777
0.868284 0.439002 0.0530556
0.879911 0.438117 0.0529335
0.888914 0.437018 0.0527962
0.0895399 0.187442 0.0299077
0.111162 0.235935 0.0364843
0.135348 0.276387 0.0412909
0.193896 0.31516 0.045304
0.242756 0.343893 0.0480049
0.289601 0.366278 0.0499428
0.333944 0.382712 0.0512398
0.377691 0.39765 0.0523384
0.419318 0.410117 0.053193
0.455589 0.420066 0.0538338
0.488502 0.427619 0.0542611
0.515908 0.433051 0.054551
0.542809 0.438254 0.0548104
0.569512 0.443076 0.0550393
0.592325 0.44567 0.0551156
0.615381 0.447776 0.0551461
0.636469 0.449439 0.0551461
0.656657 0.450156 0.0550851
0.676997 0.45127 0.0550546
0.695689 0.451713 0.0549783
0.714763 0.452338 0.0549172
0.733898 0.452827 0.0548409
0.752529 0.453117 0.0547494
0.772137 0.453391 0.0546578
0.787549 0.453574 0.0545815
0.803265 0.452842 0.0544442
0.817945 0.452522 0.0543221
0.831266 0.451728 0.0542
0.845151 0.450645 0.0540322
0.859831 0.450141 0.0539254
0.874372 0.449866 0.0538186
0.888808 0.449226 0.0536812
0.898451 0.448142 0.0535592
0.0907912 0.190082 0.0302892
0.112627 0.239414 0.0369268
0.135149 0.279759 0.0416724
0.192981 0.318837 0.0456855
0.24271 0.349447 0.0485542
0.287785 0.371115 0.0504005
0.333349 0.389456 0.0518502
0.377035 0.404791 0.0529641
0.418387 0.41735 0.0538033
0.453437 0.42652 0.0543679
0.487755 0.435477 0.054902
0.516762 0.441871 0.0552377
0.543893 0.447547 0.0555276
0.570672 0.452552 0.0557565
0.592645 0.454459 0.0557717
0.615274 0.456352 0.055787
0.636774 0.458473 0.0558175
0.659709 0.460609 0.0558328
0.680781 0.462058 0.0558175
0.700404 0.462959 0.0557717
0.719722 0.46363 0.0557107
0.739101 0.464164 0.0556344
0.757473 0.464439 0.0555428
0.775525 0.463966 0.0554055
0.791135 0.463661 0.0552834
0.80737 0.463264 0.0551614
0.82269 0.462989 0.0550546
0.837461 0.462898 0.054963
0.853056 0.462226 0.0548257
0.868452 0.462043 0.0547189
0.883299 0.461784 0.054612
0.899413 0.461265 0.05449
0.910719 0.460563 0.0543679
0.0921798 0.193088 0.0307164
0.113802 0.242237 0.0372778
0.135805 0.28394 0.0421454
0.193683 0.323659 0.0461891
0.242786 0.354482 0.0490425
0.288441 0.377264 0.0509651
0.333944 0.396216 0.05243
0.376059 0.410651 0.0534676
0.418296 0.424094 0.0543526
0.454307 0.434302 0.0549783
0.488685 0.443519 0.0555276
0.518364 0.450584 0.0559091
0.543084 0.454719 0.0560769
0.569787 0.459861 0.0563058
0.594858 0.463813 0.0564584
0.618402 0.46595 0.0564736
0.640085 0.468177 0.0565042
0.662776 0.470314 0.0565194
0.685313 0.472419 0.0565347
0.703471 0.472602 0.0564431
0.72163 0.472618 0.0563363
0.740826 0.473213 0.05626
0.760021 0.47364 0.0561837
0.780499 0.474357 0.0561074
0.798962 0.474693 0.0560159
0.815503 0.474296 0.0558938
0.831022 0.474327 0.0558022
0.84622 0.473945 0.0556802
0.862562 0.47361 0.0555581
0.877745 0.473411 0.0554513
0.892439 0.472801 0.0553292
0.908309 0.472236 0.0551919
0.919982 0.471 0.0550393
0.093492 0.195926 0.0311284
0.115206 0.245624 0.037705
0.136156 0.287694 0.0425574
0.193713 0.328008 0.0466316
0.242191 0.358968 0.0494698
0.288136 0.382971 0.0514839
0.332403 0.401251 0.0528725
0.374868 0.416678 0.0539712
0.418021 0.431098 0.0549172
0.454124 0.44184 0.0555886
0.48687 0.450034 0.0560311
0.516823 0.457221 0.0564126
0.543572 0.463127 0.0567025
0.570291 0.468421 0.0569467
0.596353 0.473152 0.0571298
0.620203 0.475715 0.0571756
0.641138 0.477333 0.0571603
0.662226 0.478416 0.0571145
0.684245 0.480507 0.0571145
0.704814 0.481849 0.057084
0.724529 0.482689 0.057023
0.743847 0.483314 0.0569467
0.7635 0.484123 0.0568856
0.783886 0.484581 0.0567941
0.803189 0.485359 0.0567178
0.821103 0.485191 0.0565957
0.836667 0.484947 0.0564889
0.850874 0.48423 0.0563516
0.86569 0.483177 0.056199
0.88098 0.482979 0.0560922
0.896269 0.482734 0.0559701
0.912886 0.482216 0.055848
0.92813 0.481834 0.0557259
0.0944686 0.198062 0.0314336
0.116564 0.24889 0.0381018
0.136477 0.290425 0.0428626
0.19353 0.331258 0.046952
0.242863 0.36405 0.0499428
0.288151 0.387991 0.0519265
0.332891 0.407263 0.0533913
0.37586 0.423499 0.0545205
0.418997 0.437995 0.0554665
0.453223 0.447333 0.0560159
0.487251 0.457145 0.0565805
0.5187 0.465019 0.0569924
0.545586 0.471077 0.0572824
0.572259 0.476738 0.0575265
0.597772 0.48101 0.0576791
0.620752 0.483192 0.0576944
0.642771 0.485359 0.0577096
0.665599 0.487663 0.0577401
0.688045 0.489601 0.0577249
0.7093 0.491142 0.0577096
0.729519 0.492378 0.0576638
0.749096 0.49305 0.0575875
0.768994 0.493889 0.0575113
0.787305 0.493507 0.0573739
0.804929 0.493507 0.0572671
0.824353 0.493568 0.057145
0.84094 0.493736 0.0570535
0.856611 0.493736 0.0569619
0.87364 0.493477 0.0568399
0.889036 0.493004 0.0567025
0.905318 0.493156 0.056611
0.922591 0.492699 0.0564736
0.938445 0.492378 0.0563668
0.0954299 0.200137 0.0317235
0.117571 0.251362 0.0383917
0.137087 0.293919 0.0432441
0.193286 0.334722 0.047303
0.242618 0.368368 0.0503395
0.287129 0.392462 0.0523232
0.332494 0.412924 0.0538643
0.375128 0.42945 0.0550088
0.416419 0.442847 0.0558633
0.45301 0.454322 0.0565499
0.48687 0.464073 0.0570993
0.519066 0.472679 0.057557
0.544884 0.478065 0.0577859
0.570306 0.483009 0.0579995
0.59736 0.48838 0.0582132
0.621973 0.491753 0.0582895
0.644526 0.494667 0.0583505
0.667216 0.496727 0.0583505
0.689754 0.498756 0.0583505
0.711879 0.500618 0.0583352
0.730678 0.501076 0.0582437
0.748669 0.500969 0.0581216
0.768536 0.501869 0.0580606
0.789487 0.502724 0.0579843
0.808103 0.503166 0.0578927
0.829526 0.503792 0.0577859
0.845411 0.503594 0.0576791
0.861814 0.50367 0.0575723
0.879057 0.503426 0.0574502
0.895109 0.503319 0.0573434
0.911192 0.503136 0.0572366
0.928557 0.502998 0.0571145
0.94464 0.502678 0.0569924
0.0964675 0.202426 0.0320439
0.118761 0.254292 0.0387579
0.137896 0.297459 0.0436408
0.1935 0.33846 0.0476844
0.241459 0.371298 0.0506294
0.28716 0.397238 0.0527352
0.332219 0.417945 0.0542916
0.373419 0.433799 0.055375
0.416587 0.449317 0.0563668
0.45362 0.461234 0.0570687
0.487511 0.471199 0.0576181
0.518471 0.478599 0.0579843
0.544961 0.484855 0.0582742
0.571542 0.490791 0.0585336
0.598688 0.496315 0.0587472
0.624018 0.500069 0.058854
0.646693 0.503075 0.0589151
0.669505 0.505211 0.0589151
0.689921 0.506004 0.0588388
0.712657 0.508125 0.0588235
0.732738 0.509453 0.058793
0.752438 0.510201 0.0587015
0.772473 0.511147 0.0586404
0.793637 0.512062 0.0585641
0.812451 0.512535 0.0584726
0.834104 0.513207 0.058381
0.851759 0.513527 0.0582742
0.867994 0.513268 0.0581521
0.884947 0.513008 0.0580301
0.900175 0.512505 0.057908
0.914748 0.511864 0.0577707
0.931792 0.511391 0.0576333
0.947997 0.511086 0.0575113
0.0974899 0.2047 0.0323491
0.119997 0.257328 0.0391089
