sandaya_1.0/luts/SANDAYA_LOOK_001_0030_ACESCG_TO_ACESCG.cube
TITLE "Generated by Resolve"
LUT_3D_SIZE 33
0.00518807 0.00605783 0.00793469
0.0238956 0.0108339 0.00688182
0.0527504 0.0153658 0.00483711
0.0841382 0.0197299 0.00416571
0.117678 0.0245365 0.00505074
0.145724 0.0283818 0.00584421
0.167788 0.0314488 0.00648508
0.187442 0.0344091 0.00709545
0.204532 0.0372015 0.00764477
0.219898 0.0396582 0.0081178
0.234104 0.0418402 0.00854505
0.246738 0.0437324 0.00889601
0.257435 0.0452735 0.00920119
0.267826 0.0467536 0.00947585
0.277134 0.0480507 0.00972
0.284245 0.0490272 0.00988785
0.291218 0.049958 0.0100557
0.297536 0.0508125 0.0102083
0.303624 0.0516213 0.0103609
0.308782 0.0522927 0.0104829
0.313649 0.0529183 0.0105898
0.318395 0.0535286 0.0107118
0.322744 0.054078 0.0108034
0.326925 0.054612 0.0108949
0.330434 0.0550546 0.0109712
0.333852 0.0554818 0.0110475
0.337224 0.0558938 0.0111238
0.340139 0.05626 0.0112001
0.343389 0.0566567 0.0112612
0.346487 0.057023 0.0113375
0.348943 0.0573281 0.0113832
0.351476 0.0576333 0.0114443
0.353704 0.057908 0.01149
0.0108949 0.0205234 0.0141451
0.0220493 0.022797 0.0125887
0.0567788 0.030045 0.00813306
0.130404 0.040589 0.00755322
0.182254 0.0417639 0.0081178
0.207202 0.0405585 0.00813306
0.20502 0.0372778 0.00766003
0.230625 0.0413214 0.00843824
0.252872 0.0446174 0.00907912
0.269917 0.0470436 0.00952163
0.284733 0.0490883 0.0099031
0.296818 0.050721 0.010193
0.307546 0.0521248 0.0104524
0.31632 0.0532692 0.0106508
0.324483 0.0543069 0.0108492
0.331472 0.0551766 0.0110018
0.337789 0.0559701 0.0111391
0.343801 0.0567025 0.0112764
0.34902 0.0573434 0.0113832
0.353552 0.0578775 0.0114748
0.358007 0.0584115 0.0115816
0.362005 0.0588846 0.0116579
0.365743 0.0593271 0.0117342
0.368658 0.059678 0.0117952
0.371542 0.0600137 0.0118563
0.374212 0.0603189 0.0119173
0.376898 0.0606241 0.0119631
0.379599 0.0609445 0.0120241
0.381628 0.0611734 0.0120546
0.383612 0.0614023 0.0121004
0.385458 0.0616007 0.0121309
0.387182 0.061799 0.0121767
0.388998 0.0619974 0.0122072
0.0204013 0.0401465 0.0162661
0.020798 0.0411383 0.0140078
0.0519417 0.0462501 0.0124361
0.0838331 0.0540932 0.0102998
0.120272 0.0607919 0.0106355
0.212161 0.0758679 0.0132753
0.270191 0.0787671 0.013962
0.298466 0.0751812 0.0135805
0.316503 0.0709087 0.013077
0.325399 0.0643168 0.0122072
0.324727 0.0557107 0.0110323
0.315251 0.0531319 0.0106355
0.287373 0.0494392 0.00996414
0.298436 0.0509346 0.0102388
0.307897 0.0521706 0.0104677
0.31632 0.0532692 0.0106508
0.324208 0.0542611 0.0108339
0.330907 0.0551156 0.0109865
0.336904 0.055848 0.0111238
0.34258 0.0565499 0.0112459
0.347768 0.0571908 0.0113527
0.352361 0.0577401 0.0114595
0.356298 0.0582132 0.0115358
0.360357 0.0587015 0.0116274
0.364157 0.059144 0.0117037
0.367376 0.0595254 0.0117647
0.370077 0.0598306 0.0118257
0.372793 0.0601511 0.0118868
0.375402 0.0604562 0.0119326
0.377981 0.0607462 0.0119936
0.380362 0.0610208 0.0120394
0.3823 0.0612497 0.0120699
0.384192 0.0614633 0.0121157
0.027863 0.0553597 0.0169985
0.0265049 0.0525826 0.0167086
0.0543526 0.0746014 0.013138
0.0937667 0.0783093 0.0132753
0.141238 0.095079 0.0158694
0.21709 0.115892 0.0191043
0.290471 0.126314 0.0207675
0.330434 0.126406 0.0208591
0.359503 0.123293 0.0204776
0.382818 0.118044 0.0198062
0.400519 0.111452 0.0189517
0.413092 0.103624 0.0179141
0.420233 0.0957046 0.016846
0.421622 0.0880598 0.0158236
0.416526 0.0806897 0.0148165
0.406943 0.0727703 0.0137179
0.39147 0.0633402 0.0123903
0.373068 0.0601816 0.0118868
0.341848 0.0564584 0.0112306
0.330663 0.0550851 0.0109865
0.336583 0.0558175 0.0111086
0.341833 0.0564584 0.0112306
0.346685 0.0570535 0.0113375
0.350759 0.0575418 0.011429
0.35462 0.0580148 0.0115053
0.358572 0.0584878 0.0115816
0.362219 0.0589151 0.0116579
0.365743 0.0593271 0.0117342
0.368429 0.0596475 0.0117952
0.37113 0.059968 0.011841
0.373739 0.0602579 0.011902
0.376242 0.0605478 0.0119478
0.378698 0.0608377 0.0120089
0.0361181 0.0725414 0.0188907
0.034638 0.069398 0.018555
0.0441596 0.0900282 0.0163882
0.110445 0.115724 0.0190127
0.174533 0.139757 0.0225834
0.248829 0.160113 0.0255741
0.309712 0.167636 0.0266728
0.354772 0.169879 0.0270085
0.391821 0.169162 0.0269169
0.420935 0.166125 0.0265202
0.446571 0.162722 0.0260624
0.468696 0.158495 0.0254978
0.483833 0.153307 0.0247959
0.494163 0.146914 0.0239414
0.500618 0.139895 0.0229801
0.502815 0.132418 0.021973
0.502998 0.124575 0.0209201
0.499397 0.11577 0.0197299
0.492363 0.105867 0.0183871
0.483452 0.0972915 0.0172274
0.471382 0.0884413 0.016022
0.456138 0.0808423 0.0149691
0.438239 0.0712902 0.0136416
0.417212 0.0651102 0.0127413
0.395285 0.0627146 0.0123293
0.351247 0.0576028 0.011429
0.354757 0.0580301 0.0115053
0.358358 0.0584573 0.0115816
0.361791 0.0588693 0.0116579
0.365148 0.059266 0.0117189
0.367605 0.059556 0.01178
0.370184 0.0598459 0.0118257
0.37261 0.0601358 0.0118715
0.0441138 0.0897078 0.0205386
0.0424659 0.0861372 0.0202792
0.0447852 0.0912032 0.0204623
0.100374 0.143908 0.0233158
0.181521 0.177127 0.0281224
0.253117 0.19617 0.0307622
0.318639 0.206012 0.0320134
0.372396 0.211261 0.032639
0.416495 0.212619 0.0327611
0.450874 0.211246 0.0325628
0.482948 0.208713 0.0322118
0.508904 0.205005 0.0317235
0.531472 0.200763 0.0311742
0.54902 0.195972 0.0305486
0.562951 0.190463 0.0298314
0.571069 0.18471 0.0290684
0.577264 0.17879 0.0282902
0.580331 0.172213 0.0274052
0.580224 0.165759 0.0265354
0.578164 0.158938 0.0256199
0.574121 0.151324 0.0245823
0.568093 0.14316 0.0234836
0.560052 0.134874 0.0223697
0.551324 0.126665 0.0212558
0.540093 0.116472 0.0198825
0.528954 0.107256 0.0186465
0.513832 0.0979171 0.01738
0.498558 0.0899062 0.0162814
0.479438 0.0819104 0.0151827
0.458808 0.0715648 0.0137484
0.438712 0.0673686 0.0131228
0.415396 0.0649119 0.0127108
0.376471 0.0605783 0.0119631
0.0511025 0.105013 0.0217899
0.049546 0.10161 0.0215152
0.0488441 0.100084 0.0213931
0.0732128 0.151293 0.0245212
0.169665 0.200656 0.0315557
0.246509 0.22649 0.0348516
0.321782 0.242832 0.0366979
0.386023 0.252949 0.0377356
0.435386 0.256779 0.038056
0.475074 0.25713 0.0380102
0.512779 0.256443 0.0378424
0.542504 0.253285 0.0374304
0.571969 0.250477 0.0370489
0.593439 0.246311 0.0365454
0.6121 0.241123 0.0359197
0.627237 0.235904 0.0352941
0.637675 0.229892 0.0345922
0.645502 0.22298 0.0337682
0.651926 0.217121 0.0330663
0.653849 0.210605 0.0322728
0.654505 0.204089 0.0314794
0.654139 0.197314 0.0306401
0.65156 0.190555 0.0297856
0.645624 0.182635 0.0287633
0.63978 0.176196 0.027924
0.631861 0.168597 0.0269017
0.624979 0.161975 0.0260319
0.614511 0.153628 0.0249027
0.605524 0.146654 0.0239719
0.593149 0.137743 0.0227817
0.580957 0.129152 0.021622
0.568673 0.120089 0.0204013
0.554147 0.110185 0.0190738
0.0569619 0.117784 0.0228122
0.0554971 0.114595 0.0225376
0.0546578 0.112749 0.022385
0.0681315 0.142 0.0231327
0.147539 0.210819 0.0330205
0.234974 0.25095 0.0379339
0.317845 0.274861 0.0404517
0.389654 0.289998 0.0418708
0.449622 0.298939 0.0426184
0.496529 0.302678 0.0428473
0.53724 0.302571 0.04271
0.574105 0.302037 0.0425422
0.608377 0.299825 0.0422065
0.635523 0.296742 0.0418097
0.658595 0.29218 0.0412757
0.679454 0.287358 0.0407263
0.694041 0.282017 0.0401312
0.706905 0.276402 0.0395209
0.717906 0.270787 0.0388952
0.724285 0.264637 0.0382391
0.728267 0.258045 0.0375219
0.731136 0.251377 0.0367895
0.731609 0.244205 0.0360113
0.728603 0.236347 0.0351415
0.725719 0.229114 0.0343328
0.721736 0.221653 0.0334783
0.717708 0.215274 0.0327306
0.712535 0.208438 0.0319219
0.705531 0.201297 0.0310674
0.698772 0.194949 0.0302892
0.689158 0.186984 0.0292821
0.679881 0.180133 0.0284123
0.670283 0.173434 0.0275425
0.0619059 0.128496 0.0235142
0.0607004 0.125872 0.0233921
0.0599985 0.124346 0.023331
0.0595254 0.123323 0.0232853
0.112093 0.208148 0.0327764
0.214527 0.266163 0.0398108
0.303761 0.298863 0.0431525
0.385183 0.320806 0.0451209
0.455833 0.335454 0.0462806
0.509194 0.342275 0.0467231
0.556085 0.345525 0.0468299
0.600061 0.347341 0.0468147
0.639567 0.347036 0.0466316
0.675303 0.345739 0.0463569
0.70312 0.342748 0.0459754
0.728985 0.338659 0.0455024
0.751049 0.334524 0.0450294
0.768093 0.329641 0.0445258
0.783856 0.324681 0.0439918
0.795087 0.318883 0.0434119
0.801877 0.312764 0.0428168
0.806958 0.306203 0.0421607
0.809583 0.29897 0.0414588
0.81146 0.292119 0.0407721
0.810437 0.284855 0.0400549
0.809461 0.278462 0.0394141
0.806699 0.271 0.0386511
0.804395 0.264866 0.0380255
0.80061 0.257603 0.0372778
0.795514 0.25124 0.0366064
0.788556 0.243641 0.0357977
0.78175 0.236469 0.0350195
0.774105 0.229252 0.0342412
0.0661479 0.137652 0.024094
0.0648661 0.13489 0.0238956
0.06421 0.133471 0.0238041
0.0636912 0.132342 0.0237278
0.0925612 0.193896 0.0308385
0.187915 0.269032 0.040238
0.283925 0.315373 0.0449683
0.375113 0.345281 0.0475776
0.456138 0.366522 0.0491951
0.517388 0.378698 0.0500038
0.569375 0.384192 0.050248
0.621057 0.388891 0.0504005
0.665263 0.389654 0.050248
0.709484 0.390204 0.0500801
0.743221 0.388128 0.0497444
0.772839 0.384558 0.0493019
0.803021 0.381308 0.0488899
0.824979 0.377768 0.0484932
0.845243 0.373236 0.0480201
0.865003 0.369192 0.0475929
0.875593 0.36405 0.0471046
0.883925 0.358053 0.0465553
0.8916 0.351873 0.0459907
0.898329 0.346548 0.0455024
0.898802 0.33904 0.0448463
0.900404 0.333639 0.044358
0.898878 0.326116 0.0436713
0.899336 0.320653 0.043183
0.896483 0.313161 0.0424964
0.893355 0.306676 0.041886
0.888685 0.30016 0.0412909
0.8822 0.29279 0.040589
0.874922 0.285542 0.0399023
0.0698711 0.145678 0.024445
0.0686809 0.143099 0.0243687
0.0680095 0.141649 0.0243534
0.0675517 0.140658 0.0243229
0.0792554 0.165682 0.0266728
0.154879 0.261784 0.0395056
0.26009 0.325185 0.046067
0.35639 0.362005 0.0492409
0.446082 0.389609 0.0513008
0.516609 0.406943 0.05243
0.577157 0.416495 0.052903
0.632074 0.422415 0.0530861
0.683558 0.426307 0.0531167
0.733501 0.428397 0.0530098
0.776989 0.42884 0.0527962
0.814817 0.427359 0.052491
0.854414 0.42562 0.0521401
0.87953 0.42237 0.0517586
0.905287 0.418753 0.0513466
0.931487 0.415763 0.0509804
0.948882 0.411261 0.0505531
0.96231 0.406424 0.0501106
0.972656 0.400031 0.0495613
0.982406 0.395193 0.0491493
0.989563 0.388846 0.0486
0.994049 0.383932 0.048188
0.995087 0.377295 0.0476539
0.99588 0.371603 0.0471809
0.996078 0.365148 0.0466468
0.995697 0.358816 0.046128
0.993378 0.353292 0.0456703
0.991119 0.347631 0.0451972
0.985794 0.341222 0.0446632
0.0733654 0.15314 0.0250095
0.0722057 0.150668 0.0247654
0.0713817 0.148898 0.0246281
0.070985 0.148058 0.0245823
0.0706645 0.147356 0.0245365
0.116655 0.244541 0.0375525
0.230442 0.325628 0.0462348
0.333013 0.375265 0.0505684
0.430472 0.40824 0.0529793
0.51133 0.431678 0.0544747
0.58114 0.447318 0.0552987
0.640772 0.455192 0.0555581
0.696986 0.460105 0.0555886
0.751125 0.463203 0.0554818
0.803494 0.465293 0.0553292
0.848722 0.4654 0.0550698
0.892851 0.464012 0.0547189
0.929122 0.462394 0.0543832
0.960754 0.459541 0.0540017
0.988357 0.455741 0.0535897
1 0.452888 0.0532387
1 0.448585 0.052842
1 0.443992 0.0524147
1 0.440253 0.052079
1 0.435309 0.0516365
1 0.430716 0.0512703
1 0.424979 0.0508278
1 0.420691 0.0504768
1 0.415 0.0500496
1 0.408408 0.049546
1 0.403571 0.0491798
1 0.39736 0.0487221
1 0.391196 0.0482643
0.0764782 0.159777 0.0258183
0.0754101 0.157504 0.0255131
0.0746014 0.155779 0.0252995
0.0742351 0.155001 0.0252079
0.0737621 0.153994 0.0250858
0.103624 0.218448 0.034226
0.19675 0.316838 0.0454566
0.304158 0.380835 0.0512093
0.411902 0.424735 0.0544442
0.500633 0.452232 0.0561227
0.575082 0.471748 0.0571603
0.643015 0.48481 0.0576791
0.70631 0.491783 0.0577707
0.766308 0.496986 0.0577401
0.825254 0.49984 0.057557
0.875883 0.500511 0.0572824
0.929503 0.50132 0.0569924
0.977005 0.500679 0.0566567
1 0.498589 0.0562905
1 0.494987 0.0558785
1 0.492943 0.0555276
1 0.489433 0.0551766
1 0.484794 0.0547494
1 0.481056 0.0544137
1 0.47599 0.0539864
1 0.471733 0.0536355
1 0.466758 0.053254
1 0.462119 0.052903
1 0.45684 0.0525216
1 0.451331 0.0521096
1 0.44741 0.0518196
1 0.442527 0.0514687
1 0.43798 0.051133
0.0794995 0.166201 0.0267643
0.0783246 0.163714 0.0263981
0.0775006 0.161959 0.0261387
0.0771344 0.161181 0.0260319
0.0767681 0.160418 0.0259098
0.0842298 0.176196 0.0282444
0.155001 0.298589 0.0436866
0.272679 0.380728 0.0513466
0.384894 0.433921 0.0553292
0.484779 0.470436 0.0575875
0.567422 0.494865 0.0588388
0.63975 0.510124 0.0594339
0.710155 0.521294 0.0597086
0.776287 0.52874 0.0597238
0.841276 0.533349 0.0595712
0.901595 0.535531 0.0592966
0.960174 0.536767 0.0589761
1 0.537224 0.0586252
1 0.534691 0.0582284
1 0.532998 0.0578622
1 0.531044 0.057496
1 0.527718 0.0571298
1 0.522774 0.0567025
1 0.519951 0.0563821
1 0.515679 0.0560006
1 0.511971 0.0556649
1 0.50695 0.0552834
1 0.502983 0.054963
1 0.498619 0.0546426
1 0.492561 0.0542458
1 0.488609 0.0539559
1 0.483497 0.0536049
1 0.479164 0.053315
0.082063 0.171618 0.0275731
0.0810712 0.169543 0.0272526
0.0802319 0.167758 0.0269932
0.0798962 0.167056 0.0268864
0.0794995 0.166201 0.0267643
0.0791638 0.165484 0.0266575
0.125887 0.272038 0.0408331
0.239109 0.372091 0.0507057
0.354482 0.437369 0.0557565
0.46244 0.482521 0.0585946
0.556344 0.514672 0.0602731
0.636683 0.535409 0.0610819
0.709987 0.549172 0.0614023
0.783383 0.559258 0.0614633
0.852125 0.565454 0.061326
0.92195 0.569116 0.0610208
0.987594 0.572259 0.0607309
1 0.572152 0.0603037
1 0.571984 0.0599374
1 0.570825 0.059556
1 0.569314 0.0591745
1 0.567437 0.0588235
1 0.562448 0.0583963
1 0.558953 0.0580606
1 0.554665 0.0576638
1 0.549798 0.0572824
1 0.545541 0.0569467
1 0.540795 0.056611
1 0.537621 0.0563363
1 0.532525 0.0559854
1 0.528969 0.0557259
1 0.52401 0.0553902
1 0.519631 0.0551156
0.0847334 0.177249 0.028397
0.0837262 0.175158 0.0280919
0.0828107 0.173205 0.0278019
0.0824292 0.172412 0.0276799
0.082063 0.171618 0.0275731
0.0818189 0.171115 0.0274968
0.108812 0.230426 0.0357824
0.198245 0.351308 0.0489204
0.318379 0.43444 0.0557107
0.433204 0.489143 0.0592355
0.538125 0.52961 0.0613565
0.621286 0.554864 0.0623484
0.700587 0.573083 0.0628214
0.779507 0.586404 0.0629435
0.852796 0.594354 0.0628061
0.935271 0.602472 0.0625772
1 0.605936 0.0622263
1 0.608652 0.0618601
1 0.609232 0.0614328
1 0.609018 0.0610513
1 0.606928 0.0606241
1 0.605814 0.0602426
1 0.603189 0.0598611
1 0.600351 0.0595102
1 0.596139 0.0591135
1 0.592645 0.0587625
1 0.58851 0.0584268
1 0.58323 0.0580758
1 0.579217 0.0577859
1 0.573098 0.0574197
1 0.568689 0.057145
1 0.564355 0.0568399
1 0.558984 0.0565347
0.0866712 0.181338 0.0290074
0.0859693 0.179858 0.0287938
0.085069 0.177996 0.0285191
0.0847944 0.177386 0.0284276
0.084596 0.176959 0.0283665
0.0842145 0.176165 0.0282444
0.0855879 0.17908 0.0286717
0.149493 0.32256 0.0462501
0.283543 0.427283 0.0552987
0.400458 0.491051 0.059556
0.512367 0.539712 0.06215
0.606622 0.572198 0.0634318
0.692622 0.595911 0.0640574
0.776074 0.613458 0.0642863
0.854749 0.624002 0.0641642
0.939406 0.632227 0.0638743
1 0.637324 0.0634928
1 0.64126 0.0630961
1 0.644175 0.0626383
1 0.645289 0.0622416
1 0.644907 0.0618143
1 0.644877 0.0614176
1 0.641306 0.0609598
1 0.638056 0.0605936
1 0.63386 0.0601968
1 0.630426 0.0598306
1 0.626963 0.0594492
1 0.622965 0.0591287
1 0.619806 0.058854
1 0.61532 0.0585336
1 0.611093 0.0582437
1 0.606256 0.0579232
1 0.602533 0.0576638
0.0885328 0.185275 0.0295872
0.0879377 0.184024 0.0294041
0.0869459 0.181933 0.029099
0.0866712 0.181338 0.0290074
0.0864729 0.180926 0.0289464
0.0862135 0.180392 0.0288701
0.0859693 0.179858 0.0287938
0.132311 0.288869 0.04271
0.246784 0.411002 0.0541085
0.366796 0.488441 0.059556
0.485969 0.546197 0.0627146
0.590692 0.588952 0.0644236
0.682567 0.617853 0.0651865
0.765881 0.635996 0.0653697
0.85301 0.651545 0.0653391
0.943297 0.663005 0.0650645
1 0.670878 0.0646525
1 0.67628 0.0642405
1 0.680369 0.0637369
1 0.680323 0.0632486
1 0.680186 0.0627756
1 0.680461 0.0623331
1 0.679088 0.0618448
1 0.677333 0.0614786
1 0.673991 0.0610513
1 0.671351 0.0606851
1 0.667674 0.0602579
1 0.663371 0.0599069
1 0.659892 0.059617
1 0.65388 0.059266
1 0.648844 0.0589761
1 0.644358 0.0586709
1 0.639933 0.0583658
0.0902876 0.189044 0.0301366
0.089662 0.187701 0.0299382
0.0887007 0.185641 0.0296483
0.0884108 0.185046 0.0295567
0.0882429 0.18468 0.0294957
0.0879683 0.184085 0.0294194
0.0877699 0.183658 0.0293584
0.110735 0.234943 0.0363622
0.203464 0.381537 0.0517281
0.328084 0.477714 0.0589761
0.451637 0.544152 0.0627909
0.562722 0.594156 0.0648814
0.660929 0.63093 0.0659495
0.752651 0.656535 0.066331
0.847059 0.677333 0.0663767
0.936172 0.68957 0.0660716
1 0.699763 0.0656291
1 0.708095 0.0652171
1 0.714778 0.0646983
1 0.718715 0.0641489
1 0.720211 0.0636454
1 0.720882 0.0631571
1 0.722057 0.0626078
1 0.718578 0.0621805
1 0.714351 0.0617227
1 0.710979 0.0613107
1 0.706996 0.0608682
1 0.703197 0.0604715
1 0.700542 0.0601663
1 0.695079 0.0598001
1 0.691783 0.0595102
1 0.687388 0.0591745
1 0.682445 0.0588388
0.0920119 0.192737 0.0306706
0.0914168 0.19144 0.0304875
0.0903182 0.189105 0.0301518
0.0900893 0.188617 0.0300755
0.0898909 0.18819 0.0300145
0.089662 0.187701 0.0299382
0.0894026 0.187152 0.0298619
0.0892653 0.186847 0.0298161
0.153903 0.343557 0.0483558
0.28809 0.460075 0.0578622
0.41413 0.537102 0.0625772
0.533227 0.597223 0.0652476
0.638682 0.64152 0.0665751
0.734661 0.671748 0.0670634
0.828122 0.69485 0.0671397
0.926482 0.711772 0.0668803
1 0.727321 0.0664836
1 0.737133 0.06598
1 0.744991 0.0654154
1 0.751476 0.0648051
1 0.752636 0.0642557
1 0.753765 0.0637522
1 0.755169 0.0631418
1 0.755871 0.0626535
1 0.753887 0.0621653
1 0.752483 0.0617227
1 0.750484 0.0612345
1 0.747143 0.0607614
1 0.743603 0.0604257
1 0.739483 0.0600443
1 0.735836 0.0597238
1 0.729686 0.0594034
1 0.724193 0.0590677
0.0932021 0.195315 0.0310369
0.0926986 0.194217 0.0308843
0.0920119 0.192737 0.0306706
0.091722 0.192111 0.0305791
0.0914626 0.191562 0.0305028
0.0912642 0.191135 0.0304417
0.0911269 0.190814 0.030396
0.0908675 0.190265 0.0303197
0.136736 0.30071 0.0439918
0.247395 0.436225 0.056199
0.375662 0.527291 0.0621653
0.498634 0.593729 0.0652934
0.611414 0.646937 0.0670024
0.714702 0.686625 0.0677653
0.81239 0.713481 0.0678874
0.917052 0.735927 0.0676738
1 0.75198 0.067216
1 0.763104 0.0666667
1 0.771405 0.0660716
1 0.779721 0.0654154
1 0.784436 0.0647746
1 0.788754 0.0642252
1 0.791196 0.0635538
1 0.791821 0.0629587
1 0.791104 0.0624247
1 0.789746 0.0619211
1 0.787045 0.0614176
1 0.782986 0.0608988
1 0.779385 0.0605631
1 0.775753 0.0601816
1 0.772595 0.0598611
1 0.768414 0.0594949
1 0.765347 0.0591287
0.0943008 0.197665 0.0313726
0.0938888 0.19678 0.0312505
0.0931258 0.195132 0.0310063
0.0929274 0.19472 0.0309453
0.0927138 0.194263 0.0308843
0.0926223 0.194034 0.0308537
0.0924392 0.193668 0.030808
0.0922713 0.193301 0.0307469
0.114031 0.242786 0.0373541
0.202762 0.4009 0.0534524
0.334539 0.510826 0.0612955
0.464042 0.588922 0.0652476
0.583719 0.65095 0.0673686
0.690715 0.697307 0.0683299
0.792187 0.729259 0.0685283
0.898878 0.75462 0.0683299
1 0.773373 0.0678874
1 0.790631 0.0673075
1 0.801389 0.0666667
1 0.810529 0.0659342
1 0.818662 0.0651865
1 0.82298 0.0645762
1 0.824582 0.0638743
1 0.826642 0.0632029
1 0.82385 0.0626078
1 0.823957 0.0620584
1 0.821973 0.0614939
1 0.819135 0.060914
1 0.818204 0.0604868
1 0.813931 0.0601358
1 0.810834 0.0598001
1 0.807187 0.0594644
1 0.802365 0.0591135
0.0953994 0.200092 0.0317082
0.0949722 0.199161 0.0315862
0.0941939 0.197436 0.031342
0.0939803 0.196979 0.0312657
0.0937972 0.196597 0.03122
0.0936751 0.196323 0.0311742
0.0935531 0.196048 0.0311437
0.0934615 0.195865 0.0311131
0.0932021 0.195315 0.0310369
0.156741 0.355718 0.0495308
0.292988 0.487694 0.0598917
0.42443 0.576135 0.0648051
0.547036 0.645335 0.0673838
0.658961 0.698299 0.0686046
0.76759 0.740566 0.0690623
0.87921 0.772 0.0689403
0.992172 0.796994 0.068513
1 0.816526 0.0679026
1 0.831067 0.0671702
1 0.840589 0.0664225
1 0.849409 0.0655833
1 0.853315 0.0648966
1 0.858518 0.0641337
1 0.86276 0.063386
1 0.864073 0.062623
1 0.863722 0.0620279
1 0.861799 0.0614176
1 0.860334 0.0607767
1 0.857832 0.0602884
1 0.852796 0.0599527
1 0.848493 0.0596323
1 0.844251 0.0593271
1 0.838071 0.0590219
0.0963607 0.202213 0.0320134
0.0959793 0.201358 0.0318914
0.0951858 0.199619 0.0316472
0.0949722 0.199161 0.0315862
0.0948501 0.198871 0.0315404
0.0946822 0.198505 0.0314946
0.0945754 0.198276 0.0314488
0.0943618 0.197803 0.0313878
0.0943008 0.197665 0.0313726
0.139025 0.306966 0.0446632
0.250126 0.456413 0.0577707
0.381292 0.5561 0.06392
0.511009 0.635493 0.0672007
0.631113 0.698619 0.0688334
0.742596 0.747082 0.0694438
0.855329 0.783062 0.069398
0.96968 0.810483 0.068986
1 0.831174 0.0683757
1 0.849042 0.0675975
1 0.863966 0.0668193
1 0.877089 0.065919
1 0.886336 0.0651102
1 0.893141 0.0642557
1 0.899245 0.0634318
1 0.902113 0.062562
1 0.902724 0.0619364
1 0.900969 0.0612497
1 0.898711 0.0605936
1 0.896483 0.060029
1 0.891508 0.059617
1 0.888014 0.0593271
1 0.883101 0.0590219
1 0.878218 0.0587167
0.0973983 0.204486 0.0323186
0.0970321 0.203677 0.0322118
0.0962234 0.201877 0.0319677
0.0959793 0.201358 0.0318914
0.0957656 0.200885 0.0318303
0.0957198 0.200793 0.0318151
0.095491 0.200275 0.0317388
0.0954299 0.200137 0.0317235
0.0952926 0.199863 0.0316777
0.114015 0.242741 0.0373388
0.203433 0.414679 0.0546273
0.339849 0.534661 0.0628367
0.472847 0.622187 0.0668498
0.598276 0.693996 0.0689097
0.709468 0.746426 0.0697032
0.822736 0.787182 0.0697795
0.945388 0.82208 0.0694133
1 0.846372 0.0688182
1 0.86952 0.0679942
1 0.886213 0.0671702
1 0.900557 0.0662089
1 0.910079 0.0653086
1 0.917723 0.0644236
1 0.924315 0.0635691
1 0.928023 0.0626078
1 0.931182 0.0618753
1 0.931212 0.0611429
1 0.932219 0.0603799
1 0.93341 0.0597086
1 0.931853 0.059144
1 0.928237 0.058854
1 0.923522 0.0585794
1 0.918563 0.0582895
0.0981003 0.206043 0.0325322
0.0978561 0.205509 0.0324712
0.0971695 0.203952 0.0322576
0.0968643 0.203296 0.032166
0.0967727 0.203098 0.0321355
0.0965438 0.202579 0.0320592
0.0964981 0.202487 0.0320439
0.0964065 0.202304 0.0320287
0.0961929 0.201831 0.0319524
0.0960708 0.201541 0.0319219
0.160662 0.368338 0.0507057
0.297566 0.508186 0.0613107
0.431312 0.604135 0.0662394
0.557641 0.681331 0.0687419
0.677043 0.74406 0.0698863
0.796399 0.794568 0.0701762
0.916533 0.831662 0.0698405
1 0.861173 0.0692302
1 0.885176 0.0683909
1 0.904631 0.0675059
1 0.920607 0.0665293
1 0.932525 0.0655375
1 0.941497 0.0645762
1 0.949645 0.0636606
1 0.957473 0.0625772
1 0.960784 0.061738
1 0.962417 0.0609445
1 0.961547 0.0601968
1 0.962341 0.0595102
1 0.962112 0.0587625
1 0.958373 0.0585184
1 0.954162 0.0582589
1 0.949477 0.0580148
0.0988327 0.207645 0.0327611
0.0984817 0.206897 0.0326543
0.0978561 0.205509 0.0324712
0.0976883 0.205112 0.0324102
0.0976577 0.205035 0.0323949
0.0974899 0.204669 0.0323491
0.0974289 0.204532 0.0323339
0.0971847 0.204013 0.0322576
0.0970932 0.203815 0.0322271
0.0970321 0.203677 0.0322118
0.142077 0.315435 0.0455482
0.252384 0.472587 0.0589914
0.387732 0.581384 0.0653086
0.520943 0.66949 0.0685435
0.646204 0.740993 0.0700389
0.768277 0.798596 0.0704967
0.884428 0.838056 0.0702373
1 0.872648 0.0696269
1 0.899184 0.0688029
1 0.922408 0.0678416
1 0.940246 0.0668345
1 0.95639 0.0657664
1 0.967788 0.0646677
1 0.976699 0.0637064
1 0.982361 0.0626383
1 0.988861 0.0616465
1 0.990936 0.0608072
1 0.992462 0.0599527
1 0.992859 0.0592203
1 0.991974 0.0584268
1 0.988663 0.0580911
1 0.984314 0.0578927
1 0.979477 0.0576638
0.0994278 0.208972 0.0329442
0.0992142 0.208499 0.0328832
0.0985885 0.207111 0.0326848
0.0983902 0.206683 0.0326238
0.0982528 0.206363 0.032578
0.0981765 0.20621 0.0325628
0.0980545 0.205936 0.0325322
0.0979934 0.205783 0.0325017
0.0979019 0.205615 0.0324865
