sandaya_1.0/luts/SANDAYA_LOOK_001_0090_ACESCG_TO_ACESCG.cube
TITLE "Generated by Resolve"
LUT_3D_SIZE 5
0.00695811 0.00877394 0.0109865
0.221912 0.0399634 0.00817884
0.279255 0.0483406 0.00976577
0.309346 0.0523537 0.0104982
0.328542 0.0548104 0.0109407
0.0627451 0.130312 0.02327
0.420142 0.323995 0.0452888
0.634653 0.341833 0.0461738
0.74313 0.331029 0.0447395
0.790356 0.313771 0.0429541
0.0798505 0.166949 0.0268711
0.337148 0.406699 0.053315
0.70985 0.512337 0.0591287
0.942397 0.525475 0.0584268
1 0.521981 0.0572213
0.0890822 0.186465 0.0297551
0.196933 0.364935 0.0502327
0.686213 0.612787 0.0649271
1 0.66302 0.0644846
1 0.674266 0.0629129
0.0941024 0.197253 0.0313115
0.0962692 0.201984 0.0319829
0.603952 0.65008 0.0671855
1 0.75874 0.0675669
1 0.797574 0.0653849
0.0238499 0.00885023 0.15845
0.237064 0.0496376 0.208286
0.304891 0.0601511 0.216785
0.337728 0.0644694 0.219699
0.359167 0.0670329 0.220981
0.116243 0.211902 0.333669
0.382376 0.386709 0.362829
0.641428 0.399481 0.342855
0.770153 0.379294 0.332235
0.827863 0.354284 0.322423
0.136751 0.263401 0.341924
0.275731 0.48838 0.360769
0.688182 0.607752 0.310109
0.903487 0.609781 0.297322
1 0.596704 0.288792
0.146426 0.290654 0.33785
0.193256 0.43946 0.346853
0.617121 0.728939 0.324178
0.93521 0.774639 0.276448
1 0.775097 0.264027
0.15079 0.304387 0.328893
0.142779 0.286824 0.292119
0.50692 0.764675 0.329381
0.887221 0.890547 0.258762
1 0.915679 0.238285
0.0298466 0.0109865 0.201816
0.242359 0.0510414 0.265202
0.312963 0.0622263 0.278279
0.345006 0.0667887 0.282856
0.365133 0.0694591 0.285008
0.126116 0.221057 0.451423
0.35314 0.395148 0.522576
0.60032 0.41207 0.520821
0.729671 0.392233 0.510964
0.790478 0.367193 0.499794
0.148043 0.277211 0.474647
0.241764 0.493507 0.529763
0.632563 0.633707 0.560769
0.88101 0.647608 0.537667
1 0.639048 0.527535
0.158541 0.306996 0.480644
0.201053 0.44181 0.524498
0.579568 0.768841 0.562997
0.949767 0.851728 0.493767
1 0.854871 0.483238
0.163882 0.323171 0.480949
0.156634 0.306584 0.439475
0.483162 0.815961 0.553231
0.854032 0.999527 0.531655
1 1 0.47071
0.0332494 0.0121767 0.227817
0.244526 0.0517128 0.300206
0.317174 0.0631266 0.314031
0.350195 0.0678416 0.32018
0.370855 0.070634 0.32314
0.129625 0.222049 0.516854
0.337011 0.394827 0.624262
0.593652 0.416709 0.63209
0.70222 0.396719 0.619852
0.758633 0.373068 0.607111
0.153582 0.282841 0.560113
0.214527 0.476738 0.636362
0.600565 0.64239 0.714031
0.867445 0.656519 0.700984
1 0.647822 0.695109
0.164294 0.313619 0.570596
0.193072 0.402655 0.617899
0.558007 0.780346 0.717891
0.853101 0.863416 0.724987
1 0.883589 0.704356
0.169894 0.330678 0.573739
0.162814 0.314229 0.526558
0.466865 0.83061 0.705272
0.812009 1 0.730434
1 1 0.657526
0.0355535 0.0129549 0.246418
0.244724 0.0519265 0.322484
0.319478 0.0636301 0.337835
0.353475 0.0684672 0.344366
0.374533 0.0713054 0.347875
0.131777 0.2224 0.562097
0.322377 0.391943 0.699672
0.586801 0.418204 0.726116
0.699458 0.398703 0.710063
0.752499 0.37409 0.693446
0.156252 0.284611 0.616373
0.215106 0.47039 0.725155
0.589837 0.645289 0.836728
0.835096 0.665583 0.829526
0.993805 0.656168 0.822644
0.16791 0.31783 0.63682
0.169604 0.324468 0.623377
0.51281 0.769665 0.858244
0.818189 0.874937 0.885664
1 0.890684 0.871351
0.173602 0.33518 0.643061
0.166644 0.318395 0.593118
0.431006 0.81738 0.838605
0.788876 1 0.893523
1 1 0.892851
