sandaya_1.0/luts/SANDAYA_LOOK_001_0050_ACESCG_TO_ACESCG.cube
TITLE "Generated by Resolve"
LUT_3D_SIZE 9
0.00587472 0.00709545 0.00927749
0.088777 0.0197299 0.00421149
0.162112 0.0302586 0.00627146
0.202335 0.0368353 0.00756847
0.232792 0.0416419 0.00849927
0.256519 0.0451362 0.00917067
0.275441 0.0478065 0.00967422
0.289006 0.0496681 0.0100099
0.300603 0.0512093 0.0102846
0.0284123 0.0565194 0.0168612
0.136248 0.114458 0.0187991
0.280354 0.138323 0.0224613
0.368948 0.139193 0.0227207
0.421149 0.129839 0.0215
0.448051 0.116289 0.0196994
0.45301 0.0991989 0.0174105
0.442802 0.0844282 0.0154116
0.416815 0.068925 0.0132448
0.0484321 0.0991836 0.0210422
0.0904707 0.161349 0.0259861
0.296193 0.234928 0.0357977
0.428626 0.252964 0.037644
0.510918 0.253117 0.0374762
0.571115 0.246998 0.0366674
0.609903 0.237339 0.0354925
0.634928 0.226978 0.0342565
0.648554 0.21503 0.0328222
0.0613718 0.127337 0.0231174
0.0654154 0.136126 0.0230869
0.272358 0.294133 0.0427558
0.450324 0.340871 0.0468299
0.560281 0.353872 0.0475929
0.644068 0.354269 0.0472725
0.708293 0.349996 0.0466163
0.758846 0.34316 0.0457923
0.788571 0.33373 0.0448157
0.0699321 0.145815 0.024094
0.0682536 0.142214 0.0239414
0.219913 0.308003 0.0444495
0.434043 0.392493 0.0516213
0.579263 0.42443 0.0535286
0.687053 0.433783 0.053666
0.778851 0.435203 0.0532692
0.856764 0.433143 0.0526894
0.908049 0.427924 0.052018
0.0764782 0.159808 0.025803
0.0746014 0.155779 0.0252079
0.152041 0.288121 0.0425422
0.397147 0.423285 0.0543984
0.572168 0.474372 0.0573587
0.707683 0.496437 0.0580758
0.824598 0.503243 0.0577859
0.918944 0.50222 0.0571298
0.999191 0.500389 0.0565042
0.0819409 0.171374 0.0275273
0.0798505 0.166949 0.0268711
0.112276 0.23859 0.03682
0.345968 0.434516 0.0555734
0.555322 0.512947 0.0601511
0.709804 0.547555 0.0613107
0.844465 0.561044 0.0611429
0.966232 0.566049 0.0605478
1 0.566995 0.0598611
0.0860914 0.180117 0.0288243
0.0842145 0.176181 0.0282444
0.0830396 0.173693 0.0278782
0.286503 0.426154 0.0551919
0.520302 0.536477 0.0619059
0.694713 0.587625 0.0636301
0.849226 0.611337 0.0636454
0.99736 0.622263 0.0630045
1 0.626947 0.0622568
0.0892805 0.186877 0.0298161
0.0873426 0.182773 0.029221
0.0864271 0.180819 0.0289311
0.222721 0.394461 0.0527962
0.473777 0.544915 0.0626993
0.672679 0.621683 0.0654459
0.844038 0.657298 0.0656443
1 0.676753 0.0650034
1 0.683497 0.0641184
0.0103609 0.0043183 0.0643015
0.0926833 0.0208133 0.076051
0.173373 0.0344244 0.0806592
0.224063 0.0416419 0.0824598
0.261524 0.0465858 0.0829633
0.289784 0.0501717 0.082887
0.31136 0.0528267 0.0820172
0.326162 0.054612 0.0805676
0.339086 0.0561685 0.0793622
0.0495308 0.0892805 0.123766
0.136629 0.142199 0.136263
0.304707 0.157397 0.124056
0.395209 0.1523 0.116823
0.446159 0.140734 0.109056
0.475715 0.128023 0.102068
0.488014 0.113115 0.0946212
0.487587 0.0979782 0.088014
0.479896 0.0847639 0.0810712
0.0752728 0.146868 0.131746
0.0995956 0.199756 0.137606
0.316808 0.268727 0.100923
0.460365 0.271748 0.0734112
0.55079 0.254841 0.0543069
0.603037 0.237125 0.0453193
0.631586 0.220401 0.0387884
0.642267 0.203571 0.0337072
0.641276 0.187366 0.0298772
0.0893568 0.178454 0.126574
0.0861219 0.172244 0.119493
0.266453 0.330098 0.101778
0.463447 0.366217 0.0671244
0.572854 0.36846 0.0503853
0.680278 0.3673 0.0482948
0.775448 0.361242 0.0473182
0.839612 0.351095 0.0461585
0.872938 0.334783 0.0445716
0.0967575 0.195941 0.115328
0.0929732 0.188525 0.106661
0.202716 0.341207 0.0976577
0.444221 0.420233 0.0556497
0.603098 0.451377 0.0554818
0.730083 0.462608 0.0555734
0.853284 0.467704 0.0552071
0.973129 0.468666 0.0545663
1 0.457755 0.0533608
0.101045 0.207065 0.101152
0.0969863 0.198779 0.0927901
0.142641 0.313329 0.085069
0.396429 0.447227 0.0563821
0.628885 0.525383 0.060502
0.785763 0.54432 0.0605936
0.937011 0.553811 0.06009
1 0.550759 0.0590829
1 0.537835 0.0578622
0.1028 0.212512 0.0859846
0.0986801 0.203922 0.0781872
0.12134 0.257984 0.0745708
0.343465 0.459846 0.057557
0.604776 0.568826 0.0632486
0.803418 0.603143 0.0635996
0.958694 0.608804 0.0626993
1 0.6047 0.0615854
1 0.584787 0.0602121
0.102724 0.213718 0.0706951
0.0990616 0.206043 0.0632639
0.0968948 0.201541 0.0587167
0.288273 0.455344 0.057496
0.561807 0.585351 0.0644388
0.724681 0.597574 0.0639048
0.891051 0.6177 0.0636149
1 0.627771 0.0629129
1 0.628595 0.0620279
0.101625 0.212543 0.0540627
0.0978561 0.204547 0.0474708
0.0958267 0.20029 0.043473
0.219898 0.414389 0.0545205
0.494087 0.568017 0.0639353
0.693614 0.62739 0.0655375
0.883833 0.666896 0.0656901
1 0.68159 0.0648051
1 0.689418 0.0638437
0.0162051 0.00611887 0.104616
0.0981003 0.022446 0.123049
0.171359 0.0367895 0.131151
0.215412 0.044358 0.134463
0.251896 0.0495308 0.136751
0.28127 0.0531777 0.137743
0.305013 0.0558785 0.138308
0.322225 0.0577249 0.138186
0.336965 0.059266 0.13817
0.0585184 0.0975204 0.195041
0.126116 0.149752 0.223407
0.286213 0.166247 0.223453
0.385885 0.159915 0.2177
0.441505 0.148653 0.210864
0.469871 0.134112 0.202319
0.483894 0.118746 0.194385
0.480995 0.102525 0.185473
0.471809 0.0875563 0.175937
0.0872816 0.161288 0.217029
0.110964 0.212177 0.240589
0.287587 0.285039 0.243427
0.447868 0.298756 0.228336
0.543145 0.292317 0.220813
0.609125 0.281758 0.214664
0.651942 0.268696 0.208438
0.678828 0.253864 0.202579
0.695994 0.240101 0.197467
0.104448 0.199222 0.223911
0.100603 0.191699 0.214572
0.249302 0.357321 0.240787
0.475563 0.405035 0.198642
0.600092 0.400885 0.170977
0.697643 0.385794 0.155718
0.763058 0.369421 0.147539
0.796033 0.349828 0.140246
0.814649 0.33138 0.134768
0.114382 0.222797 0.223606
0.110369 0.21471 0.21265
0.190723 0.373892 0.229862
0.423514 0.462684 0.213642
0.597971 0.485695 0.173877
0.711574 0.483513 0.156909
0.808331 0.468727 0.131395
0.877272 0.451652 0.114275
0.923278 0.434119 0.101915
0.120287 0.23827 0.216678
0.11635 0.230106 0.205646
0.162676 0.355703 0.221149
0.364294 0.491966 0.216083
0.578805 0.541238 0.165454
0.717937 0.547753 0.145388
0.826703 0.544717 0.132189
0.92314 0.534188 0.114092
0.989197 0.515297 0.0897688
0.124285 0.249485 0.208301
0.120073 0.240558 0.196536
0.141161 0.294682 0.205234
0.310307 0.499931 0.201266
0.539971 0.579568 0.168856
0.711849 0.598566 0.123491
0.842374 0.601587 0.115236
0.939666 0.5944 0.100649
1 0.584863 0.0829633
0.12665 0.256931 0.198413
0.122393 0.247913 0.185306
0.120241 0.243351 0.179431
0.251972 0.488045 0.186954
0.495125 0.600031 0.165011
0.678721 0.636973 0.120928
0.8318 0.640925 0.0865949
0.952041 0.640116 0.0749218
1 0.636179 0.0668498
0.128237 0.26244 0.188144
0.123735 0.252842 0.174212
0.121691 0.248447 0.168322
0.192187 0.45034 0.17142
0.439918 0.603967 0.156817
0.644175 0.665827 0.113787
0.813397 0.681163 0.0728161
0.982651 0.694621 0.0666056
1 0.706966 0.0650797
0.0202335 0.00755322 0.132876
0.10045 0.0233005 0.153597
0.174456 0.0378119 0.163119
0.21709 0.0456855 0.16788
0.250782 0.0511025 0.170871
0.277531 0.0548867 0.172183
0.299565 0.0577249 0.17322
0.316075 0.059678 0.17348
0.330297 0.0612497 0.173617
0.0626688 0.0989242 0.239307
0.120211 0.151583 0.278843
0.283238 0.170794 0.287526
0.368185 0.165393 0.282002
0.418509 0.152743 0.272908
0.449897 0.138323 0.263539
0.463401 0.121782 0.25272
0.461692 0.104509 0.24126
0.454459 0.0888991 0.229557
0.0941939 0.168124 0.276295
0.113741 0.209262 0.308644
0.26865 0.291905 0.324529
0.447333 0.305486 0.318593
0.543847 0.299092 0.313176
0.60882 0.288563 0.306569
0.652522 0.274708 0.299367
0.680613 0.261997 0.293248
0.69688 0.24773 0.28687
0.111986 0.207584 0.290364
0.108263 0.200153 0.280079
0.238666 0.367788 0.324422
0.435035 0.416266 0.325307
0.562783 0.424323 0.309163
0.663767 0.420844 0.296498
0.735225 0.409552 0.289494
0.793149 0.398047 0.283619
0.83061 0.385275 0.278538
0.122087 0.232212 0.291997
0.118029 0.223957 0.278599
0.185443 0.388434 0.313924
0.408515 0.481102 0.322347
0.592844 0.51136 0.278187
0.734096 0.507652 0.240146
0.835111 0.493156 0.225208
0.905928 0.479667 0.21799
0.956146 0.464576 0.212665
0.129351 0.251072 0.289799
0.125261 0.242481 0.275761
0.17142 0.37055 0.309529
0.360174 0.514046 0.31165
0.560342 0.573663 0.29218
0.731273 0.585153 0.245243
0.849607 0.580514 0.227436
0.95491 0.564111 0.205554
1 0.548486 0.191394
0.134737 0.265736 0.28629
0.130129 0.255772 0.270756
0.149233 0.305577 0.288777
0.305989 0.527214 0.300069
0.517037 0.613321 0.296864
0.708461 0.648569 0.242039
0.857176 0.649882 0.22092
0.968902 0.645121 0.208896
1 0.63122 0.189548
0.137972 0.275425 0.279393
0.133913 0.266621 0.264256
0.131777 0.261891 0.257847
0.246067 0.517037 0.286809
0.478065 0.638926 0.285542
0.669047 0.697414 0.254276
0.841337 0.706081 0.205737
0.98204 0.707271 0.196307
1 0.702602 0.185824
0.140154 0.28246 0.271794
0.136034 0.273487 0.256138
0.134249 0.269566 0.249836
0.202457 0.483253 0.273762
0.42974 0.648325 0.272236
0.631159 0.734707 0.255772
0.809232 0.757214 0.2094
0.981094 0.760281 0.177859
1 0.759365 0.169757
0.0231937 0.00862135 0.153796
0.100999 0.0237125 0.175647
0.176638 0.0384833 0.186984
0.219883 0.0465248 0.192767
0.252476 0.0519875 0.195956
0.278538 0.0559548 0.198077
0.29958 0.0589151 0.199588
0.314733 0.0608835 0.199908
0.328359 0.0625772 0.200702
0.0662394 0.100771 0.275334
0.116091 0.153063 0.321462
0.280339 0.17319 0.338079
0.367193 0.168063 0.33193
0.412055 0.15491 0.321294
0.440421 0.140414 0.310979
0.452079 0.122881 0.297795
0.452064 0.105791 0.285344
0.445441 0.0895552 0.271183
0.0982376 0.170932 0.320607
0.115587 0.207156 0.356588
0.265812 0.296529 0.384695
0.42681 0.312078 0.381674
0.526513 0.306172 0.37705
0.595483 0.294423 0.369802
0.640574 0.280385 0.361593
0.670726 0.267521 0.355657
0.684871 0.252491 0.347433
0.116716 0.212253 0.3393
0.113695 0.205844 0.332403
0.215305 0.366598 0.391485
0.415229 0.423438 0.401968
0.564721 0.431907 0.391623
0.667704 0.428077 0.386923
0.74226 0.415869 0.379019
0.802014 0.405493 0.373892
0.840024 0.392721 0.368475
0.127459 0.238453 0.34551
0.123613 0.23035 0.333013
0.181476 0.390082 0.384085
0.400458 0.490913 0.398245
0.557321 0.521141 0.393652
0.678691 0.529107 0.3794
0.78381 0.522499 0.363134
0.870893 0.515892 0.354513
0.931899 0.506477 0.349279
0.13518 0.258442 0.347448
0.130404 0.248203 0.330053
0.176745 0.378119 0.378729
0.355657 0.52604 0.387015
0.543175 0.586587 0.38854
0.70901 0.605661 0.34847
0.862226 0.597589 0.299687
0.978607 0.584619 0.282612
1 0.570443 0.275212
0.140383 0.273014 0.343923
0.135714 0.262715 0.326757
0.152712 0.307027 0.350179
0.300404 0.540002 0.375677
0.516457 0.633646 0.378103
0.676646 0.672908 0.357885
0.868727 0.679988 0.301213
0.990311 0.673121 0.282185
1 0.6551 0.260685
0.144335 0.284474 0.340078
0.140215 0.275456 0.322744
0.138262 0.271015 0.316258
0.240406 0.53051 0.361517
0.476738 0.662547 0.36849
0.64921 0.724498 0.36495
0.834531 0.745998 0.301381
0.996643 0.747845 0.279652
1 0.736507 0.264591
0.147158 0.293126 0.335042
0.142992 0.283955 0.31696
0.141222 0.279988 0.310155
0.209903 0.49955 0.351217
0.42652 0.673884 0.355535
0.621149 0.76733 0.353048
0.795972 0.803784 0.319738
0.986831 0.814939 0.268971
1 0.809735 0.255406
0.0254826 0.00944533 0.170199
0.100633 0.0238804 0.191485
0.177752 0.03888 0.204791
0.221973 0.0470741 0.211551
0.254322 0.0525673 0.214954
0.280308 0.0566415 0.2177
0.301045 0.059678 0.219745
0.316152 0.0617533 0.220661
0.329351 0.0634928 0.221637
0.0676127 0.0992905 0.300343
0.110475 0.153674 0.353811
0.277455 0.174319 0.377508
0.367681 0.169787 0.370596
0.41236 0.15671 0.359869
0.43859 0.141573 0.34786
0.45008 0.1243 0.334051
0.450431 0.106981 0.320195
0.44332 0.0898756 0.30399
0.100114 0.170993 0.350851
0.116274 0.204044 0.391913
0.260533 0.298207 0.430838
0.419654 0.315465 0.434897
0.510628 0.310765 0.427588
0.573907 0.29865 0.42005
0.620569 0.285084 0.412146
0.650004 0.270985 0.4047
0.66566 0.256306 0.396506
0.119951 0.215167 0.377081
0.116701 0.208194 0.368948
0.208408 0.367956 0.440955
0.407294 0.428275 0.460441
0.567849 0.438117 0.450263
0.669429 0.433646 0.44538
0.744091 0.421576 0.437919
0.803479 0.412192 0.433249
0.838895 0.397787 0.426703
0.131655 0.243519 0.38909
0.128191 0.23595 0.37821
0.180316 0.381018 0.443427
0.368917 0.490852 0.465019
0.541405 0.529152 0.462699
0.678203 0.535821 0.452598
0.783642 0.529671 0.44567
0.867552 0.523995 0.441184
0.935927 0.513664 0.435325
0.139788 0.264622 0.393988
0.135698 0.255589 0.378698
0.176532 0.369314 0.437018
0.338552 0.529412 0.451667
0.534508 0.59469 0.454536
0.671733 0.615106 0.449958
0.794888 0.618997 0.435889
0.905425 0.616098 0.422614
1 0.606134 0.410529
0.145129 0.2795 0.393164
0.14078 0.269886 0.37499
0.154253 0.305165 0.397147
0.296834 0.549569 0.438758
0.514382 0.647395 0.446784
0.664515 0.686152 0.444587
0.82153 0.700038 0.407218
0.984421 0.691844 0.362463
1 0.672236 0.32752
0.149096 0.291035 0.390738
0.144915 0.281849 0.371252
0.142733 0.276799 0.363577
0.234333 0.538491 0.424262
0.474632 0.678477 0.43798
0.647715 0.742061 0.436072
0.800885 0.767529 0.417212
0.988998 0.773053 0.360632
1 0.760357 0.327672
0.151995 0.299977 0.386511
0.147738 0.290532 0.365942
0.145983 0.286488 0.35906
0.214496 0.50695 0.415579
0.424674 0.691646 0.426108
0.619547 0.789029 0.426108
0.770489 0.828794 0.420478
0.980972 0.849515 0.352956
1 0.84268 0.326146
0.0273289 0.0101015 0.183398
0.0995346 0.0238651 0.204227
0.178683 0.0392157 0.219669
0.223438 0.0474708 0.227619
0.255924 0.0529946 0.231098
0.282399 0.0572061 0.234257
0.303288 0.0603342 0.236942
0.318608 0.062501 0.238224
0.331304 0.0642252 0.239017
0.0687724 0.0981765 0.321279
0.104921 0.153643 0.380926
0.274052 0.174975 0.410529
0.367529 0.17052 0.404013
0.413886 0.158068 0.393774
0.439155 0.14258 0.380118
0.450675 0.125261 0.365438
0.450263 0.107256 0.349523
0.443412 0.090013 0.331777
0.102358 0.172305 0.379126
0.116197 0.200015 0.421088
0.254749 0.298909 0.469459
0.415396 0.316777 0.478874
0.506783 0.313191 0.469871
0.565209 0.301717 0.462196
0.608515 0.288045 0.454002
0.63592 0.273823 0.445487
0.650858 0.258778 0.436271
0.122545 0.217334 0.409689
0.118868 0.209522 0.399084
0.203937 0.369543 0.482414
0.403342 0.430213 0.505608
0.541375 0.443656 0.503548
0.653773 0.435889 0.491295
0.735927 0.426642 0.485878
0.797726 0.416739 0.481056
0.832624 0.401816 0.473976
0.134707 0.246784 0.425818
0.131518 0.239704 0.415137
0.181903 0.38056 0.486488
0.364126 0.493446 0.512779
0.527672 0.533471 0.517555
0.684016 0.540444 0.50544
0.793515 0.535225 0.499123
0.877272 0.529152 0.494896
0.942489 0.518181 0.487846
0.142367 0.266987 0.430014
0.138537 0.258457 0.415045
0.170138 0.343633 0.474113
0.306538 0.523278 0.505211
0.508446 0.597269 0.517388
0.657115 0.624277 0.511513
0.78822 0.626017 0.500984
0.896864 0.623835 0.497017
0.994217 0.615259 0.491218
0.148135 0.283101 0.430335
0.144167 0.274098 0.413718
0.145251 0.276951 0.415106
0.278218 0.546731 0.492729
0.49749 0.652049 0.506767
0.657237 0.69604 0.504173
0.787213 0.708919 0.498299
0.914885 0.712184 0.485466
1 0.704829 0.472709
0.152331 0.295262 0.429374
0.148562 0.286763 0.41146
0.14638 0.281712 0.403006
0.231205 0.542489 0.47483
0.471672 0.688594 0.496315
0.644999 0.753491 0.496071
0.78558 0.781811 0.493675
0.952926 0.792416 0.459205
1 0.780865 0.416205
0.155474 0.304646 0.427787
0.151476 0.295628 0.40763
0.149676 0.291478 0.400046
0.218051 0.512398 0.469444
0.4206 0.702495 0.48513
0.615335 0.800656 0.486366
0.770504 0.847501 0.483665
0.927306 0.870283 0.467674
1 0.869368 0.416098
0.0289006 0.0106508 0.194812
0.0986648 0.0238804 0.215915
0.178897 0.0393988 0.232715
0.22446 0.047776 0.240909
0.257588 0.0533913 0.245289
0.284459 0.0576791 0.249104
0.304875 0.0607767 0.251606
0.320531 0.063035 0.253346
0.333181 0.0647746 0.254353
0.0700389 0.0978256 0.340047
0.101289 0.153216 0.404654
0.269993 0.175158 0.438727
0.366278 0.171588 0.4336
0.414755 0.15903 0.422644
0.439902 0.14313 0.407568
0.452018 0.125795 0.392462
0.451926 0.107881 0.375647
0.444541 0.0900435 0.356054
0.10515 0.175051 0.40737
0.115175 0.194644 0.44271
0.250324 0.299611 0.502876
0.41088 0.317296 0.516701
0.50547 0.315084 0.508385
0.562356 0.303197 0.499123
0.60354 0.289662 0.490715
0.629602 0.275746 0.482002
0.643839 0.260471 0.472206
0.124971 0.219577 0.439979
0.121386 0.211963 0.428489
0.198398 0.368093 0.515908
0.398398 0.430564 0.545846
0.535714 0.445686 0.550301
0.634287 0.439612 0.533913
0.717494 0.430869 0.528725
0.779904 0.42005 0.523064
0.813825 0.403754 0.514138
0.136477 0.247807 0.454719
0.133242 0.240574 0.443885
0.183307 0.380194 0.525917
0.359182 0.494469 0.555795
0.525597 0.537133 0.565225
0.67219 0.544366 0.559106
0.795834 0.540047 0.545861
0.878431 0.533532 0.540993
0.943236 0.52224 0.533974
0.144427 0.268894 0.460014
0.140719 0.260365 0.446433
0.16817 0.333425 0.505272
0.300633 0.525109 0.549477
0.503151 0.601678 0.567651
0.643732 0.630915 0.566461
0.791592 0.632197 0.551995
0.905364 0.629969 0.547494
1 0.62121 0.541085
0.150637 0.286015 0.463203
0.146654 0.276814 0.446784
0.144686 0.272129 0.440131
0.240955 0.530068 0.535531
0.460426 0.646097 0.562463
0.632105 0.700603 0.563134
0.773892 0.719554 0.555764
0.906661 0.718929 0.544839
1 0.711452 0.538125
0.154986 0.298604 0.463615
0.151278 0.290318 0.44419
0.149126 0.285161 0.436408
0.225269 0.532662 0.51989
0.449027 0.687129 0.549828
0.631998 0.761166 0.551751
0.781201 0.792813 0.54815
0.916121 0.803113 0.541772
1 0.800259 0.526726
0.158099 0.308003 0.462165
0.154253 0.299367 0.440909
0.152407 0.295079 0.432471
0.220096 0.513848 0.513207
0.417105 0.710628 0.534417
0.612451 0.81062 0.539178
0.77116 0.861234 0.538323
0.910643 0.88275 0.534554
1 0.886976 0.502342
0.0303197 0.0111543 0.205356
0.0976425 0.0238346 0.225803
0.179095 0.0395666 0.244434
0.224842 0.0479438 0.252415
0.258961 0.053727 0.257877
0.285985 0.0580453 0.261891
0.306416 0.0611429 0.264637
0.322103 0.0634318 0.266636
0.334646 0.0651865 0.267857
0.0712291 0.0977493 0.356664
0.0991226 0.152605 0.424872
0.266178 0.175616 0.464225
0.364691 0.172076 0.4598
0.415091 0.159594 0.44802
0.441337 0.144015 0.432517
0.454017 0.126909 0.416953
0.453452 0.108171 0.39823
0.446143 0.0903182 0.377264
0.10695 0.176272 0.430579
0.113817 0.189197 0.459251
0.246235 0.29958 0.532647
0.407752 0.318212 0.551278
0.502937 0.316304 0.544274
0.561898 0.30486 0.534051
0.601404 0.29099 0.524239
0.627497 0.277348 0.514992
0.641505 0.262242 0.505165
0.126787 0.220981 0.465736
0.123568 0.214023 0.455406
0.194751 0.367971 0.5467
0.393561 0.431312 0.583246
0.531685 0.447608 0.592889
0.625742 0.442588 0.576394
0.701854 0.433997 0.568902
0.760204 0.422171 0.561944
0.796567 0.406531 0.552575
0.138018 0.248692 0.480934
0.1346 0.241093 0.468254
0.184405 0.379538 0.56144
0.353521 0.495048 0.594079
0.523278 0.539559 0.608606
0.64654 0.546807 0.605722
0.785595 0.544289 0.590417
0.869902 0.535958 0.583963
0.939071 0.525887 0.577646
0.146273 0.270558 0.488014
0.142367 0.261646 0.472251
0.167117 0.326879 0.531579
0.2972 0.526452 0.589166
0.499229 0.604318 0.612482
0.636271 0.634241 0.614572
0.783825 0.637186 0.606058
0.91223 0.634028 0.594064
1 0.625437 0.588022
0.15285 0.288487 0.494774
0.148745 0.278981 0.47631
0.146685 0.274159 0.468376
0.232502 0.526253 0.572076
0.456138 0.647929 0.606943
0.61973 0.704051 0.613794
0.760586 0.72575 0.608148
0.906813 0.724636 0.594476
1 0.717403 0.587396
0.157321 0.301503 0.495598
0.15375 0.293324 0.476753
0.151659 0.288319 0.468254
0.222446 0.51577 0.565133
0.410391 0.674769 0.598001
0.594278 0.758022 0.608408
0.756329 0.800488 0.606867
0.898726 0.810056 0.595468
1 0.808927 0.585611
0.160372 0.310872 0.493492
0.156634 0.302342 0.472435
0.15491 0.298314 0.464118
0.217334 0.497169 0.558389
0.388281 0.701091 0.582834
0.593515 0.814282 0.593194
0.757259 0.871015 0.593332
0.904005 0.893965 0.58793
1 0.896956 0.579843
