sandaya_1.0/luts/SANDAYA_LOOK_001_0140_ACESCG_TO_ACESCG.cube
TITLE "Generated by Resolve"
LUT_3D_SIZE 9
0.00500496 0.00576791 0.00746166
0.118288 0.0252232 0.00514229
0.200809 0.0365911 0.0075227
0.250874 0.0443275 0.00901808
0.285451 0.0491798 0.00991836
0.308919 0.0523079 0.0104829
0.326131 0.0545052 0.0108797
0.340078 0.0562448 0.0111849
0.350607 0.0575265 0.0114137
0.0297856 0.0592203 0.0184787
0.115297 0.112551 0.0185245
0.244327 0.142672 0.0230411
0.335576 0.149966 0.0241855
0.395468 0.147051 0.0238499
0.436347 0.139223 0.0228122
0.458625 0.127672 0.0212711
0.468223 0.114275 0.0194705
0.464652 0.0993515 0.0174563
0.0502022 0.102968 0.022797
0.0699779 0.145937 0.0237125
0.244129 0.232486 0.0356146
0.377768 0.262928 0.0389105
0.46566 0.272374 0.0397192
0.531136 0.274495 0.0397803
0.581109 0.270375 0.0392157
0.621134 0.265171 0.0385595
0.653178 0.258808 0.0377966
0.0636912 0.13225 0.0251011
0.0638437 0.132616 0.0251164
0.20502 0.275608 0.0409247
0.375891 0.342458 0.047303
0.498192 0.371817 0.049485
0.587594 0.384466 0.0501869
0.659983 0.388266 0.0501564
0.725399 0.389471 0.0499428
0.7785 0.38732 0.0495003
0.0726635 0.151583 0.0262913
0.0729381 0.152148 0.0263066
0.126589 0.256214 0.0389563
0.331624 0.379797 0.0509957
0.493553 0.43537 0.0548562
0.60853 0.462684 0.0562905
0.704295 0.475196 0.0566262
0.791455 0.482094 0.0565652
0.867353 0.483757 0.0562295
0.0795911 0.166384 0.0272526
0.0798352 0.166888 0.0272984
0.0872969 0.182696 0.0292058
0.268345 0.386191 0.0518502
0.456214 0.47335 0.0579538
0.602213 0.521248 0.0604105
0.719051 0.544564 0.0610666
0.824628 0.557382 0.0610819
0.930617 0.565301 0.0607614
0.0852522 0.178363 0.0286107
0.0855268 0.178958 0.028687
0.0853895 0.178668 0.0286412
0.190372 0.352193 0.0490425
0.397665 0.48777 0.0593271
0.575326 0.562493 0.0630961
0.708659 0.599695 0.0641337
0.837461 0.624826 0.064332
0.96733 0.639918 0.0639811
0.0896773 0.187732 0.0299535
0.0899519 0.188296 0.0300298
0.0898604 0.188113 0.0299992
0.127306 0.275792 0.0412604
0.325917 0.477821 0.0589914
0.524834 0.58175 0.0644846
0.684779 0.644221 0.0663462
0.828168 0.682567 0.0667124
0.969589 0.704509 0.0663005
0.0932479 0.195407 0.0310521
0.0935225 0.195987 0.0311284
0.0935225 0.195987 0.0311284
0.093431 0.195789 0.0311131
0.242206 0.43386 0.0560311
0.456825 0.577432 0.064683
0.637766 0.66598 0.0675822
0.794202 0.720348 0.0682383
0.953246 0.756176 0.0679026
0.00872816 0.00389105 0.0536355
0.136156 0.0295262 0.0983291
0.263294 0.0493629 0.11664
0.336278 0.0577859 0.119707
0.375784 0.0618143 0.118029
0.400931 0.06421 0.114748
0.417472 0.0656901 0.110079
0.429694 0.0667887 0.105638
0.438285 0.0675364 0.10042
0.0490578 0.0895399 0.115526
0.136599 0.142397 0.136324
0.294453 0.157488 0.126101
0.386435 0.152071 0.115511
0.437537 0.138888 0.104662
0.466346 0.124132 0.0955367
0.47689 0.106722 0.0861677
0.470359 0.0887465 0.0770581
0.455619 0.0732738 0.0681773
0.0714427 0.142214 0.101045
0.100572 0.201129 0.143923
0.284184 0.268406 0.130114
0.42707 0.279927 0.10341
0.519585 0.270863 0.0834974
0.582238 0.258198 0.0729076
0.620752 0.243107 0.0635386
0.640223 0.228321 0.0561685
0.650538 0.213504 0.0501564
0.0832685 0.169619 0.0860914
0.0894026 0.17792 0.131899
0.245258 0.331807 0.12546
0.422156 0.377997 0.108339
0.533059 0.388937 0.0914473
0.623407 0.384146 0.0637675
0.697322 0.372442 0.0490578
0.769528 0.366995 0.0478523
0.821057 0.359777 0.0469825
0.0886854 0.182742 0.0700236
0.0977798 0.197375 0.123079
0.175982 0.33814 0.116426
0.392584 0.427008 0.0930953
0.535805 0.458198 0.0764935
0.640269 0.470207 0.0633097
0.735592 0.471275 0.0561837
0.849287 0.47924 0.0560311
0.967468 0.484489 0.0556649
0.0897078 0.186694 0.0471199
0.10338 0.211292 0.111696
0.13846 0.299855 0.106416
0.334005 0.444053 0.0778058
0.5196 0.502602 0.0597391
0.651865 0.534447 0.060914
0.779385 0.554879 0.0612497
0.910338 0.568017 0.0610513
1 0.580011 0.0606546
0.0858473 0.179614 0.0287785
0.105974 0.218753 0.0976272
0.104036 0.21503 0.0894789
0.267903 0.435203 0.0635233
0.491112 0.540337 0.0623178
0.67071 0.60621 0.0647288
0.828962 0.640299 0.0650645
0.99234 0.662303 0.0646525
1 0.678157 0.0639658
0.0902419 0.188922 0.0301213
0.10721 0.222995 0.0832532
0.105119 0.21886 0.0750134
0.190631 0.394186 0.0545815
0.449775 0.564477 0.0639963
0.666789 0.666896 0.0673991
0.854795 0.716838 0.067628
1 0.743313 0.0668498
1 0.752377 0.0657206
0.0938125 0.196628 0.03122
0.106584 0.222904 0.0672465
0.104143 0.218051 0.0575265
0.14229 0.315969 0.0458839
0.381186 0.551629 0.0636606
0.617472 0.672938 0.0679942
0.790936 0.715679 0.0681315
0.960235 0.744106 0.0675364
1 0.770184 0.0666514
0.0137179 0.00531014 0.0871595
0.117372 0.0263676 0.13341
0.227649 0.0473487 0.16437
0.30277 0.0584421 0.179034
0.348959 0.0640269 0.185565
0.378134 0.0670787 0.187701
0.399786 0.0691844 0.188739
0.415579 0.0705425 0.187991
0.427619 0.0715343 0.187091
0.0576486 0.0969711 0.18735
0.136889 0.151003 0.216968
0.313848 0.160311 0.222171
0.408423 0.144198 0.207706
0.448981 0.12134 0.192584
0.455451 0.09691 0.177707
0.438804 0.0745708 0.161654
0.429358 0.0690776 0.151003
0.38735 0.06392 0.132967
0.0859998 0.160754 0.201663
0.113558 0.220523 0.225483
0.28397 0.286183 0.245457
0.439704 0.300786 0.235019
0.533928 0.298909 0.229252
0.599451 0.287907 0.220691
0.647349 0.276188 0.213413
0.680064 0.262409 0.206317
0.695384 0.246998 0.198795
0.100435 0.195438 0.185306
0.102373 0.192309 0.238651
0.247257 0.363134 0.252567
0.436332 0.414618 0.239506
0.563729 0.424384 0.216403
0.661906 0.415152 0.200153
0.737469 0.405066 0.191455
0.792294 0.392294 0.184115
0.825589 0.378378 0.1776
0.108186 0.215152 0.172229
0.111894 0.215656 0.231693
0.18143 0.377829 0.24799
0.40119 0.47631 0.24509
0.557229 0.514122 0.230488
0.666773 0.52108 0.214771
0.774716 0.515496 0.190112
0.862715 0.504967 0.172854
0.921996 0.492103 0.161837
0.113222 0.229114 0.156924
0.121706 0.238254 0.242084
0.161929 0.349508 0.247623
0.340734 0.506127 0.242741
0.533379 0.571298 0.223911
0.664179 0.597726 0.214374
0.772702 0.604028 0.201877
0.878798 0.601221 0.183154
0.978149 0.591791 0.162142
0.115358 0.236652 0.137804
0.127825 0.254673 0.235935
0.125841 0.252171 0.217456
0.272572 0.505669 0.232883
0.491814 0.609552 0.220752
0.646281 0.654169 0.201114
0.774807 0.674907 0.192996
0.894469 0.683116 0.1832
0.994324 0.678126 0.168902
0.11574 0.239918 0.117479
0.131594 0.266148 0.224277
0.129671 0.262943 0.211276
0.199207 0.470512 0.221881
0.436042 0.625879 0.212909
0.614603 0.698207 0.1935
0.76495 0.734142 0.179019
0.894163 0.747555 0.16997
1 0.752697 0.161288
0.115175 0.240513 0.0985122
0.13341 0.272877 0.210559
0.131975 0.270176 0.20293
0.176608 0.401877 0.216587
0.359792 0.608988 0.203082
0.567437 0.714122 0.183795
0.729412 0.766842 0.165179
0.874342 0.792691 0.153368
1 0.805371 0.143801
0.0171054 0.00642405 0.110918
0.112016 0.0256046 0.156924
0.215152 0.045655 0.189334
0.286564 0.0573739 0.208698
0.333989 0.0640269 0.220264
0.364935 0.0678874 0.226307
0.386358 0.0703746 0.229908
0.402869 0.0721599 0.232013
0.4159 0.0735027 0.233448
0.0621042 0.0998093 0.227863
0.134463 0.154208 0.271427
0.288487 0.168017 0.286976
0.384955 0.145892 0.281483
0.422721 0.11722 0.260487
0.42388 0.0886244 0.236942
0.413489 0.0722515 0.215442
0.395132 0.0690623 0.193088
0.37908 0.0666667 0.180529
0.092546 0.166262 0.263294
0.118196 0.22153 0.29897
0.285893 0.29514 0.321218
0.463752 0.30631 0.316457
0.564584 0.296773 0.307561
0.628901 0.282567 0.298329
0.670954 0.266011 0.289525
0.688045 0.247089 0.280018
0.695537 0.22977 0.271015
0.110124 0.206607 0.265797
0.107637 0.201251 0.261891
0.248692 0.377127 0.33991
0.431968 0.427909 0.337774
0.565972 0.441062 0.325231
0.659159 0.43856 0.317983
0.737926 0.434211 0.312825
0.79884 0.422629 0.304768
0.840848 0.41117 0.298466
0.119692 0.231815 0.252003
0.120012 0.229007 0.277775
0.182696 0.386694 0.360784
0.402792 0.496788 0.344427
0.562173 0.53669 0.331655
0.690028 0.54374 0.303395
0.803586 0.539467 0.288853
0.891096 0.529976 0.279561
0.953521 0.520073 0.273655
0.125338 0.248371 0.235431
0.128298 0.247715 0.294118
0.180926 0.392508 0.375952
0.344961 0.532006 0.342519
0.536919 0.603449 0.336706
0.674708 0.631006 0.319173
0.794217 0.640162 0.304051
0.914763 0.636423 0.280568
1 0.623804 0.264485
0.129397 0.260594 0.222904
0.134905 0.263142 0.308034
0.150118 0.302037 0.331716
0.275776 0.535073 0.334951
0.493538 0.6486 0.337743
0.656275 0.702571 0.318425
0.791897 0.726543 0.308324
0.913909 0.732387 0.29604
1 0.731014 0.276646
0.131365 0.267826 0.208087
0.137789 0.273564 0.288914
0.140581 0.280034 0.297292
0.212161 0.505058 0.326421
0.439216 0.671443 0.331594
0.622248 0.758114 0.319936
0.780423 0.80238 0.301183
0.916777 0.818402 0.292622
1 0.82826 0.284001
0.132647 0.273167 0.194034
0.139818 0.281422 0.272526
0.143938 0.29012 0.291646
0.191485 0.436545 0.325093
0.36495 0.6589 0.322515
0.57409 0.784253 0.315541
0.743069 0.852018 0.298268
0.896254 0.883024 0.283101
1 0.903883 0.275807
0.0196231 0.00732433 0.128573
0.109285 0.0253147 0.174685
0.208377 0.0446174 0.207065
0.276951 0.0562905 0.227771
0.325475 0.0634928 0.241321
0.35758 0.0678264 0.250553
0.37995 0.070634 0.256001
0.397269 0.072694 0.259876
0.410636 0.0742351 0.26305
0.0651255 0.100862 0.260487
0.130983 0.155581 0.312047
0.279332 0.172442 0.327199
0.375555 0.155016 0.334051
0.414878 0.120073 0.313863
0.415534 0.087541 0.286137
0.408179 0.0738842 0.260105
0.37644 0.0690776 0.224613
0.376883 0.0688182 0.218082
0.0968643 0.169741 0.306905
0.121187 0.2215 0.352956
0.284367 0.300267 0.379339
0.448875 0.310384 0.391043
0.556542 0.294804 0.378149
0.623041 0.276905 0.366094
0.658457 0.25626 0.353628
0.672053 0.236316 0.340978
0.669596 0.216693 0.329274
0.116075 0.212818 0.323934
0.11426 0.208591 0.32256
0.249012 0.384451 0.382635
0.433692 0.436713 0.408835
0.566461 0.449165 0.403204
0.675624 0.44622 0.396063
0.762356 0.435676 0.387152
0.826383 0.422446 0.37879
0.868437 0.408347 0.371832
0.126864 0.240314 0.320806
0.124987 0.236088 0.316579
0.20473 0.417029 0.384115
0.404486 0.509255 0.420645
0.555764 0.546258 0.418921
0.688197 0.557458 0.404822
0.79202 0.557031 0.397787
0.878218 0.553567 0.392386
0.950378 0.548211 0.387762
0.13344 0.259464 0.306538
0.132235 0.255451 0.312367
0.176349 0.373449 0.402548
0.328588 0.534798 0.470985
0.536675 0.62092 0.424842
0.674891 0.651011 0.412146
0.815763 0.66041 0.38233
0.935897 0.653666 0.364309
1 0.646647 0.356878
0.137591 0.273152 0.288228
0.13933 0.272328 0.327886
0.141939 0.272465 0.379553
0.299657 0.562371 0.443473
0.494713 0.667765 0.422919
0.655482 0.727855 0.418387
0.80061 0.755306 0.399023
0.932952 0.762539 0.380774
1 0.758572 0.357534
0.140642 0.283284 0.275242
0.1449 0.286152 0.339452
0.146227 0.284596 0.378225
0.222583 0.534554 0.41619
0.441596 0.696559 0.420218
0.62269 0.790509 0.420752
0.785107 0.83888 0.399878
0.934462 0.862165 0.388647
1 0.870832 0.376791
0.143008 0.291356 0.264836
0.14873 0.29604 0.346365
0.149767 0.29546 0.372412
0.199878 0.454002 0.40798
0.367071 0.686336 0.412894
0.577676 0.823545 0.415808
0.745876 0.897078 0.403098
0.90959 0.937804 0.383398
1 0.959609 0.37586
0.0215763 0.0080415 0.142367
0.107546 0.0251774 0.188815
0.203586 0.0438849 0.219974
0.26978 0.0553292 0.242298
0.319509 0.0629435 0.257389
0.352346 0.0675364 0.268086
0.375967 0.0706493 0.27538
0.393759 0.0728771 0.280995
0.406744 0.0744335 0.284428
0.0675059 0.101518 0.287816
0.127062 0.155505 0.343038
0.278004 0.174121 0.363134
0.367834 0.163668 0.367559
0.414298 0.129763 0.355917
0.418448 0.0918288 0.327642
0.408804 0.0749218 0.296025
0.375235 0.0700084 0.253178
0.377813 0.0701305 0.247303
0.0998398 0.171984 0.33933
0.122896 0.220417 0.393057
0.281987 0.303105 0.425452
0.428061 0.319661 0.43563
0.535531 0.299138 0.439292
0.599588 0.277882 0.426978
0.631662 0.253956 0.41062
0.644221 0.232517 0.396124
0.639673 0.210513 0.381353
0.119722 0.21622 0.36495
0.118151 0.21239 0.364385
0.238605 0.386999 0.444648
0.433585 0.442527 0.465599
0.595972 0.449592 0.463813
0.708385 0.443183 0.456184
0.786053 0.427695 0.445594
0.841993 0.413428 0.437964
0.879301 0.396628 0.430243
0.131273 0.244892 0.371145
0.129961 0.241505 0.371084
0.190814 0.410437 0.431601
0.415381 0.518517 0.483101
0.55877 0.555611 0.485786
0.677363 0.570794 0.481987
0.789303 0.56788 0.473091
0.886931 0.562783 0.466346
0.968536 0.553796 0.459678
0.139086 0.266453 0.366155
0.137224 0.262226 0.359915
0.185138 0.399054 0.430777
0.348547 0.556664 0.493935
0.538033 0.632197 0.492363
0.669795 0.663432 0.490745
0.809842 0.673152 0.475059
0.921523 0.670665 0.466804
1 0.669657 0.462242
0.144213 0.282216 0.353918
0.142397 0.27779 0.34963
0.144152 0.278599 0.379477
0.275059 0.557305 0.497704
0.480964 0.669932 0.529931
0.655924 0.746029 0.496696
0.796017 0.771756 0.482811
0.944671 0.780606 0.455131
1 0.779339 0.434974
0.147585 0.293782 0.339117
0.147707 0.291402 0.358846
0.150118 0.2925 0.401801
0.220935 0.518029 0.506355
0.461158 0.718715 0.512184
0.62623 0.814023 0.49781
0.781277 0.862043 0.489738
0.939452 0.889296 0.47097
1 0.897414 0.450782
0.14966 0.302083 0.322133
0.151659 0.301701 0.366659
0.154467 0.302998 0.418051
0.221149 0.517464 0.516289
0.375845 0.709941 0.491585
0.58027 0.849836 0.49456
0.744488 0.925887 0.490761
0.914382 0.973938 0.469291
1 0.998428 0.458885
0.0231785 0.00860609 0.153689
0.106172 0.0250706 0.200244
0.200488 0.0434272 0.231708
0.264637 0.054612 0.254063
0.313893 0.0622873 0.270375
0.347906 0.0671702 0.282094
0.372427 0.0704662 0.290547
0.390921 0.0728466 0.297169
0.404898 0.0745861 0.30161
0.0678874 0.0990158 0.305486
0.123537 0.155673 0.368597
0.276936 0.174807 0.393637
0.364599 0.16817 0.39556
0.412299 0.139727 0.38793
0.423789 0.100328 0.363653
0.410605 0.075639 0.32752
0.387823 0.0722515 0.284749
0.378759 0.0708782 0.270573
0.101579 0.172656 0.363333
0.123217 0.217365 0.422629
0.278874 0.304723 0.462974
0.423819 0.323293 0.47335
0.523262 0.309407 0.482841
0.589578 0.282872 0.477501
0.619577 0.255711 0.46038
0.630106 0.23209 0.443671
0.623438 0.208026 0.425635
0.121736 0.217365 0.394034
0.120363 0.213687 0.395743
0.235584 0.389532 0.488106
0.431617 0.446738 0.512291
0.570657 0.456046 0.522118
0.700267 0.443702 0.515007
0.784329 0.425345 0.501732
0.837446 0.408301 0.491905
0.868009 0.388663 0.481712
0.134218 0.247578 0.409674
0.132952 0.244327 0.408896
0.188602 0.40415 0.479912
0.395712 0.520302 0.515572
0.558862 0.561852 0.537469
0.697551 0.574273 0.532311
0.822416 0.568841 0.523171
0.92372 0.560967 0.51635
0.998184 0.549355 0.508995
0.142687 0.270359 0.410941
0.141375 0.266896 0.409827
0.180865 0.378622 0.474937
0.365774 0.568429 0.517449
0.542046 0.638041 0.556771
0.671351 0.671809 0.549477
0.792401 0.684428 0.545708
0.905928 0.685466 0.538933
1 0.681956 0.532494
0.148547 0.287541 0.405554
0.146914 0.283711 0.399512
0.146624 0.281941 0.406348
0.306905 0.587762 0.51899
0.496681 0.693721 0.556558
0.657694 0.757656 0.556924
0.790692 0.782193 0.55198
0.942138 0.79353 0.535378
1 0.796826 0.529549
0.152422 0.300114 0.394858
0.150805 0.29633 0.388037
0.151247 0.295476 0.403952
0.230442 0.555291 0.511925
0.409827 0.703349 0.592111
0.615579 0.814725 0.592111
0.781613 0.87921 0.55761
0.932494 0.908583 0.547768
1 0.915022 0.519677
0.155169 0.30988 0.381994
0.154467 0.306767 0.389807
0.156207 0.307362 0.423682
0.203342 0.449577 0.527855
0.358724 0.701427 0.603159
0.597742 0.871397 0.578775
0.748028 0.947982 0.557214
0.905898 0.997299 0.551537
1 1 0.534691
0.0244297 0.00906386 0.1626
0.105043 0.0250095 0.210422
0.198169 0.0431067 0.241978
0.260853 0.054078 0.264378
0.309758 0.0617838 0.281422
0.344045 0.0667735 0.293324
0.369192 0.0702068 0.302937
0.388128 0.072694 0.30985
0.403433 0.0746319 0.315648
0.0689708 0.0983444 0.323079
0.119631 0.155093 0.390234
0.274678 0.174472 0.41944
0.362005 0.169787 0.420523
0.410574 0.147295 0.414847
0.427649 0.110521 0.395041
0.414694 0.0767987 0.358541
0.402762 0.0745861 0.318532
0.378851 0.0712596 0.289662
0.103471 0.173938 0.386389
0.122972 0.213581 0.446937
0.274983 0.304967 0.49514
0.421653 0.324132 0.508583
0.513237 0.318242 0.514931
0.58143 0.290867 0.517586
0.6159 0.260502 0.505547
0.625772 0.23389 0.487739
0.616907 0.207553 0.466041
0.123888 0.219287 0.420874
0.122545 0.215351 0.425086
0.229801 0.389029 0.523217
0.428855 0.448371 0.55378
0.552865 0.463493 0.559731
0.670665 0.447929 0.56817
0.759701 0.427222 0.557031
0.813565 0.40734 0.545037
0.84213 0.38558 0.53254
0.1364 0.249516 0.439704
0.135195 0.246235 0.440101
0.190387 0.404211 0.526268
0.3953 0.523888 0.57322
0.557534 0.565713 0.586603
0.717021 0.571756 0.588708
0.847578 0.565835 0.578393
0.949126 0.556481 0.570291
1 0.541665 0.560006
0.145327 0.272999 0.447288
0.144076 0.269505 0.447181
0.176379 0.359182 0.510399
0.336065 0.562692 0.552987
0.543923 0.6439 0.586999
0.672114 0.678004 0.604379
0.797498 0.688426 0.597436
0.927413 0.689677 0.591165
1 0.683818 0.584421
0.151675 0.291279 0.44564
0.150484 0.288029 0.444221
0.149706 0.285863 0.44358
0.292424 0.584955 0.549783
0.515282 0.706661 0.61416
0.659434 0.765576 0.623041
0.793301 0.792508 0.611856
0.922621 0.808148 0.609079
1 0.8112 0.6038
0.156008 0.304784 0.439109
0.154711 0.301656 0.433738
0.154253 0.299931 0.436683
0.236942 0.574105 0.537057
0.451423 0.740032 0.621225
0.625635 0.836393 0.618753
0.783413 0.892897 0.619562
0.925917 0.921218 0.61619
1 0.925582 0.59353
0.15906 0.314946 0.431006
0.157565 0.31136 0.424094
0.157473 0.309972 0.432654
0.223301 0.522133 0.542367
0.364981 0.722301 0.623499
0.558389 0.861906 0.658732
0.738949 0.952667 0.654124
0.905287 1 0.619944
1 1 0.605509
0.0255589 0.00947585 0.170718
0.103868 0.024918 0.219196
0.196399 0.0428626 0.251011
0.257984 0.0536965 0.273594
0.306783 0.0614176 0.290929
0.34139 0.0664988 0.30341
0.366674 0.0699931 0.313527
0.386023 0.0725567 0.320684
0.402029 0.0746014 0.326802
0.0703746 0.0986648 0.340337
0.11632 0.154498 0.408621
0.272862 0.174319 0.441733
0.360204 0.170352 0.442191
0.409415 0.151553 0.437018
0.430106 0.118822 0.419471
0.420478 0.0814374 0.385672
0.41474 0.0763714 0.34963
0.378119 0.0713664 0.304219
0.10544 0.175692 0.40798
0.122805 0.210452 0.468345
0.271504 0.304768 0.523476
0.420279 0.325078 0.540185
0.508598 0.322103 0.543999
0.574731 0.30013 0.547509
0.615305 0.268437 0.542153
0.626612 0.238727 0.525704
0.616968 0.209888 0.502708
0.125902 0.221241 0.445472
0.124651 0.21738 0.450813
0.224277 0.388327 0.553536
0.425391 0.44921 0.590753
0.550561 0.466529 0.598138
0.650843 0.458457 0.608301
0.74165 0.433371 0.607172
0.793744 0.409445 0.595621
0.818494 0.384558 0.57995
0.137987 0.250538 0.465385
0.136919 0.24741 0.46743
0.191867 0.404654 0.563867
0.390219 0.524605 0.61326
0.555856 0.568872 0.631617
0.682139 0.578866 0.640482
0.835264 0.568338 0.63827
0.945296 0.555764 0.627848
1 0.538735 0.614572
0.146944 0.274037 0.475166
0.145937 0.271199 0.475242
0.173083 0.345083 0.53785
0.320104 0.559945 0.600778
0.529854 0.64712 0.639002
0.67628 0.683528 0.656443
0.828214 0.689418 0.647745
0.966613 0.687678 0.641352
1 0.680522 0.634699
0.153826 0.293324 0.47863
0.152834 0.290288 0.479988
0.151995 0.288258 0.476722
0.263233 0.570764 0.582605
0.513649 0.71194 0.630777
0.661143 0.770336 0.671153
0.793576 0.799237 0.667536
0.927275 0.816129 0.66508
1 0.816373 0.656672
0.158663 0.307881 0.476448
0.157748 0.305379 0.474586
0.157015 0.303548 0.471962
0.233265 0.558206 0.57258
0.478843 0.759716 0.64036
0.633005 0.846128 0.691447
0.784329 0.901869 0.679759
0.932067 0.92932 0.672969
1 0.940383 0.669413
0.162066 0.318791 0.471443
0.160769 0.315679 0.46508
0.160327 0.314092 0.467079
0.221759 0.51223 0.571984
0.407706 0.760967 0.64387
0.57937 0.887861 0.684733
0.750729 0.978134 0.681025
0.907973 1 0.681468
1 1 0.674159
