sandaya_1.0/luts/SANDAYA_LOOK_001_0030_ACESCG_TO_ACESCG.cube
TITLE "Generated by Resolve"
LUT_3D_SIZE 5
0.00518807 0.00605783 0.00793469
0.204532 0.0372015 0.00764477
0.291218 0.049958 0.0100557
0.330434 0.0550546 0.0109712
0.353704 0.057908 0.01149
0.0619059 0.128496 0.0235142
0.455833 0.335454 0.0462806
0.751049 0.334524 0.0450294
0.810437 0.284855 0.0400549
0.774105 0.229252 0.0342412
0.0866712 0.181338 0.0290074
0.283543 0.427283 0.0552987
1 0.637324 0.0634928
1 0.63386 0.0601968
1 0.602533 0.0576638
0.0973983 0.204486 0.0323186
0.0952926 0.199863 0.0316777
0.945388 0.82208 0.0694133
1 0.928023 0.0626078
1 0.918563 0.0582895
0.10219 0.215198 0.0337835
0.100816 0.212085 0.0333715
0.67042 0.807218 0.0714885
1 1 0.0631876
1 1 0.0546578
0.019913 0.00743114 0.130663
0.21239 0.0449836 0.174212
0.308949 0.059266 0.180697
0.357366 0.0645762 0.180911
0.386694 0.0673533 0.180087
0.110842 0.175128 0.512596
0.413611 0.418402 0.328695
0.790951 0.414679 0.294911
0.897444 0.357519 0.276204
0.886915 0.296803 0.257969
0.151369 0.266148 0.660334
0.180621 0.400885 0.312139
0.812055 0.71107 0.326925
1 0.701366 0.16228
1 0.626902 0.0880446
0.17116 0.317968 0.749508
0.146685 0.301091 0.26894
0.759472 0.915297 0.186542
1 1 0.324346
1 1 0.290166
0.181231 0.346059 0.807126
0.14931 0.310765 0.254047
0.435172 0.754788 0.158694
1 1 0.0651408
1 1 0.301656
0.0272374 0.010071 0.182803
0.217578 0.0466163 0.245731
0.313771 0.06215 0.259434
0.357336 0.0680858 0.263218
0.383291 0.0712749 0.264866
0.115496 0.17586 0.605951
0.373709 0.433173 0.554589
0.762982 0.437873 0.543267
0.879545 0.380926 0.52137
0.859724 0.317327 0.494697
0.15523 0.267353 0.779797
0.214633 0.476234 0.649439
0.854124 0.86978 0.585733
1 0.879316 0.54406
1 0.828397 0.526207
0.174075 0.318151 0.87863
0.171481 0.33637 0.568154
0.671244 1 0.565591
1 1 0.481498
1 1 0.39765
0.184085 0.3467 0.946212
0.178454 0.355398 0.600443
0.273732 0.748501 0.521584
1 1 0.470558
1 1 0.575067
0.0312352 0.0114748 0.212177
0.217945 0.0470893 0.289662
0.318593 0.0632792 0.307225
0.363272 0.0695506 0.313558
0.388922 0.0728618 0.316274
0.118364 0.178607 0.649958
0.348791 0.432288 0.703365
0.730922 0.447471 0.710964
0.836835 0.390768 0.679377
0.831525 0.326833 0.641901
0.15697 0.268849 0.83125
0.228138 0.51014 0.834699
0.794705 0.899092 0.860151
1 0.914885 0.818723
1 0.861509 0.802686
0.176104 0.321126 0.940444
0.176761 0.340307 0.697063
0.544274 1 0.915587
1 1 0.828275
1 1 0.780987
0.18529 0.348165 0.993942
0.18352 0.359289 0.733791
0.252216 0.611917 0.833021
1 1 0.804578
1 1 0.664973
0.0339361 0.0124056 0.233295
0.215702 0.0469368 0.316854
0.320851 0.0638437 0.338216
0.367605 0.0703746 0.346288
0.393759 0.0737926 0.349767
0.122637 0.185992 0.687526
0.32575 0.428656 0.81088
0.722148 0.452796 0.853361
0.837339 0.39588 0.806989
0.832898 0.330999 0.753841
0.159167 0.273426 0.860899
0.225452 0.492653 0.941711
0.773281 0.909056 1
1 0.93843 1
1 0.88127 1
0.177462 0.32401 0.967544
0.178927 0.341207 0.770932
0.616083 1 1
1 1 1
1 1 1
0.186557 0.350774 1
0.186694 0.363119 0.820584
0.292332 0.819013 1
1 1 1
1 1 1
