sandaya_1.0/luts/SANDAYA_LOOK_001_0060_ACESCG_TO_ACESCG.cube
TITLE "Generated by Resolve"
LUT_3D_SIZE 9
0.00444038 0.00468452 0.00561532
0.122194 0.0257267 0.0052491
0.16936 0.0319371 0.00657664
0.199557 0.0363928 0.00747692
0.223392 0.0402075 0.00822461
0.242817 0.0431525 0.0087892
0.258915 0.0454871 0.00923171
0.271977 0.0473335 0.00958267
0.283406 0.0489052 0.00987259
0.0427405 0.0866102 0.0220188
0.194965 0.179263 0.0284276
0.36318 0.203586 0.0316472
0.449348 0.197421 0.0307774
0.498543 0.181369 0.0286412
0.51577 0.161074 0.0258793
0.507134 0.135622 0.0224155
0.481239 0.10602 0.0183871
0.435904 0.0796063 0.0147402
0.0614328 0.127337 0.0253758
0.121141 0.215915 0.033814
0.391531 0.332586 0.0462654
0.541726 0.357458 0.0479896
0.636484 0.356756 0.0475166
0.705943 0.349187 0.0465553
0.751827 0.335744 0.0451362
0.772015 0.318044 0.0434272
0.781323 0.299748 0.0416266
0.0726482 0.151476 0.0274052
0.0726177 0.1514 0.0274052
0.338857 0.386709 0.0515755
0.564675 0.458656 0.0562448
0.710994 0.478752 0.0568399
0.831586 0.483345 0.0564126
0.92134 0.478477 0.0555428
0.98822 0.471336 0.0546578
1 0.462104 0.0537423
0.0807965 0.168872 0.0282597
0.0814832 0.170352 0.0283665
0.241047 0.377218 0.0511635
0.539376 0.52079 0.0607767
0.732067 0.567254 0.0622721
0.897841 0.585367 0.0620279
1 0.589761 0.0612192
1 0.587121 0.0603037
1 0.581827 0.0594797
0.0871138 0.182269 0.0293431
0.0882582 0.18471 0.0296178
0.127733 0.27689 0.0413825
0.46424 0.53994 0.0624552
0.715785 0.63595 0.0657511
0.917876 0.671809 0.0655985
1 0.689418 0.0646677
1 0.695064 0.0635691
1 0.693446 0.0626078
0.0920272 0.192752 0.0306859
0.0933852 0.195697 0.0311131
0.0927443 0.194293 0.0309148
0.357214 0.515709 0.0615091
0.660227 0.669932 0.0675669
0.901915 0.739971 0.0679179
1 0.774777 0.0667887
1 0.791043 0.0654307
1 0.799451 0.0641031
0.0959793 0.201358 0.0318914
0.0974899 0.2047 0.0323644
0.0968032 0.203159 0.0321508
0.233829 0.440604 0.056611
0.581216 0.675944 0.0683757
0.855909 0.787778 0.0695048
1 0.84271 0.0682383
1 0.874113 0.0664988
1 0.893095 0.0646372
0.0992142 0.208499 0.0328832
0.10045 0.211276 0.0332647
0.100008 0.210285 0.0331273
0.12958 0.281666 0.0419165
0.475425 0.638682 0.0675669
0.785138 0.805219 0.0704967
1 0.887556 0.0693065
1 0.937636 0.0672313
1 0.970611 0.0648661
0.00988785 0.00418097 0.0611124
0.12723 0.027512 0.0854963
0.182971 0.0364691 0.0886397
0.219806 0.0416876 0.0901045
0.249134 0.0455177 0.0906233
0.272175 0.0484169 0.0907301
0.29192 0.0508278 0.0906844
0.306798 0.0525978 0.0901198
0.320317 0.0542 0.0896468
0.0424964 0.0748913 0.111192
0.169604 0.177874 0.181048
0.354543 0.19295 0.171939
0.438025 0.180468 0.163317
0.477256 0.161837 0.152987
0.491493 0.14052 0.142092
0.486198 0.116838 0.130846
0.46569 0.0919509 0.118166
0.434913 0.0703746 0.103822
0.0762188 0.146334 0.151064
0.120653 0.243061 0.188785
0.392798 0.357687 0.157397
0.549294 0.361318 0.12401
0.643854 0.338094 0.100725
0.69575 0.313039 0.0891585
0.711589 0.285313 0.0796674
0.714412 0.260105 0.0718395
0.705165 0.235203 0.0641947
0.0985122 0.194568 0.159487
0.10251 0.203326 0.162097
0.318486 0.424155 0.162219
0.558114 0.480812 0.121324
0.690394 0.483406 0.0986648
0.800137 0.468894 0.0659495
0.896773 0.455558 0.0540932
0.985275 0.44625 0.0529335
1 0.431296 0.0515908
0.108186 0.218067 0.149752
0.110811 0.224323 0.149203
0.196948 0.404089 0.154879
0.520516 0.536309 0.0928664
0.705989 0.567864 0.0695811
0.862135 0.579721 0.0625162
1 0.58819 0.0612345
1 0.596246 0.0603494
1 0.594629 0.0591897
0.112947 0.231479 0.132265
0.114702 0.235996 0.129809
0.128542 0.270481 0.132128
0.435447 0.547829 0.0764172
0.73019 0.6589 0.0665904
0.9579 0.697246 0.0661631
1 0.724254 0.0650797
1 0.733745 0.0636149
1 0.709377 0.0621347
0.114656 0.23801 0.110506
0.115633 0.240711 0.107515
0.113939 0.237125 0.102541
0.320455 0.510918 0.0657054
0.690761 0.711757 0.0688029
0.982238 0.772946 0.0680705
1 0.787808 0.066453
1 0.804837 0.0648508
1 0.809857 0.0634928
0.113436 0.2374 0.0869001
0.114107 0.239414 0.082826
0.112245 0.235386 0.0775616
0.18912 0.418112 0.0552224
0.597498 0.691951 0.0688487
0.905196 0.810224 0.0695506
1 0.867292 0.0677653
1 0.895933 0.0657054
1 0.912306 0.0637675
0.11046 0.232471 0.0618906
0.109667 0.231189 0.0540932
0.107668 0.226902 0.0482643
0.103487 0.217884 0.038529
0.474693 0.639628 0.0676127
0.81651 0.822919 0.070573
1 0.917388 0.0688945
1 0.964599 0.066331
1 0.994263 0.0637675
0.0142214 0.00546273 0.0907149
0.131563 0.0290837 0.126116
0.181018 0.0385443 0.131014
0.213581 0.0440375 0.133745
0.241566 0.0481117 0.135576
0.264439 0.0510872 0.136522
0.284672 0.0535134 0.137148
0.300267 0.0552987 0.137438
0.314946 0.0569162 0.137758
0.042771 0.071107 0.13521
0.152682 0.170321 0.261402
0.314366 0.183154 0.266407
0.39202 0.168643 0.258076
0.426703 0.14583 0.244434
0.433539 0.119249 0.22829
0.419638 0.0918746 0.209705
0.393927 0.0697337 0.188342
0.375448 0.0654917 0.169467
0.0726329 0.131579 0.192798
0.133684 0.260914 0.300725
0.353841 0.360632 0.322408
0.52137 0.381338 0.310353
0.621683 0.373999 0.304448
0.690379 0.356832 0.296941
0.736141 0.33904 0.290745
0.757031 0.318868 0.283742
0.767498 0.298253 0.27628
0.0970626 0.181827 0.227573
0.116594 0.2215 0.271046
0.297871 0.447425 0.330755
0.569604 0.527413 0.289311
0.726345 0.530098 0.260182
0.84271 0.513649 0.242908
0.918303 0.496574 0.235721
0.965133 0.477501 0.229984
0.983566 0.455344 0.22472
0.113436 0.217136 0.247471
0.128389 0.250751 0.274235
0.194995 0.439551 0.317754
0.507515 0.604578 0.316182
0.727245 0.652873 0.272374
0.878462 0.654749 0.251667
1 0.639139 0.223255
1 0.617563 0.204318
1 0.594446 0.193011
0.124727 0.243946 0.255741
0.1355 0.270008 0.270481
0.146304 0.297688 0.285176
0.404685 0.626719 0.322637
0.685817 0.73814 0.266499
0.887785 0.766934 0.245899
1 0.767758 0.230762
1 0.756924 0.209751
1 0.732525 0.18233
0.132326 0.26363 0.25597
0.140551 0.284504 0.265049
0.139528 0.281971 0.26302
0.295018 0.596277 0.306981
0.614908 0.784298 0.277974
0.855131 0.840696 0.222873
1 0.86215 0.214206
1 0.868696 0.201953
1 0.857282 0.183398
0.13756 0.278248 0.251514
0.143908 0.294926 0.257252
0.142824 0.292271 0.254627
0.206332 0.496254 0.289387
0.524163 0.78648 0.277378
0.791226 0.896742 0.225162
1 0.932036 0.189014
1 0.945571 0.177783
1 0.94612 0.166415
0.140963 0.288426 0.24535
0.145571 0.301045 0.247333
0.144671 0.298909 0.244572
0.143847 0.297017 0.241459
0.40351 0.726528 0.270542
0.713832 0.90837 0.224537
0.964477 0.956344 0.17116
1 0.98088 0.151019
1 0.988724 0.137926
0.0171817 0.00645457 0.111421
0.134722 0.0299992 0.153399
0.184085 0.0396277 0.159258
0.21503 0.0452277 0.162448
0.240772 0.0493935 0.164675
0.262058 0.0525368 0.166125
0.281178 0.0551156 0.167163
0.296208 0.057023 0.168002
0.309697 0.0586252 0.168444
0.0437934 0.0700847 0.152331
0.141512 0.157778 0.310399
0.301732 0.168902 0.318654
0.363836 0.151644 0.307652
0.387488 0.12546 0.289326
0.387167 0.0957046 0.265766
0.368902 0.0704814 0.238361
0.358663 0.0666819 0.214481
0.319966 0.0607614 0.184207
0.0716411 0.12639 0.209461
0.184421 0.292805 0.346181
0.330861 0.354376 0.398001
0.503212 0.372152 0.404349
0.603754 0.361685 0.401282
0.668254 0.343679 0.394247
0.705394 0.323445 0.386618
0.721202 0.302144 0.377432
0.726421 0.281285 0.36875
0.0946975 0.172976 0.251392
0.122988 0.227375 0.343038
0.282368 0.448218 0.425254
0.515938 0.520119 0.44184
0.666163 0.540825 0.431342
0.786252 0.53756 0.419013
0.875227 0.529534 0.415076
0.937163 0.516503 0.409125
0.986908 0.503487 0.404593
0.112093 0.208759 0.283848
0.135027 0.257603 0.350683
0.19939 0.448386 0.416754
0.484352 0.6112 0.449836
0.712947 0.675715 0.408667
0.89955 0.680659 0.364096
1 0.666194 0.348852
1 0.648783 0.34229
1 0.631449 0.338888
0.125475 0.23856 0.307912
0.14403 0.281621 0.354696
0.147036 0.289174 0.361257
0.401724 0.649302 0.444984
0.65977 0.770169 0.434333
0.896803 0.815229 0.379446
1 0.820813 0.358938
1 0.806363 0.332662
1 0.783291 0.315236
0.13489 0.261357 0.3205
0.150179 0.298863 0.355871
0.149065 0.295979 0.353933
0.289342 0.619348 0.429328
0.583673 0.819791 0.44802
0.848295 0.918685 0.384802
1 0.948272 0.361013
1 0.954894 0.345418
1 0.94609 0.323842
0.142 0.279637 0.328206
0.154391 0.311437 0.35407
0.153384 0.308721 0.352239
0.217212 0.517388 0.415351
0.499825 0.828199 0.43798
0.776761 0.988663 0.408652
1 1 0.348547
1 1 0.338003
1 1 0.326528
0.147478 0.294438 0.332113
0.157214 0.320302 0.350408
0.156435 0.318288 0.348302
0.155734 0.316533 0.345922
0.391394 0.77438 0.424125
0.688655 1 0.417243
0.962386 1 0.361501
1 1 0.322545
1 1 0.313451
0.0194247 0.00726329 0.127169
0.13608 0.0304875 0.17319
0.186679 0.0403449 0.180377
0.217517 0.0460059 0.184146
0.242832 0.0502785 0.186664
0.263325 0.0534829 0.188449
0.281697 0.0561532 0.189731
0.295705 0.0580758 0.190646
0.308858 0.0597848 0.191546
0.0447242 0.069337 0.1664
0.129839 0.14284 0.336934
0.285542 0.150622 0.349935
0.344594 0.130831 0.334127
0.360922 0.101259 0.310155
0.353765 0.0728466 0.278508
0.346273 0.0664073 0.250431
0.305486 0.0600137 0.209354
0.320592 0.0620279 0.211002
0.0716869 0.124178 0.222446
0.161181 0.28426 0.376532
0.316915 0.343496 0.454444
0.48043 0.362081 0.460349
0.562951 0.350042 0.457267
0.624506 0.332265 0.451377
0.658824 0.311604 0.442649
0.673457 0.289738 0.432441
0.675486 0.267323 0.421637
0.093431 0.16788 0.266117
0.169146 0.346792 0.426123
0.378485 0.46949 0.482429
0.505653 0.515923 0.505394
0.653452 0.532677 0.51284
0.774578 0.529397 0.510628
0.861982 0.518975 0.506539
0.9243 0.505211 0.500801
0.964981 0.489143 0.495689
0.110964 0.203326 0.303273
0.134203 0.249531 0.394598
0.203876 0.45452 0.489052
0.47361 0.611353 0.530816
0.654856 0.663218 0.539223
0.807294 0.682216 0.528344
0.941588 0.683833 0.518502
1 0.678065 0.511131
1 0.668177 0.508125
0.124651 0.232929 0.333425
0.147051 0.282261 0.413321
0.146975 0.282475 0.410071
0.395789 0.654444 0.528008
0.636255 0.772015 0.54789
0.854063 0.827619 0.510979
1 0.840467 0.457282
1 0.826474 0.437644
1 0.811948 0.432547
0.134157 0.255009 0.352483
0.155184 0.304768 0.420493
0.154543 0.303258 0.417685
0.283894 0.62797 0.513603
0.580743 0.83798 0.546304
0.810224 0.938277 0.533013
1 0.9888 0.470069
1 0.996048 0.448585
1 0.987518 0.423835
0.142061 0.274464 0.366964
0.160266 0.319768 0.422019
0.159548 0.317815 0.420447
0.221729 0.521737 0.502388
0.495033 0.848905 0.538567
0.737163 1 0.549065
1 1 0.482658
1 1 0.455344
1 1 0.440787
0.148974 0.292226 0.379416
0.163684 0.330236 0.421851
0.163119 0.328679 0.420356
0.162585 0.327199 0.419135
0.385855 0.796216 0.525536
0.669718 1 0.543206
0.934203 1 0.514702
1 1 0.450935
1 1 0.437949
0.0211337 0.00787366 0.139239
0.136553 0.0307622 0.188281
0.18854 0.0408637 0.196796
0.219974 0.0466316 0.20119
0.244831 0.0508736 0.2038
0.26511 0.054139 0.206058
0.283238 0.0568856 0.207843
0.297108 0.0588693 0.209064
0.309712 0.0605936 0.21004
0.0456397 0.0687572 0.178912
0.119554 0.126925 0.351324
0.268025 0.1299 0.366171
0.324926 0.107958 0.346242
0.333974 0.0783551 0.31371
0.331334 0.0648661 0.279561
0.29189 0.0585336 0.228153
0.307897 0.060853 0.229709
0.322377 0.0628672 0.231281
0.0720836 0.123079 0.234043
0.143359 0.270848 0.403784
0.305135 0.33106 0.495567
0.465843 0.34612 0.506294
0.546502 0.335973 0.500084
0.59736 0.317586 0.492622
0.62536 0.296544 0.482506
0.638254 0.274342 0.471275
0.638987 0.252064 0.458839
0.092958 0.164996 0.278004
0.172061 0.353002 0.448173
0.361288 0.46659 0.513802
0.483223 0.509544 0.563424
0.633768 0.527062 0.567086
0.756802 0.523537 0.568368
0.841062 0.511345 0.563409
0.90071 0.495979 0.55845
0.936797 0.478187 0.551614
0.110307 0.199847 0.316884
0.159487 0.31136 0.468711
0.349569 0.537743 0.558831
0.52755 0.617411 0.594491
0.638666 0.658793 0.610819
0.786496 0.676631 0.608637
0.920043 0.674693 0.605417
1 0.668132 0.602823
1 0.657542 0.599588
0.123735 0.228443 0.349187
0.146151 0.275319 0.447227
0.190204 0.401831 0.5402
0.366659 0.640345 0.594018
0.627146 0.771313 0.625513
0.797162 0.814298 0.629297
0.95668 0.834974 0.617563
1 0.841413 0.607156
1 0.839414 0.597116
0.133288 0.250141 0.371786
0.156008 0.301671 0.463081
0.157351 0.305715 0.462898
0.274311 0.627787 0.577905
0.577966 0.84535 0.625803
0.7823 0.939269 0.638148
1 0.996094 0.602045
1 1 0.55111
1 1 0.515969
0.14139 0.26952 0.390143
0.162371 0.319814 0.470741
0.1626 0.320928 0.467567
0.223041 0.517723 0.567941
0.490379 0.857542 0.619226
0.734569 1 0.639338
0.957763 1 0.625879
1 1 0.563348
1 1 0.525429
0.148547 0.287404 0.4065
0.166934 0.333394 0.474891
0.166629 0.332921 0.471122
0.166003 0.331197 0.469368
0.380087 0.805051 0.603754
0.667628 1 0.635462
0.890501 1 0.640726
1 1 0.56495
1 1 0.535286
0.0225223 0.0083772 0.149081
0.136721 0.0309606 0.200702
0.189563 0.0411841 0.21001
0.221393 0.0469978 0.214801
0.246586 0.0513313 0.218006
0.266865 0.0546273 0.220584
0.284764 0.0573892 0.222446
0.298543 0.0594186 0.223865
0.311131 0.0612039 0.225177
0.0462501 0.0678416 0.189502
0.109056 0.110094 0.357504
0.250324 0.107301 0.371618
0.303471 0.0856641 0.346654
0.309056 0.0622568 0.307317
0.297444 0.0597696 0.261158
0.292973 0.0589151 0.243641
0.310048 0.0614481 0.246128
0.324254 0.0634623 0.247822
0.0722972 0.121859 0.24361
0.139071 0.25742 0.434226
0.293294 0.316457 0.527504
0.452323 0.329519 0.542382
0.535622 0.320928 0.534096
0.581582 0.302052 0.525078
0.605463 0.280507 0.513481
0.615381 0.25803 0.500175
0.614176 0.236072 0.485634
0.0930953 0.163668 0.288838
0.171145 0.34728 0.470726
0.330449 0.457389 0.547784
0.473503 0.501137 0.614359
0.612436 0.517357 0.622248
0.722484 0.516396 0.61799
0.801205 0.502541 0.613092
0.860166 0.486702 0.608042
0.894591 0.468818 0.600488
0.110185 0.197971 0.328252
0.176013 0.357534 0.513985
0.375616 0.546227 0.586084
0.533104 0.617929 0.624598
0.624414 0.654582 0.662211
0.788861 0.672511 0.667506
0.920455 0.668879 0.666728
1 0.661692 0.665736
1 0.650416 0.662837
0.123339 0.225757 0.361654
0.144457 0.268894 0.460639
0.281224 0.561654 0.610986
0.491493 0.691493 0.671092
0.625498 0.764706 0.699748
0.777707 0.809918 0.707469
0.93611 0.830167 0.702205
1 0.831159 0.699672
1 0.828168 0.697475
0.132708 0.24683 0.385138
0.154559 0.294362 0.487434
0.157427 0.301305 0.49958
0.262531 0.619501 0.638132
0.558511 0.838651 0.699748
0.773632 0.939651 0.71873
0.953887 0.983413 0.720775
1 1 0.708186
1 1 0.697368
0.140719 0.265629 0.405707
0.162539 0.316106 0.504265
0.164385 0.321401 0.507134
0.221881 0.506783 0.62034
0.484962 0.859617 0.690501
0.732464 1 0.721614
0.931289 1 0.728359
1 1 0.692424
1 1 0.638819
0.147845 0.283101 0.42385
0.168383 0.333013 0.513863
0.169192 0.33576 0.512474
0.168597 0.334188 0.509834
0.373877 0.808026 0.672648
0.664683 1 0.719097
0.888991 1 0.730602
1 1 0.716518
1 1 0.65304
0.0236515 0.0087892 0.157122
0.136522 0.0310521 0.211063
0.190143 0.041413 0.220859
0.222354 0.0472725 0.225956
0.248081 0.0516976 0.229999
0.268589 0.0550393 0.232822
0.286564 0.057847 0.234989
0.300099 0.0598611 0.236378
0.312612 0.061677 0.237812
0.0461891 0.0658122 0.197116
0.0984207 0.0926986 0.357382
0.23238 0.0849928 0.368307
0.278889 0.0638437 0.336553
0.289693 0.0588693 0.294926
0.272847 0.0559243 0.25388
0.294957 0.0593729 0.257435
0.311864 0.0618906 0.259953
0.325978 0.0639048 0.261631
0.0727245 0.121248 0.252781
0.1346 0.242267 0.458915
0.282734 0.302968 0.552666
0.438987 0.312703 0.570153
0.523247 0.305364 0.561425
0.567803 0.286244 0.549813
0.589471 0.264134 0.536858
0.596338 0.24184 0.520668
0.592508 0.218936 0.503136
0.0935225 0.163165 0.29865
0.168597 0.336431 0.492088
0.303029 0.445716 0.581613
0.463371 0.49099 0.65597
0.600732 0.505714 0.667994
0.706371 0.505302 0.659648
0.77319 0.491386 0.654337
0.824094 0.475257 0.647974
0.855116 0.456855 0.640436
0.110445 0.197131 0.33875
0.178241 0.3626 0.532036
0.363973 0.543496 0.61088
0.509712 0.612436 0.663935
0.611261 0.645701 0.717021
0.751797 0.662211 0.72517
0.898039 0.661768 0.719112
1 0.654994 0.719356
1 0.641642 0.715648
0.123049 0.223743 0.371099
0.143923 0.266056 0.471397
0.341314 0.594675 0.649012
0.548653 0.70985 0.703929
0.677592 0.767773 0.732219
0.775799 0.806149 0.753735
0.929229 0.826459 0.762036
1 0.827115 0.761318
1 0.81976 0.759503
0.132235 0.244221 0.395224
0.153429 0.289433 0.500648
0.231647 0.541299 0.652598
0.436744 0.738155 0.733959
0.593118 0.849577 0.776974
0.740001 0.930098 0.793912
0.928283 0.978759 0.799054
1 1 0.792889
1 1 0.792584
0.140337 0.262989 0.417792
0.161608 0.310796 0.524468
0.164202 0.317205 0.537194
0.235111 0.551904 0.684062
0.451392 0.836133 0.753597
0.713649 1 0.795834
0.922271 1 0.808789
1 1 0.810101
1 1 0.79762
0.147478 0.280293 0.437827
0.16817 0.329015 0.541238
0.170443 0.335485 0.547265
0.170642 0.336416 0.544808
0.366445 0.806271 0.732723
0.6598 1 0.792828
0.887144 1 0.812192
1 1 0.818479
1 1 0.779736
0.0246433 0.00914015 0.164126
0.136172 0.0310979 0.22034
0.190631 0.0415961 0.230777
0.223255 0.0475319 0.236439
0.249271 0.0519875 0.240864
0.270008 0.055375 0.244022
0.288182 0.0582284 0.246387
0.301656 0.0602579 0.247807
0.313954 0.0620432 0.249226
0.0460212 0.0636912 0.204013
0.0878767 0.074342 0.350805
0.213107 0.0640116 0.355123
0.258885 0.0542306 0.321477
0.246418 0.0516823 0.260761
0.274113 0.0562142 0.26566
0.29662 0.0597238 0.269734
0.313329 0.0622263 0.27219
0.32752 0.064271 0.273991
0.0731518 0.120699 0.261509
0.12871 0.224872 0.474372
0.272267 0.288243 0.571405
0.425162 0.295537 0.591546
0.509743 0.289113 0.584222
0.553582 0.269245 0.568902
0.572915 0.248035 0.553246
0.578943 0.225727 0.535882
0.571969 0.202197 0.514473
0.0940719 0.163058 0.307897
0.164721 0.321965 0.510994
0.278538 0.432303 0.609277
0.453437 0.481498 0.694179
0.58909 0.492973 0.709987
0.692409 0.492256 0.700404
0.757504 0.479438 0.692729
0.801663 0.462318 0.684596
0.828199 0.443778 0.675944
0.11078 0.196612 0.348363
0.176623 0.355612 0.545968
0.341711 0.533806 0.633631
0.482414 0.602625 0.704402
0.602304 0.637263 0.769406
0.737957 0.651041 0.78146
0.867903 0.655421 0.770489
0.974151 0.648325 0.771435
1 0.632715 0.765469
0.122896 0.222278 0.379141
0.147997 0.274754 0.493462
0.351308 0.600229 0.672969
0.545052 0.709346 0.732113
0.658961 0.76524 0.768856
0.74963 0.800488 0.817899
0.912963 0.815656 0.827131
1 0.821576 0.822019
1 0.813123 0.821256
0.131884 0.242161 0.403708
0.153063 0.287022 0.511772
0.277867 0.604257 0.690593
0.529168 0.783093 0.779217
0.690517 0.875593 0.820691
0.820233 0.9346 0.846571
0.934386 0.97052 0.859266
1 0.997116 0.863325
1 1 0.86154
0.13994 0.260639 0.427649
0.160876 0.307103 0.536904
0.207721 0.448325 0.674479
0.355764 0.733089 0.77763
0.541665 0.896376 0.846067
0.686534 1 0.880339
0.888212 1 0.894102
1 1 0.898878
1 1 0.888502
0.14728 0.278141 0.450004
0.167346 0.324453 0.55819
0.169924 0.330938 0.572534
0.195422 0.406928 0.654093
0.332815 0.779507 0.78732
0.628916 1 0.86836
0.871427 1 0.897841
1 1 0.906844
1 1 0.906447
