sandaya_1.0/luts/SANDAYA_LOOK_001_0140_ACESCG_TO_ACESCG.cube
TITLE "Generated by Resolve"
LUT_3D_SIZE 5
0.00500496 0.00576791 0.00746166
0.200809 0.0365911 0.0075227
0.285451 0.0491798 0.00991836
0.326131 0.0545052 0.0108797
0.350607 0.0575265 0.0114137
0.0502022 0.102968 0.022797
0.244129 0.232486 0.0356146
0.46566 0.272374 0.0397192
0.581109 0.270375 0.0392157
0.653178 0.258808 0.0377966
0.0726635 0.151583 0.0262913
0.126589 0.256214 0.0389563
0.493553 0.43537 0.0548562
0.704295 0.475196 0.0566262
0.867353 0.483757 0.0562295
0.0852522 0.178363 0.0286107
0.0853895 0.178668 0.0286412
0.397665 0.48777 0.0593271
0.708659 0.599695 0.0641337
0.96733 0.639918 0.0639811
0.0932479 0.195407 0.0310521
0.0935225 0.195987 0.0311284
0.242206 0.43386 0.0560311
0.637766 0.66598 0.0675822
0.953246 0.756176 0.0679026
0.0137179 0.00531014 0.0871595
0.227649 0.0473487 0.16437
0.348959 0.0640269 0.185565
0.399786 0.0691844 0.188739
0.427619 0.0715343 0.187091
0.0859998 0.160754 0.201663
0.28397 0.286183 0.245457
0.533928 0.298909 0.229252
0.647349 0.276188 0.213413
0.695384 0.246998 0.198795
0.108186 0.215152 0.172229
0.18143 0.377829 0.24799
0.557229 0.514122 0.230488
0.774716 0.515496 0.190112
0.921996 0.492103 0.161837
0.115358 0.236652 0.137804
0.125841 0.252171 0.217456
0.491814 0.609552 0.220752
0.774807 0.674907 0.192996
0.994324 0.678126 0.168902
0.115175 0.240513 0.0985122
0.131975 0.270176 0.20293
0.359792 0.608988 0.203082
0.729412 0.766842 0.165179
1 0.805371 0.143801
0.0196231 0.00732433 0.128573
0.208377 0.0446174 0.207065
0.325475 0.0634928 0.241321
0.37995 0.070634 0.256001
0.410636 0.0742351 0.26305
0.0968643 0.169741 0.306905
0.284367 0.300267 0.379339
0.556542 0.294804 0.378149
0.658457 0.25626 0.353628
0.669596 0.216693 0.329274
0.126864 0.240314 0.320806
0.20473 0.417029 0.384115
0.555764 0.546258 0.418921
0.79202 0.557031 0.397787
0.950378 0.548211 0.387762
0.137591 0.273152 0.288228
0.141939 0.272465 0.379553
0.494713 0.667765 0.422919
0.80061 0.755306 0.399023
1 0.758572 0.357534
0.143008 0.291356 0.264836
0.149767 0.29546 0.372412
0.367071 0.686336 0.412894
0.745876 0.897078 0.403098
1 0.959609 0.37586
0.0231785 0.00860609 0.153689
0.200488 0.0434272 0.231708
0.313893 0.0622873 0.270375
0.372427 0.0704662 0.290547
0.404898 0.0745861 0.30161
0.101579 0.172656 0.363333
0.278874 0.304723 0.462974
0.523262 0.309407 0.482841
0.619577 0.255711 0.46038
0.623438 0.208026 0.425635
0.134218 0.247578 0.409674
0.188602 0.40415 0.479912
0.558862 0.561852 0.537469
0.822416 0.568841 0.523171
0.998184 0.549355 0.508995
0.148547 0.287541 0.405554
0.146624 0.281941 0.406348
0.496681 0.693721 0.556558
0.790692 0.782193 0.55198
1 0.796826 0.529549
0.155169 0.30988 0.381994
0.156207 0.307362 0.423682
0.358724 0.701427 0.603159
0.748028 0.947982 0.557214
1 1 0.534691
0.0255589 0.00947585 0.170718
0.196399 0.0428626 0.251011
0.306783 0.0614176 0.290929
0.366674 0.0699931 0.313527
0.402029 0.0746014 0.326802
0.10544 0.175692 0.40798
0.271504 0.304768 0.523476
0.508598 0.322103 0.543999
0.615305 0.268437 0.542153
0.616968 0.209888 0.502708
0.137987 0.250538 0.465385
0.191867 0.404654 0.563867
0.555856 0.568872 0.631617
0.835264 0.568338 0.63827
1 0.538735 0.614572
0.153826 0.293324 0.47863
0.151995 0.288258 0.476722
0.513649 0.71194 0.630777
0.793576 0.799237 0.667536
1 0.816373 0.656672
0.162066 0.318791 0.471443
0.160327 0.314092 0.467079
0.407706 0.760967 0.64387
0.750729 0.978134 0.681025
1 1 0.674159
