sandaya_1.0/luts/SANDAYA_LOOK_001_0150_ACESCG_TO_ACESCG.cube
TITLE "Generated by Resolve"
LUT_3D_SIZE 5
0.00596628 0.00712596 0.00921645
0.233188 0.0417029 0.00851453
0.312795 0.0528115 0.0105745
0.348852 0.0573129 0.0113832
0.370321 0.0598611 0.0118257
0.0575418 0.118975 0.024155
0.34255 0.296666 0.0427558
0.58584 0.331579 0.0453956
0.714 0.322774 0.0440833
0.776944 0.303532 0.0420081
0.079408 0.165972 0.0272831
0.212741 0.345998 0.0483406
0.650858 0.528161 0.0605325
0.929488 0.558633 0.0604105
1 0.5626 0.0591745
0.091371 0.191333 0.0304723
0.091371 0.191333 0.0304723
0.57499 0.616358 0.0659037
0.974258 0.725124 0.0668803
1 0.763363 0.064744
0.098146 0.206149 0.0325475
0.0982223 0.206287 0.032578
0.398886 0.578714 0.0651102
0.896071 0.819577 0.06981
1 0.911482 0.0667735
0.0170443 0.00640879 0.11046
0.248966 0.0513924 0.193484
0.361807 0.0672618 0.219699
0.407507 0.0722972 0.226001
0.431724 0.0745403 0.226139
0.0937514 0.183749 0.161273
0.361929 0.361074 0.318303
0.643732 0.372656 0.29073
0.769238 0.338964 0.271336
0.806088 0.299702 0.254261
0.0982528 0.204227 0.0631876
0.231724 0.465217 0.32108
0.714549 0.624659 0.264363
0.99266 0.614145 0.216098
1 0.578592 0.184634
0.0959793 0.201343 0.0318914
0.140764 0.283314 0.277546
0.626841 0.764752 0.27538
1 0.827085 0.214069
1 0.823377 0.185046
0.101579 0.213825 0.0336004
0.145495 0.298405 0.264164
0.469123 0.767971 0.277424
0.957153 0.941253 0.182727
1 0.974334 0.153979
0.0233921 0.00868238 0.155215
0.230121 0.0487221 0.237476
0.342763 0.0663767 0.274922
0.394095 0.0731518 0.292592
0.422614 0.0766155 0.302724
0.11133 0.202502 0.315419
0.35697 0.375616 0.4804
0.642786 0.364584 0.488365
0.742687 0.310109 0.457832
0.733257 0.255909 0.426734
0.128954 0.257618 0.235828
0.231022 0.490379 0.45333
0.666789 0.661738 0.531975
0.965499 0.676799 0.501823
1 0.663127 0.485863
0.126528 0.263355 0.148058
0.170428 0.350332 0.430304
0.601724 0.834379 0.539269
1 0.950408 0.454047
1 0.950347 0.407279
0.112276 0.237186 0.0569772
0.161227 0.323415 0.416342
0.462547 0.856214 0.530068
0.950057 1 0.499535
1 1 0.423972
0.0268254 0.00991836 0.179797
0.223209 0.0477913 0.266255
0.333974 0.0654765 0.305531
0.387793 0.0728313 0.326711
0.419059 0.0767834 0.339849
0.11722 0.205173 0.401114
0.345754 0.37792 0.582345
0.604669 0.391333 0.595499
0.712627 0.31986 0.587716
0.701732 0.253422 0.545922
0.142214 0.275578 0.361959
0.213046 0.476143 0.59791
0.663935 0.676234 0.6878
1 0.67509 0.67628
1 0.644892 0.657282
0.147158 0.299779 0.287572
0.158145 0.308659 0.458244
0.609125 0.867155 0.693736
0.979126 0.986099 0.710613
1 1 0.680674
0.142763 0.297932 0.213809
0.163897 0.327886 0.444678
0.457694 0.890547 0.695735
0.91574 1 0.720394
1 1 0.631861
0.0292821 0.0107881 0.197635
0.219196 0.0472877 0.287373
0.328664 0.0648814 0.32636
0.383764 0.0725109 0.348669
0.416236 0.0766613 0.362692
0.121477 0.207553 0.464897
0.332738 0.376623 0.660029
0.599344 0.397848 0.68336
0.711955 0.34789 0.678248
0.713146 0.269184 0.642145
0.149096 0.283131 0.451377
0.215686 0.474937 0.700099
0.657191 0.684459 0.819989
0.952895 0.695308 0.828824
1 0.64332 0.819181
0.157656 0.315465 0.395468
0.163928 0.314733 0.550835
0.572747 0.867247 0.819577
0.977646 1 0.881941
1 1 0.858564
0.157 0.322667 0.328954
0.169406 0.336202 0.514336
0.477241 0.921584 0.750286
0.91664 1 0.902693
1 1 0.897307
