sandaya_1.0/luts/SANDAYA_LOOK_001_0090_ACESCG_TO_ACESCG.cube
TITLE "Generated by Resolve"
LUT_3D_SIZE 33
0.00695811 0.00877394 0.0109865
0.0540169 0.0172732 0.00863661
0.0883803 0.0192569 0.00518807
0.125216 0.0240787 0.00505074
0.154788 0.0290227 0.00602731
0.176516 0.0326085 0.00672923
0.194293 0.035523 0.00730907
0.209049 0.0379339 0.0077821
0.221912 0.0399634 0.00817884
0.233021 0.0416876 0.00851453
0.242954 0.0431678 0.00880446
0.251804 0.0444648 0.0090486
0.258305 0.0453956 0.00921645
0.264424 0.0462654 0.0093843
0.270008 0.0470588 0.00953689
0.275013 0.0477455 0.00965896
0.279255 0.0483406 0.00976577
0.283894 0.0489662 0.00988785
0.288212 0.0495613 0.00999466
0.292378 0.0501259 0.0100862
0.296284 0.0506447 0.0101778
0.300175 0.0511635 0.0102846
0.303288 0.0515755 0.0103456
0.306432 0.0519875 0.0104219
0.309346 0.0523537 0.0104982
0.312184 0.0527352 0.0105592
0.314946 0.0530861 0.0106203
0.317556 0.0534218 0.0106813
0.320195 0.0537575 0.0107424
0.322652 0.0540627 0.0108034
0.324529 0.0543069 0.0108492
0.326574 0.0545663 0.0108949
0.328542 0.0548104 0.0109407
0.0193942 0.038056 0.0166781
0.0537118 0.0509194 0.0120089
0.117525 0.0636454 0.0110475
0.167651 0.0689708 0.0120394
0.207309 0.0718547 0.012665
0.236988 0.0731212 0.0130007
0.258564 0.0726787 0.0130465
0.27483 0.0715038 0.0129549
0.287373 0.0704509 0.0128786
0.297368 0.0689403 0.0127108
0.305257 0.0671092 0.0124971
0.31046 0.0646677 0.0121767
0.314351 0.062211 0.0118715
0.317174 0.0595102 0.0115053
0.31812 0.0565499 0.0111086
0.317342 0.0543069 0.0108034
0.31574 0.0532692 0.0106508
0.313054 0.052842 0.0105745
0.309529 0.0523842 0.0104982
0.303883 0.0516518 0.0103609
0.294713 0.0504311 0.0101472
0.283116 0.0488594 0.00985733
0.286534 0.0493324 0.00994888
0.290089 0.0498054 0.0100404
0.293278 0.0502327 0.0101167
0.296483 0.0506752 0.010193
0.299321 0.0510414 0.0102541
0.301991 0.0513924 0.0103151
0.304417 0.0517128 0.0103761
0.306783 0.0520333 0.0104372
0.309071 0.0523232 0.0104829
0.311376 0.0526284 0.010544
0.313512 0.052903 0.0105898
0.0285801 0.0568551 0.0168917
0.0370489 0.0695659 0.0144808
0.116884 0.100679 0.0167086
0.175372 0.114809 0.0188754
0.223072 0.121859 0.0199893
0.26305 0.125628 0.0205997
0.295598 0.127382 0.0209201
0.319036 0.127031 0.0209201
0.339345 0.126329 0.0208591
0.355749 0.124651 0.0206607
0.369879 0.122545 0.0204013
0.381888 0.120302 0.0201114
0.391852 0.117723 0.019791
0.4009 0.115099 0.01944
0.409216 0.112291 0.0190738
0.414679 0.1093 0.0186923
0.418448 0.106126 0.018265
0.422293 0.102998 0.0178378
0.425361 0.0999924 0.0174411
0.427955 0.0973373 0.0170901
0.429313 0.0948196 0.0167544
0.429328 0.0922255 0.0164034
0.428809 0.0896468 0.0160678
0.427939 0.0870375 0.0157168
0.426719 0.0847334 0.0153964
0.424826 0.0825666 0.0151064
0.423102 0.0805982 0.0148318
0.420691 0.0784314 0.0145266
0.417426 0.0762493 0.0142367
0.413901 0.0736248 0.0138705
0.409751 0.0709697 0.013489
0.405356 0.0685283 0.0131533
0.401526 0.0658427 0.0127718
0.0374304 0.0753185 0.0189212
0.0383459 0.0773327 0.0184176
0.106722 0.123217 0.0201572
0.1738 0.14609 0.0235294
0.2271 0.157015 0.0251164
0.274861 0.163836 0.0261234
0.313985 0.167636 0.0266728
0.344106 0.168933 0.0268711
0.369848 0.169589 0.026978
0.391089 0.168841 0.0268711
0.409491 0.167544 0.0267033
0.426017 0.166171 0.0265202
0.439551 0.164553 0.0263066
0.451865 0.162814 0.0260777
0.463249 0.160784 0.025803
0.47306 0.158923 0.0255589
0.479469 0.156497 0.0252384
0.485939 0.154101 0.0249027
0.491585 0.151766 0.0245975
0.496818 0.149523 0.0242924
0.501534 0.147082 0.0239719
0.503975 0.144594 0.0236362
0.505852 0.142 0.0232853
0.507393 0.139513 0.0229496
0.508629 0.13695 0.0225986
0.509224 0.134218 0.0222324
0.509331 0.131579 0.0218662
0.509468 0.128801 0.0215
0.509194 0.126314 0.0211643
0.508034 0.123507 0.0207828
0.506691 0.120531 0.0203708
0.505272 0.117784 0.0200046
0.503868 0.115007 0.0196384
0.0447395 0.0910964 0.0203708
0.0403449 0.0815747 0.0196231
0.0872358 0.136187 0.0221714
0.167712 0.170001 0.0270848
0.225544 0.185748 0.0293278
0.278798 0.195865 0.0306859
0.32311 0.20177 0.0314488
0.360235 0.205142 0.0318608
0.389425 0.206821 0.0320439
0.415259 0.207446 0.032105
0.435828 0.206271 0.0319371
0.455772 0.205509 0.0318303
0.472923 0.20415 0.031632
0.488045 0.202838 0.0314641
0.502022 0.201099 0.0312352
0.514 0.199176 0.0309758
0.523842 0.197192 0.0307164
0.532769 0.195132 0.0304417
0.540627 0.193133 0.0301823
0.54786 0.191104 0.0299229
0.554833 0.1888 0.0296178
0.560265 0.186679 0.0293278
0.56379 0.184192 0.0290074
0.566766 0.181842 0.028687
0.569757 0.179507 0.0283818
0.571603 0.176928 0.0280461
0.573449 0.174868 0.0277562
0.57528 0.17261 0.027451
0.577142 0.170703 0.0271916
0.577447 0.168368 0.0268864
0.577447 0.166033 0.026566
0.577066 0.16379 0.0262608
0.576654 0.161471 0.0259556
0.050721 0.104204 0.0214542
0.0463264 0.0945754 0.0206455
0.0680858 0.140658 0.0229191
0.155474 0.186023 0.0294957
0.220066 0.209415 0.0326543
0.276783 0.22298 0.0343175
0.327398 0.232471 0.0354162
0.370321 0.238407 0.0360571
0.402762 0.241505 0.036347
0.43241 0.24358 0.0365301
0.456794 0.243992 0.0365301
0.478798 0.243977 0.0364843
0.49807 0.243076 0.036347
0.514855 0.24184 0.0361791
0.531014 0.240299 0.0359655
0.545861 0.238926 0.0357824
0.559014 0.237171 0.0355688
0.569665 0.235126 0.0353094
0.579065 0.232975 0.03505
0.587411 0.230549 0.0347448
0.596155 0.228336 0.0344701
0.604181 0.226261 0.034226
0.609796 0.223667 0.0339055
0.614404 0.221378 0.0336309
0.61883 0.218936 0.0333257
0.622644 0.216358 0.0330205
0.626261 0.214374 0.0327764
0.629679 0.212253 0.0325017
0.63267 0.210254 0.0322576
0.634241 0.207599 0.0319371
0.63505 0.205173 0.031632
0.635966 0.203082 0.0313726
0.636606 0.200702 0.0310826
0.0554971 0.114595 0.0222629
0.051194 0.105241 0.0215305
0.0659953 0.137423 0.0224308
0.140032 0.195438 0.0308843
0.210727 0.227909 0.0351263
0.272374 0.246708 0.0373083
0.328634 0.259815 0.0386969
0.374395 0.267659 0.0394598
0.412894 0.27335 0.0399786
0.445319 0.276951 0.0402838
0.472129 0.278111 0.0403296
0.496162 0.278752 0.0403296
0.518822 0.279194 0.0403143
0.538033 0.278569 0.0402075
0.556115 0.277531 0.0400397
0.572366 0.276188 0.0398566
0.587472 0.274647 0.0396582
0.600595 0.272831 0.0394293
0.611963 0.271015 0.0392004
0.622827 0.269123 0.0389715
0.633371 0.267201 0.0387427
0.642985 0.265217 0.0384985
0.651652 0.263005 0.0382544
0.657679 0.261006 0.0380102
0.662516 0.258335 0.0377203
0.667155 0.255665 0.0374151
0.671916 0.25362 0.0371862
0.676432 0.251194 0.0369116
0.680522 0.249134 0.0366674
0.684611 0.246708 0.0363928
0.687266 0.244358 0.0361334
0.688716 0.241947 0.0358587
0.690379 0.239567 0.035584
0.0595254 0.123354 0.0229496
0.0552834 0.114137 0.0222324
0.0608835 0.126345 0.0218662
0.118471 0.197131 0.0312047
0.197803 0.239216 0.0366064
0.263905 0.264469 0.0394446
0.322499 0.280613 0.0410773
0.37438 0.292607 0.0422065
0.418769 0.30103 0.0429541
0.453117 0.305776 0.0433204
0.484489 0.309285 0.0435645
0.510719 0.311101 0.0436561
0.535241 0.312367 0.0437018
0.558053 0.313069 0.0437018
0.577585 0.312306 0.0435492
0.5953 0.311192 0.0433814
0.612833 0.31017 0.0432288
0.629328 0.308949 0.0430457
0.642664 0.30753 0.0428626
0.654902 0.305959 0.0426642
0.667262 0.304128 0.0424506
0.678599 0.302419 0.042237
0.689937 0.300694 0.0420233
0.697841 0.298665 0.0417945
0.703899 0.296025 0.0415198
0.709499 0.29337 0.0412299
0.715572 0.291463 0.0410315
0.72137 0.289067 0.0407721
0.726741 0.287129 0.0405585
0.731823 0.284718 0.0402991
0.736126 0.282261 0.0400244
0.73875 0.28011 0.0397955
0.740719 0.277485 0.0395209
0.0627451 0.130312 0.02327
0.0588998 0.121996 0.0229038
0.0581979 0.12047 0.0227817
0.0942702 0.194247 0.0308843
0.18323 0.246021 0.0374914
0.252735 0.278035 0.0410315
0.315358 0.298207 0.0430304
0.372229 0.31339 0.0444038
0.420142 0.323995 0.0452888
0.458518 0.330785 0.0458076
0.492119 0.33547 0.046128
0.521477 0.338643 0.0463264
0.547692 0.34081 0.0464179
0.573129 0.342275 0.0464637
0.595743 0.342626 0.0464027
0.615717 0.342367 0.0462959
0.634653 0.341833 0.0461738
0.654292 0.341238 0.0460365
0.670054 0.340322 0.0458839
0.684016 0.339147 0.0457313
0.698512 0.337972 0.0455634
0.711696 0.336614 0.0453803
0.724956 0.335241 0.0451972
0.735882 0.333623 0.0450141
0.74313 0.331029 0.0447395
0.75021 0.328664 0.0444953
0.757534 0.326833 0.0442969
0.764614 0.324727 0.0440833
0.770901 0.322835 0.0438697
0.777539 0.320699 0.0436561
0.783215 0.318273 0.0433967
0.787274 0.316197 0.043183
0.790356 0.313771 0.0429541
0.0657054 0.136706 0.0236973
0.0617227 0.128099 0.0231479
0.0611124 0.126787 0.0230869
0.0890974 0.186496 0.0297704
0.16556 0.246815 0.037644
0.238666 0.286915 0.0420844
0.305287 0.31249 0.0445869
0.366812 0.330877 0.0462043
0.417258 0.344015 0.0472725
0.461677 0.353841 0.0480049
0.497673 0.360067 0.0484169
0.529473 0.364218 0.048661
0.557473 0.367163 0.0487984
0.584543 0.369268 0.0488746
0.610574 0.370642 0.0488746
0.632914 0.37116 0.0488136
0.653468 0.370748 0.0486915
0.674327 0.370489 0.0485695
0.693156 0.369818 0.0484169
0.709331 0.369238 0.0482948
0.724758 0.368002 0.048127
0.739925 0.367193 0.0479896
0.754528 0.365759 0.0477913
0.768719 0.364767 0.0476539
0.779339 0.363134 0.0474556
0.787671 0.361059 0.0472419
0.795499 0.358953 0.0470283
0.803891 0.357137 0.0468299
0.811765 0.355535 0.0466621
0.81976 0.353689 0.0464637
0.8271 0.351537 0.0462501
0.834134 0.350118 0.0460975
0.837766 0.347631 0.0458534
0.0682994 0.14229 0.0239414
0.0643626 0.133806 0.0234836
0.0636759 0.132342 0.0233921
0.0823377 0.172213 0.0276493
0.144533 0.243275 0.0372778
0.222934 0.290639 0.0425574
0.291752 0.321294 0.0455482
0.356817 0.343496 0.0474861
0.410925 0.358907 0.0487068
0.460517 0.371527 0.0496376
0.49839 0.379339 0.0501564
0.534081 0.38587 0.0505531
0.56379 0.389502 0.050721
0.592615 0.392645 0.0508583
0.622019 0.395453 0.0509499
0.646143 0.396536 0.0509194
0.669825 0.397574 0.0508888
0.693141 0.398108 0.0508125
0.71487 0.397955 0.0506905
0.732189 0.397421 0.0505531
0.749706 0.396521 0.0504005
0.766247 0.395727 0.050248
0.783062 0.394888 0.0500954
0.79826 0.393835 0.0499428
0.812711 0.39266 0.0497749
0.823285 0.391089 0.0495918
0.832975 0.389456 0.0494087
0.842466 0.387503 0.0492103
0.850645 0.385763 0.0490272
0.859327 0.383749 0.0488289
0.868254 0.382025 0.0486458
0.8757 0.380224 0.0484627
0.882338 0.378271 0.0482643
0.070573 0.147204 0.0242008
0.0667277 0.138903 0.0238651
0.0660258 0.137407 0.0237583
0.073579 0.153597 0.0248722
0.121294 0.235538 0.0363928
0.206546 0.291783 0.0427405
0.277104 0.327565 0.0462501
0.344686 0.353704 0.0485237
0.403494 0.372137 0.049958
0.455268 0.386267 0.0509651
0.497459 0.396445 0.0516365
0.534951 0.404166 0.0521096
0.568338 0.409735 0.0523995
0.597635 0.412955 0.0525063
0.62829 0.416175 0.0526131
0.655344 0.418265 0.0526284
0.680461 0.419562 0.0525978
0.705928 0.42092 0.0525673
0.730526 0.421668 0.0525063
0.75198 0.422095 0.0524147
0.770062 0.421195 0.0522469
0.7879 0.420722 0.0521248
0.806577 0.420218 0.0519875
0.824048 0.419791 0.0518502
0.841901 0.419043 0.0517128
0.854932 0.418067 0.0515602
0.8663 0.416922 0.0514076
0.877989 0.415518 0.0512398
0.889128 0.414572 0.0511177
0.900099 0.413077 0.0509499
0.909865 0.411215 0.0507515
0.919554 0.409949 0.0505989
0.928313 0.407996 0.0504158
0.0727398 0.151827 0.0246738
0.0688029 0.143389 0.0239719
0.0682231 0.142153 0.0239414
0.0678416 0.141329 0.0239261
0.10692 0.22594 0.0352026
0.18854 0.289189 0.0425116
0.261555 0.331701 0.0467231
0.330587 0.361074 0.0492714
0.395026 0.384176 0.0510872
0.449119 0.400153 0.0522011
0.495064 0.411856 0.0529488
0.533852 0.420722 0.0534676
0.570504 0.427832 0.0538491
0.602625 0.432349 0.0540322
0.63473 0.436301 0.0541543
0.663432 0.438758 0.0541848
0.689799 0.440574 0.0541695
0.716075 0.441825 0.0541238
0.742672 0.443122 0.0540627
0.767407 0.443961 0.0539864
0.788617 0.444144 0.0538796
0.808148 0.444022 0.0537728
0.828672 0.4439 0.0536355
0.847654 0.443519 0.0535134
0.866972 0.443091 0.0533608
0.881834 0.441627 0.0531777
0.894408 0.440482 0.0530251
0.907347 0.439307 0.0528725
0.91931 0.438346 0.0527352
0.932082 0.43711 0.0525673
0.944228 0.435813 0.0524147
0.9552 0.434714 0.0522774
0.966934 0.433356 0.0521096
0.0747234 0.156069 0.0252384
0.0707713 0.147616 0.0242313
0.0701305 0.146227 0.0241245
0.0697642 0.145464 0.0240787
0.101305 0.213184 0.0335088
0.169757 0.282979 0.0419013
0.245487 0.332952 0.0469215
0.316213 0.366873 0.0498817
0.381231 0.391485 0.0517891
0.440253 0.411154 0.0531777
0.491798 0.426093 0.0541238
0.532113 0.436027 0.0547036
0.570459 0.444053 0.0551156
0.604425 0.449729 0.0553445
0.638315 0.454566 0.0555123
0.670558 0.458488 0.0556191
0.699275 0.460822 0.0556191
0.727001 0.462608 0.0555886
0.754894 0.464118 0.0555276
0.78024 0.46479 0.055436
0.804181 0.465263 0.0553292
0.82536 0.465568 0.0552224
0.847303 0.465507 0.0550851
0.867582 0.465492 0.054963
0.889067 0.465156 0.0548104
0.909697 0.464927 0.0546731
0.923598 0.463767 0.0545205
0.938491 0.462928 0.0543679
0.951385 0.461921 0.0542306
0.965103 0.460639 0.0540627
0.977005 0.45893 0.0538796
0.988678 0.457801 0.053727
1 0.456703 0.0535744
0.076524 0.159869 0.025803
0.0726024 0.151537 0.0246433
0.0720073 0.150271 0.0244907
0.0716564 0.149508 0.0244144
0.0926528 0.194095 0.030869
0.143847 0.273106 0.0408637
0.227359 0.33077 0.0467689
0.299535 0.369711 0.0502174
0.366766 0.398383 0.0524605
0.428504 0.420157 0.0539864
0.483207 0.437247 0.0550546
0.527199 0.449348 0.0557565
0.567224 0.45893 0.05626
0.604685 0.466484 0.0565957
0.639612 0.471595 0.0567636
0.671855 0.475517 0.0568399
0.703304 0.479057 0.0569009
0.732494 0.481209 0.0568704
0.762356 0.483406 0.0568399
0.790814 0.485115 0.0567788
0.81857 0.486122 0.0566873
0.841672 0.486915 0.0565957
0.86537 0.487022 0.0564584
0.886427 0.486763 0.0563058
0.908522 0.486442 0.0561532
0.931456 0.486366 0.0560006
0.949203 0.48574 0.0558633
0.965469 0.484901 0.0557107
0.980117 0.484245 0.0555734
0.994537 0.482918 0.0554055
1 0.481895 0.0552377
1 0.481086 0.0551156
1 0.479988 0.0549477
0.0782788 0.163607 0.0263676
0.0743572 0.155291 0.0251316
0.0737011 0.153872 0.0249332
0.0733349 0.153094 0.0248264
0.0830091 0.173632 0.027863
0.12491 0.261936 0.0396429
0.210086 0.327138 0.046479
0.283238 0.37113 0.0504158
0.351705 0.402853 0.0529183
0.41796 0.428626 0.0547189
0.474769 0.448005 0.0559396
0.523186 0.462196 0.0567483
0.563485 0.471931 0.0572366
0.60325 0.480934 0.0576486
0.63949 0.4869 0.057847
0.674266 0.491859 0.057969
0.708141 0.496513 0.0580758
0.738918 0.499306 0.0580758
0.768948 0.50132 0.0580148
0.797543 0.502815 0.0579385
0.828779 0.504631 0.057847
0.853391 0.505623 0.0577554
0.878813 0.506188 0.0576333
0.902251 0.506416 0.057496
0.927108 0.506615 0.0573587
0.951919 0.506966 0.0572213
0.973342 0.506325 0.0570535
0.991211 0.505898 0.0569009
1 0.505318 0.0567788
1 0.503975 0.0565957
1 0.502998 0.0564279
1 0.502205 0.0562905
1 0.501122 0.0561379
0.0798505 0.166949 0.0268711
0.0759289 0.158602 0.0256199
0.0753643 0.157427 0.0254368
0.0749981 0.156634 0.02533
0.0747234 0.156069 0.0252384
0.116915 0.249729 0.0381933
0.191623 0.320104 0.0458228
0.267369 0.371496 0.0505226
0.337148 0.406699 0.053315
0.405173 0.434897 0.0552987
0.4636 0.455894 0.056611
0.517662 0.473243 0.0576028
0.560067 0.485008 0.0581979
0.602045 0.495308 0.0586557
0.639872 0.502174 0.0588998
0.674418 0.507057 0.0590066
0.70985 0.512337 0.0591287
0.742367 0.515755 0.0591287
0.774563 0.518517 0.0590982
0.805982 0.521096 0.0590524
0.838529 0.523156 0.0589761
0.866529 0.52462 0.0588693
0.892821 0.525292 0.0587472
0.917113 0.525582 0.0585946
0.942397 0.525475 0.0584268
0.967971 0.525902 0.0582895
0.993332 0.526207 0.0581369
1 0.525597 0.0579843
1 0.525017 0.0578317
1 0.524468 0.0576944
1 0.523491 0.0575265
1 0.523095 0.0573892
1 0.521981 0.0572213
0.0814374 0.170306 0.0273747
0.0774701 0.161913 0.0261082
0.0768444 0.160571 0.0259098
0.076524 0.159869 0.025803
0.0762798 0.15938 0.025742
0.109636 0.232334 0.0360266
0.169482 0.309651 0.0448157
0.24979 0.368368 0.050309
0.319936 0.407538 0.0534676
0.38883 0.438712 0.0556802
0.452033 0.463493 0.0572519
0.50901 0.483482 0.0583963
0.553582 0.496025 0.0590066
0.595987 0.507088 0.0595102
0.636912 0.515923 0.0598306
0.673961 0.522316 0.0600137
0.710857 0.528252 0.0601358
0.745678 0.53257 0.0601663
0.779522 0.536095 0.0601511
0.81001 0.538064 0.0600595
0.843503 0.540383 0.059968
0.875303 0.542443 0.0598764
0.902785 0.543282 0.0597391
0.929931 0.544549 0.0596323
0.957824 0.545007 0.0594644
0.984848 0.545586 0.0593118
1 0.545968 0.0591592
1 0.546044 0.0590066
1 0.545907 0.0588693
1 0.544961 0.0587015
1 0.543526 0.0585184
1 0.543145 0.058381
1 0.542046 0.0582132
0.0828717 0.173327 0.0278172
0.0788434 0.164813 0.0265507
0.0783093 0.163668 0.0263828
0.0779431 0.162905 0.0262608
0.0776837 0.162325 0.0261845
0.100679 0.211795 0.0333257
0.144778 0.297108 0.0435645
0.232258 0.362966 0.0498817
0.303929 0.407431 0.0535439
0.373983 0.441489 0.0559854
0.439338 0.468254 0.0576791
0.497093 0.489891 0.0589151
0.547875 0.506386 0.0597543
0.59176 0.518639 0.0603037
0.635508 0.52929 0.0607004
0.672999 0.536324 0.0608835
0.709438 0.542046 0.0609903
0.747784 0.547951 0.0610666
0.78233 0.551812 0.0610513
0.815503 0.554986 0.0610056
0.851148 0.558068 0.0609293
0.885298 0.560555 0.0608225
0.915816 0.562127 0.0607004
0.943358 0.563119 0.0605631
0.971908 0.563668 0.0603952
0.998337 0.563867 0.0602121
1 0.564446 0.0600595
1 0.564858 0.0598764
1 0.564797 0.0597391
1 0.564294 0.0595865
1 0.563699 0.0594186
1 0.563363 0.0592813
1 0.562646 0.0591135
0.084184 0.17612 0.0282292
0.0802167 0.167727 0.026978
0.0796063 0.166445 0.0267948
0.0793164 0.165805 0.0267033
0.0790723 0.165301 0.026627
0.0906081 0.189731 0.0302434
0.131472 0.28397 0.0421607
0.214649 0.355917 0.0492866
0.287388 0.40557 0.0534676
0.358068 0.442267 0.0561227
0.426307 0.472496 0.0580606
0.485954 0.496025 0.0594186
0.540887 0.515557 0.0604257
0.584939 0.527825 0.0609445
0.630442 0.539925 0.0614023
0.669718 0.548302 0.0616312
0.708339 0.555505 0.0617838
0.747494 0.562051 0.0618753
0.784695 0.566934 0.0618753
0.819181 0.570947 0.0618601
0.854612 0.573632 0.061738
0.889265 0.57644 0.0616312
0.923354 0.578347 0.0614939
0.953384 0.580133 0.0613718
0.983993 0.581415 0.0612192
1 0.582803 0.0610666
1 0.583535 0.0608988
1 0.5841 0.0607156
1 0.584344 0.0605783
1 0.583902 0.0603952
1 0.583795 0.0602426
1 0.583474 0.0601053
1 0.582742 0.0599374
0.0853285 0.178515 0.0285954
0.0815747 0.170596 0.0274052
0.0809644 0.169299 0.0272221
0.0806287 0.168582 0.0271153
0.080415 0.168154 0.0270542
0.0802167 0.167727 0.026978
0.124468 0.268544 0.0404212
0.194644 0.344625 0.0482795
0.269398 0.401144 0.0531624
0.341238 0.442283 0.0562142
0.410147 0.474601 0.0583047
0.471977 0.499886 0.0597696
0.529274 0.521477 0.0608835
0.577417 0.537438 0.0616007
0.623514 0.55024 0.0620584
0.666056 0.56051 0.0623636
0.705516 0.568704 0.0625467
0.743801 0.574838 0.0626078
0.783169 0.580789 0.062623
0.818357 0.584833 0.0625772
0.855726 0.588708 0.062501
0.892317 0.592325 0.0624094
0.930602 0.5953 0.0622721
0.961013 0.597238 0.06215
0.992737 0.598718 0.0619821
1 0.600305 0.0618296
1 0.601724 0.061677
1 0.602609 0.0614939
1 0.602869 0.0613107
1 0.602136 0.0611276
1 0.602228 0.0609751
1 0.60206 0.0608225
1 0.601541 0.0606546
0.0862745 0.180529 0.0288853
0.0827649 0.173114 0.0277867
0.0822156 0.171954 0.0276188
0.0819104 0.171313 0.027512
0.0816358 0.170733 0.0274357
0.0814984 0.170443 0.0273899
0.11693 0.24979 0.0382086
0.171008 0.332143 0.0471351
0.252064 0.395392 0.0527352
0.324254 0.440406 0.0561532
0.393912 0.475334 0.0584573
0.459922 0.50428 0.0601358
0.517922 0.52726 0.061326
0.569604 0.545647 0.06215
0.61709 0.559991 0.0626688
0.660914 0.571099 0.0629892
0.700786 0.579873 0.0631723
0.741314 0.587594 0.0632792
0.783337 0.594705 0.0633402
0.819425 0.599527 0.0633097
0.858198 0.603845 0.0632181
0.895735 0.607782 0.0631266
0.936278 0.611627 0.0629892
0.969512 0.614054 0.0628519
1 0.615152 0.0626841
1 0.615976 0.0624857
1 0.61796 0.0623331
1 0.619028 0.06215
1 0.62005 0.0619669
1 0.620508 0.061799
1 0.620661 0.0616312
1 0.620569 0.0614786
1 0.620523 0.0613107
0.0872816 0.18265 0.0292058
0.0839704 0.175647 0.0281682
0.0833753 0.174411 0.027985
0.0830701 0.173754 0.0278782
0.0828717 0.173327 0.0278172
0.0826276 0.172824 0.0277409
0.10753 0.227451 0.0354009
0.147372 0.317601 0.0457465
0.233845 0.387335 0.0521096
0.307149 0.437568 0.0560159
0.377737 0.475639 0.0585641
0.446311 0.507286 0.0604257
0.505028 0.531731 0.0616922
0.559564 0.552193 0.0626078
0.608179 0.568429 0.0632029
0.655497 0.581994 0.0636149
0.696651 0.59147 0.0638132
0.738094 0.600229 0.0639353
0.780636 0.60795 0.0639963
0.819303 0.613794 0.0639811
0.858701 0.618494 0.0638895
0.895109 0.622126 0.0637827
0.935912 0.625864 0.0636301
0.973022 0.629007 0.0634775
1 0.631388 0.0633249
1 0.633341 0.0631571
1 0.635081 0.0629892
1 0.636255 0.0627756
1 0.638025 0.0626078
1 0.638865 0.0624247
1 0.63859 0.0622416
1 0.639078 0.062089
1 0.638056 0.0618906
0.0882124 0.184604 0.0294957
0.0849012 0.177615 0.0284581
0.0844434 0.176654 0.0283207
0.0841535 0.176059 0.0282292
0.0840162 0.175769 0.0281834
0.0838331 0.175357 0.0281224
0.0966659 0.202869 0.032105
0.137575 0.302251 0.0441596
0.214954 0.377005 0.0512703
0.290105 0.433753 0.055787
0.361227 0.474784 0.0585794
0.429526 0.507515 0.0605325
0.491753 0.535012 0.0619821
0.549737 0.558419 0.063035
0.600015 0.576547 0.0637064
0.648386 0.591608 0.0641642
0.692348 0.60296 0.0644083
0.733822 0.612238 0.0645457
0.77586 0.619593 0.0645762
0.816709 0.626596 0.0645762
0.856809 0.63209 0.0644999
0.896345 0.636866 0.0643931
0.938491 0.641413 0.0642557
0.978363 0.645182 0.0641031
1 0.647852 0.0639353
1 0.650034 0.0637675
1 0.652018 0.0635843
1 0.653315 0.0633707
1 0.654521 0.0631876
1 0.655467 0.0629587
1 0.655787 0.0627756
1 0.656336 0.062623
1 0.656428 0.0624399
0.0890822 0.186465 0.0297551
0.085771 0.179477 0.0287327
0.0853742 0.178637 0.0286107
0.0850996 0.178027 0.0285191
0.0848707 0.177554 0.0284428
0.0847791 0.177371 0.0284276
0.0855879 0.17908 0.0286717
0.131319 0.286259 0.0424201
0.196933 0.364935 0.0502327
0.272541 0.426825 0.055314
0.34432 0.471748 0.0584573
0.413901 0.508034 0.0606546
0.479225 0.538399 0.0622721
0.537789 0.563317 0.063386
0.591684 0.584009 0.0641642
0.640024 0.600244 0.0646525
0.686213 0.612787 0.0649271
0.728573 0.622843 0.0650797
0.772412 0.631846 0.0651408
0.816297 0.640589 0.0651713
0.857282 0.646159 0.065095
0.897231 0.651667 0.0649882
0.940597 0.656245 0.0648356
0.981933 0.660853 0.064683
1 0.66302 0.0644846
1 0.665354 0.0643015
1 0.667491 0.0641031
1 0.669596 0.0639048
1 0.671626 0.0637064
1 0.673289 0.0634928
1 0.673961 0.0632944
1 0.674067 0.0631113
1 0.674266 0.0629129
0.0899367 0.188266 0.0300298
0.0866712 0.181353 0.0290074
0.0861982 0.180362 0.0288701
0.0859693 0.179889 0.0287938
0.085771 0.179477 0.0287327
0.0856031 0.17911 0.0286717
0.0854963 0.178866 0.0286412
0.123247 0.265446 0.0400702
0.169635 0.348348 0.0487526
0.254047 0.41735 0.054612
0.32639 0.46685 0.0581826
0.396826 0.505821 0.0606088
0.464729 0.538842 0.0623789
0.523095 0.564797 0.0635691
0.580056 0.587671 0.0644388
0.628931 0.605493 0.0649882
0.678538 0.621912 0.0654154
0.722087 0.632975 0.0655833
0.767193 0.643214 0.0656748
0.812146 0.652934 0.0657206
0.855467 0.659876 0.0656443
0.894362 0.664668 0.0655222
0.937835 0.669993 0.0653697
0.979278 0.674464 0.0652018
1 0.678691 0.0650034
1 0.681819 0.0648356
1 0.684199 0.0646372
1 0.686458 0.0644236
1 0.688746 0.0642252
1 0.690562 0.0639811
1 0.691798 0.0637522
1 0.692576 0.0635843
1 0.69276 0.063386
0.0907912 0.190082 0.0302892
0.08748 0.183062 0.0292668
0.0870069 0.182055 0.0291142
0.0867475 0.181537 0.0290379
0.0866102 0.181231 0.0289921
0.0864424 0.18088 0.0289464
0.0863661 0.180713 0.0289158
0.114076 0.242878 0.0373541
0.150637 0.332662 0.0472877
0.237232 0.408103 0.0539101
0.31046 0.461982 0.0578927
0.381323 0.503395 0.0605173
0.448997 0.537224 0.0623789
0.509911 0.565881 0.0637064
0.571099 0.592065 0.0647288
0.62005 0.610727 0.0653086
0.670161 0.628412 0.0657664
0.716335 0.641337 0.06598
0.761013 0.651637 0.0660716
0.804379 0.660471 0.0660716
0.850904 0.669627 0.0660563
