sandaya_1.0/luts/SANDAYA_LOOK_001_0150_ACESCG_TO_ACESCG.cube
TITLE "Generated by Resolve"
LUT_3D_SIZE 33
0.00596628 0.00712596 0.00921645
0.0366979 0.0131075 0.0065156
0.0733349 0.018677 0.00402838
0.115023 0.0247654 0.00505074
0.149905 0.0293736 0.00602731
0.176257 0.0328374 0.00675975
0.197833 0.0361028 0.00743114
0.2168 0.0391699 0.00802625
0.233188 0.0417029 0.00851453
0.247776 0.0438849 0.00892653
0.26125 0.0458228 0.00929274
0.272389 0.0473793 0.00959792
0.282155 0.0487373 0.00984207
0.291905 0.0500496 0.010071
0.299992 0.051133 0.0102693
0.306371 0.0519722 0.0104219
0.312795 0.0528115 0.0105745
0.319081 0.0536202 0.0107271
0.324361 0.0542916 0.0108339
0.328969 0.0548714 0.0109407
0.333364 0.0554208 0.0110475
0.337682 0.0559548 0.0111391
0.341833 0.0564584 0.0112306
0.34551 0.0569162 0.0113069
0.348852 0.0573129 0.0113832
0.351965 0.0576944 0.0114443
0.354986 0.0580606 0.0115053
0.358038 0.0584268 0.0115816
0.360983 0.0587778 0.0116426
0.363607 0.0590829 0.0116884
0.366155 0.0593729 0.0117494
0.368322 0.0596323 0.0117952
0.370321 0.0598611 0.0118257
0.012192 0.0233005 0.0137636
0.0298924 0.0311284 0.0116426
0.0727398 0.0396277 0.00843824
0.117128 0.0464485 0.00839246
0.161883 0.0509804 0.00935378
0.196719 0.0525978 0.00981155
0.220905 0.0517433 0.00985733
0.234653 0.048661 0.00950637
0.242756 0.0459449 0.00918593
0.244602 0.0436255 0.00886549
0.239277 0.0426184 0.00869764
0.249851 0.0441749 0.00898756
0.261616 0.0458686 0.009308
0.271565 0.0472725 0.00956741
0.280858 0.0485542 0.00981155
0.28925 0.0496986 0.0100099
0.296727 0.0507057 0.010193
0.302785 0.0514992 0.0103456
0.308537 0.0522621 0.0104829
0.314061 0.0529641 0.010605
0.319677 0.0536965 0.0107271
0.324178 0.0542611 0.0108339
0.32842 0.0547951 0.0109255
0.332479 0.055314 0.011017
0.336309 0.055787 0.0111086
0.339956 0.0562295 0.0111849
0.343435 0.0566567 0.0112612
0.346456 0.057023 0.0113375
0.349294 0.0573739 0.0113985
0.351934 0.0576944 0.0114443
0.354665 0.0580148 0.0115053
0.357168 0.05832 0.0115511
0.359686 0.0586099 0.0116121
0.0208438 0.0410925 0.0156558
0.0243992 0.0482795 0.0150759
0.0712444 0.0677043 0.0120241
0.118898 0.0807965 0.0136721
0.160327 0.0884871 0.0149233
0.199847 0.0937362 0.0158236
0.235416 0.0961929 0.0162966
0.265354 0.0965286 0.0164645
0.289143 0.0953078 0.0163729
0.309468 0.0927901 0.0160983
0.324193 0.0890516 0.0156252
0.337041 0.0862593 0.0152895
0.346624 0.0823682 0.014786
0.354025 0.078706 0.014313
0.359304 0.0754559 0.0138857
0.359976 0.071458 0.0133516
0.357794 0.0666056 0.0126802
0.35491 0.0612039 0.0119326
0.350057 0.0575723 0.011429
0.342184 0.0565042 0.0112306
0.331014 0.0551308 0.0109865
0.313741 0.0529335 0.010605
0.31754 0.0534218 0.0106813
0.322118 0.0540017 0.0107881
0.32604 0.0545052 0.0108797
0.329335 0.0549172 0.010956
0.333181 0.0553902 0.0110323
0.336599 0.0558175 0.0111086
0.34023 0.05626 0.0112001
0.343435 0.0566567 0.0112612
0.346471 0.057023 0.0113375
0.349294 0.0573739 0.0113985
0.351644 0.0576486 0.0114443
0.0284428 0.0564584 0.0182803
0.028397 0.0563668 0.018265
0.0591745 0.0863813 0.0150301
0.119066 0.108812 0.0179446
0.165148 0.122255 0.0199741
0.205798 0.130312 0.0211948
0.2439 0.135683 0.022034
0.278264 0.139147 0.0225681
0.308476 0.141268 0.0229191
0.332647 0.141512 0.0229801
0.354147 0.14081 0.0229191
0.371878 0.13875 0.0226596
0.388708 0.137041 0.022446
0.403433 0.13434 0.0220951
0.415579 0.131136 0.0216678
0.426154 0.127764 0.0212253
0.433677 0.123537 0.0206607
0.439323 0.119509 0.0201267
0.444373 0.114733 0.0194858
0.447883 0.10988 0.0188296
0.450278 0.105257 0.0182193
0.449226 0.0999161 0.0175021
0.447929 0.0957046 0.0169223
0.445609 0.0914321 0.0163424
0.441276 0.0865492 0.0156863
0.436942 0.0828717 0.0151827
0.429877 0.0787366 0.0146029
0.422477 0.0740368 0.0139467
0.413367 0.0688029 0.0132143
0.404517 0.0644846 0.012604
0.395758 0.0627756 0.0123445
0.384604 0.0615091 0.0121157
0.372107 0.0600748 0.0118715
0.035523 0.0712139 0.0200351
0.0355688 0.0712749 0.0200504
0.0470588 0.0962997 0.0174258
0.111254 0.129274 0.0210727
0.164691 0.148852 0.0239414
0.20914 0.160693 0.0256657
0.25034 0.167849 0.0267033
0.289464 0.173693 0.0275425
0.32372 0.177569 0.0280919
0.351354 0.179339 0.028336
0.37528 0.179767 0.028397
0.397803 0.17998 0.0284276
0.417334 0.179294 0.028336
0.435752 0.178134 0.0281834
0.450782 0.176074 0.0279088
0.464546 0.173449 0.0275425
0.47744 0.171374 0.0272679
0.489723 0.16936 0.0269932
0.498054 0.166674 0.026627
0.506081 0.163546 0.026215
0.513008 0.160601 0.0258183
0.518898 0.157198 0.0253605
0.52195 0.15346 0.0248417
0.523705 0.149813 0.0243534
0.524804 0.145586 0.0237888
0.525246 0.141802 0.02327
0.525017 0.137285 0.0226596
0.524956 0.13344 0.0221408
0.522026 0.128618 0.0214847
0.519066 0.123949 0.0208591
0.515557 0.118883 0.0201724
0.511498 0.113588 0.0194553
0.507637 0.10901 0.0188449
0.0421607 0.0853895 0.0214847
0.0424353 0.0859846 0.0215457
0.0482948 0.0988785 0.0211795
0.0939345 0.142367 0.0231022
0.158648 0.17142 0.0273136
0.206867 0.186938 0.0295262
0.253513 0.198215 0.0310521
0.295613 0.205188 0.0319371
0.333623 0.211032 0.0326696
0.367208 0.215412 0.0331884
0.393713 0.216907 0.033341
0.419257 0.218418 0.0334936
0.439551 0.217838 0.033402
0.459785 0.217548 0.033341
0.480034 0.216632 0.0332036
0.495979 0.215045 0.03299
0.51133 0.213519 0.0327916
0.524544 0.211368 0.0325017
0.537301 0.209018 0.0322118
0.546868 0.207004 0.0319524
0.556466 0.204105 0.0315709
0.565209 0.201892 0.0312963
0.573724 0.199374 0.0309606
0.580118 0.19646 0.0305943
0.584512 0.193713 0.0302434
0.587732 0.18999 0.0297551
0.590768 0.186847 0.0293431
0.592828 0.183047 0.0288396
0.594415 0.179522 0.0283818
0.595178 0.176516 0.027985
0.594156 0.172747 0.0274815
0.593362 0.169512 0.027039
0.592096 0.165835 0.0265507
0.0479896 0.0981155 0.0225071
0.0482032 0.0986038 0.0225376
0.0481727 0.0985122 0.0225376
0.0723125 0.14789 0.0240024
0.145785 0.185718 0.0294652
0.201434 0.209247 0.0326696
0.251255 0.224277 0.0345464
0.298177 0.23476 0.0357671
0.341619 0.243687 0.036759
0.377997 0.249195 0.0373236
0.407431 0.251911 0.0375677
0.435233 0.254597 0.0378119
0.46038 0.256641 0.0379797
0.482612 0.256687 0.0379339
0.5037 0.256703 0.0378882
0.521385 0.256046 0.0377813
0.536675 0.254475 0.0375677
0.55346 0.252995 0.0373693
0.568917 0.251881 0.0372168
0.582147 0.250294 0.0370184
0.594018 0.247959 0.0367285
0.604486 0.245884 0.0364691
0.615137 0.243244 0.0361486
0.623652 0.240635 0.0358434
0.631128 0.2374 0.035462
0.635859 0.234363 0.035111
0.642084 0.231662 0.0347906
0.646418 0.228672 0.0344244
0.650813 0.225193 0.0340124
0.654994 0.222019 0.0336461
0.658274 0.219287 0.0333104
0.659327 0.21593 0.0329137
0.660014 0.212909 0.0325475
0.0532082 0.109514 0.0234379
0.0535286 0.110231 0.0234989
0.0533913 0.109911 0.0234684
0.0695964 0.145113 0.0235904
0.128191 0.193912 0.0307164
0.191943 0.22623 0.0349584
0.245502 0.246082 0.0373083
0.296559 0.261036 0.038941
0.345327 0.272908 0.0401465
0.383398 0.279744 0.0407721
0.419364 0.285359 0.0412757
0.449973 0.289891 0.0416724
0.477989 0.292836 0.041886
0.501945 0.293889 0.0419318
0.523507 0.294148 0.041886
0.544121 0.29456 0.0418708
0.562325 0.293889 0.0417487
0.581369 0.293416 0.0416419
0.598413 0.292592 0.0415045
0.615518 0.291234 0.0413062
0.628992 0.289876 0.0411231
0.64065 0.287633 0.0408637
0.652781 0.285847 0.04065
0.664485 0.283787 0.0404059
0.674235 0.280873 0.0400702
0.682567 0.278294 0.0397803
0.689479 0.276066 0.0395361
0.695872 0.273014 0.0392004
0.701686 0.270848 0.0389563
0.707454 0.267842 0.0386206
0.712459 0.264622 0.0382696
0.717556 0.262242 0.037995
0.719615 0.258824 0.0376287
0.0575418 0.118975 0.024155
0.0579538 0.11986 0.0242313
0.0578164 0.119524 0.0242008
0.0638743 0.132723 0.0240635
0.100908 0.193469 0.0307469
0.176593 0.23566 0.0362097
0.234958 0.262455 0.0393072
0.289876 0.281956 0.0413519
0.34255 0.296666 0.0427558
0.384878 0.306493 0.0436408
0.427115 0.315389 0.0444038
0.459648 0.320882 0.044831
0.4907 0.325765 0.0451972
0.5178 0.328298 0.0453346
0.541939 0.33019 0.0454261
0.563897 0.330755 0.0454108
0.58584 0.331579 0.0453956
0.606134 0.331563 0.0453193
0.625406 0.331533 0.045243
0.645747 0.331106 0.0451209
0.662104 0.330343 0.0449836
0.677211 0.328817 0.0447852
0.689723 0.327291 0.0446021
0.702815 0.324727 0.0443122
0.714 0.322774 0.0440833
0.726802 0.320653 0.0438392
0.734813 0.318654 0.0436103
0.743175 0.316152 0.0433509
0.751019 0.314397 0.0431525
0.758022 0.311559 0.0428626
0.765591 0.309041 0.0425879
0.771023 0.306401 0.0423133
0.776944 0.303532 0.0420081
0.0616922 0.127947 0.024918
0.0619211 0.128435 0.0249638
0.0619211 0.128435 0.0249638
0.0617685 0.128115 0.0249332
0.0897383 0.187839 0.0299687
0.158694 0.239399 0.0367437
0.221927 0.274342 0.0407263
0.280018 0.298253 0.0431678
0.33608 0.316609 0.044892
0.384268 0.330175 0.0460517
0.428626 0.340688 0.0469062
0.466087 0.348669 0.0475013
0.499245 0.354391 0.0478981
0.53077 0.359411 0.0482185
0.557107 0.361852 0.0483253
0.581415 0.363607 0.0483711
0.605142 0.364401 0.0483406
0.626978 0.365042 0.0483101
0.648219 0.365713 0.0482643
0.670329 0.365515 0.0481575
0.690898 0.365789 0.0480812
0.708125 0.364752 0.0479133
0.723903 0.364523 0.0478218
0.739208 0.362646 0.0475929
0.752758 0.361318 0.047425
0.767391 0.359533 0.0471962
0.778561 0.357946 0.047013
0.788891 0.355993 0.0467994
0.798047 0.353689 0.0465553
0.807187 0.352163 0.0463874
0.816022 0.349828 0.0461433
0.825147 0.348028 0.0459449
0.833219 0.346105 0.0457465
0.0650187 0.135134 0.025391
0.0652171 0.135561 0.0254215
0.0650797 0.135271 0.0254063
0.0649577 0.134981 0.025391
0.0825818 0.172732 0.0277256
0.132952 0.234592 0.0362249
0.205417 0.279911 0.041413
0.266285 0.309545 0.0444343
0.324849 0.331609 0.0464485
0.379004 0.349493 0.0479591
0.426795 0.362844 0.0489967
0.468605 0.372564 0.0496834
0.503685 0.380041 0.0501869
0.538552 0.386404 0.0505837
0.568215 0.391272 0.0508583
0.595636 0.394247 0.0509651
0.623453 0.396902 0.0510567
0.646372 0.397009 0.0509499
0.668589 0.398077 0.0509346
0.692271 0.397986 0.0507973
0.715129 0.399039 0.050782
0.736324 0.398566 0.0506294
0.754116 0.398749 0.0505531
0.772519 0.397742 0.0503853
0.789364 0.397391 0.0502785
0.806226 0.395819 0.0500649
0.821225 0.394614 0.049897
0.831907 0.392447 0.0496681
0.841932 0.390188 0.049424
0.852491 0.38883 0.0492714
0.862715 0.386572 0.0490425
0.873259 0.384604 0.0488289
0.88307 0.383474 0.0486915
0.0678721 0.141283 0.0258335
0.0681468 0.141878 0.0258793
0.0679789 0.141512 0.0258488
0.0678721 0.141283 0.0258335
0.0717937 0.149737 0.0256657
0.108003 0.225238 0.035111
0.185336 0.279103 0.0413977
0.250278 0.317098 0.0452735
0.310872 0.342397 0.0475776
0.367437 0.363134 0.0493019
0.419593 0.379095 0.0505074
0.468147 0.393332 0.0515145
0.505531 0.401495 0.0520333
0.540887 0.408515 0.0524453
0.573861 0.414893 0.0527962
0.60322 0.418982 0.0529641
0.633616 0.422278 0.0530709
0.662272 0.425437 0.0531624
0.686702 0.426795 0.0531319
0.71165 0.427207 0.0530251
0.73463 0.428199 0.0529793
0.759686 0.428428 0.0528573
0.779614 0.429221 0.0528115
0.800198 0.428611 0.0526589
0.818998 0.42884 0.0525673
0.8392 0.427985 0.0523995
0.858839 0.428077 0.0523079
0.875334 0.427283 0.0521553
0.889403 0.425971 0.0519722
0.900374 0.424704 0.0518196
0.912673 0.422797 0.0516213
0.925582 0.421332 0.0514382
0.935958 0.419715 0.0512551
0.0705119 0.146944 0.0262913
0.0708324 0.147616 0.0263523
0.0708324 0.147616 0.0263523
0.0706951 0.147326 0.0263218
0.0705119 0.146944 0.0262913
0.100526 0.211444 0.0332799
0.160998 0.272343 0.0407111
0.230304 0.318303 0.0454871
0.295262 0.351202 0.0484932
0.353536 0.374319 0.0504005
0.409796 0.393317 0.0518044
0.459831 0.409003 0.0528878
0.504448 0.421393 0.0536812
0.543145 0.430625 0.0542153
0.578119 0.437125 0.0545357
0.607996 0.441871 0.0547341
0.640223 0.446021 0.0548714
0.671366 0.449744 0.054963
0.698222 0.45214 0.0549935
0.727123 0.453895 0.0549477
0.753872 0.45597 0.0549477
0.782528 0.457115 0.0548714
0.803311 0.45745 0.0547646
0.825116 0.456855 0.0545968
0.844694 0.456794 0.05449
0.865507 0.456168 0.0543221
0.88719 0.456077 0.0541848
0.908522 0.456153 0.0540627
0.924285 0.4551 0.0539101
0.938689 0.454505 0.0537881
0.954055 0.45333 0.0536049
0.968856 0.452094 0.0534371
0.982498 0.451362 0.053315
0.0730297 0.152346 0.0264439
0.0732586 0.15285 0.0264591
0.0731365 0.152575 0.0264439
0.0730297 0.152346 0.0264439
0.0730297 0.152346 0.0264439
0.0899367 0.188281 0.0300298
0.132891 0.261753 0.0395819
0.209903 0.316335 0.0453651
0.276448 0.354833 0.0489204
0.338827 0.383429 0.0512856
0.399985 0.406912 0.0530251
0.45124 0.423484 0.054139
0.500404 0.437995 0.055024
0.54107 0.448783 0.0556344
0.579782 0.457664 0.0560922
0.614374 0.464668 0.0564126
0.648417 0.469749 0.0565652
0.68014 0.473564 0.0566567
0.710567 0.477195 0.056733
0.738933 0.47808 0.056611
0.766979 0.480385 0.056611
0.79765 0.482109 0.0565347
0.824338 0.483406 0.0564584
0.849515 0.484245 0.0563668
0.87187 0.484672 0.05626
0.896819 0.484871 0.0561227
0.921355 0.485206 0.0559854
0.943526 0.484932 0.0558328
0.961913 0.48365 0.0556344
0.975875 0.482643 0.0554971
0.991241 0.481056 0.0552987
1 0.48014 0.0551308
1 0.479377 0.0549935
0.075227 0.157061 0.0266423
0.0755016 0.157641 0.0266728
0.0753643 0.157351 0.0266575
0.0753643 0.157351 0.0266575
0.075227 0.157061 0.0266423
0.0767987 0.160433 0.0266575
0.115862 0.247135 0.0378882
0.187671 0.309758 0.0447547
0.258045 0.356802 0.0491951
0.319768 0.387961 0.0517739
0.383658 0.414481 0.0537423
0.44155 0.436118 0.0551919
0.494102 0.453574 0.05626
0.538033 0.466087 0.0569619
0.578134 0.47628 0.0574655
0.61503 0.483986 0.0577859
0.650431 0.489708 0.057969
0.685695 0.495003 0.0581216
0.71931 0.499672 0.0582284
0.752056 0.502754 0.0582132
0.782086 0.505745 0.0582284
0.814069 0.507118 0.0581064
0.842985 0.508751 0.0580301
0.868284 0.508415 0.057847
0.892378 0.509331 0.0577554
0.919081 0.509361 0.0575875
0.946029 0.509911 0.0574502
0.971786 0.510811 0.0573434
0.996948 0.510613 0.0571756
1 0.510399 0.0570535
1 0.509972 0.0569009
1 0.508736 0.0567025
1 0.508339 0.0565805
0.0775616 0.162051 0.0269627
0.0775921 0.162127 0.0269627
0.0775616 0.162051 0.0269627
0.0774548 0.161822 0.0269474
0.0774243 0.161746 0.0269474
0.0773175 0.161532 0.0269322
0.107271 0.226825 0.0353246
0.157382 0.296284 0.0434272
0.235935 0.353201 0.0489357
0.300725 0.391257 0.0521553
0.366262 0.422004 0.0544594
0.428412 0.44625 0.0560616
0.481224 0.464652 0.0571756
0.532403 0.480964 0.0580758
0.573922 0.493111 0.0586862
0.614939 0.503349 0.0591287
0.653056 0.510506 0.0593729
0.688334 0.515892 0.0594949
0.721859 0.520058 0.0595407
0.756664 0.523659 0.0595407
0.788312 0.526772 0.0595254
0.823438 0.529961 0.0594949
0.85539 0.532403 0.0594186
0.887449 0.533791 0.0592966
0.915526 0.53579 0.0592203
0.944335 0.536294 0.0590524
0.972854 0.536629 0.0588846
0.996826 0.536416 0.0587167
1 0.53637 0.0585336
1 0.536309 0.0584115
1 0.535882 0.0582437
1 0.534646 0.0580453
1 0.53434 0.057908
0.079408 0.165972 0.0272831
0.0796826 0.166552 0.0273442
0.0795758 0.166339 0.0273289
0.0795453 0.166262 0.0273136
0.079408 0.165972 0.0272831
0.079408 0.165972 0.0272831
0.093904 0.196826 0.0312505
0.131838 0.28072 0.0417945
0.212741 0.345998 0.0483406
0.279484 0.390829 0.0522164
0.346029 0.425483 0.0548409
0.411856 0.453819 0.056733
0.470436 0.476646 0.0581216
0.525521 0.495384 0.0591287
0.567803 0.50782 0.0597391
0.608499 0.518166 0.0601663
0.650858 0.528161 0.0605325
0.688304 0.534478 0.0606699
0.725856 0.54136 0.0608377
0.764965 0.546654 0.0608835
0.798184 0.550561 0.0608682
0.834653 0.553475 0.0607919
0.865736 0.555611 0.0606851
0.901366 0.557244 0.0605325
0.929488 0.558633 0.0604105
0.960311 0.559716 0.0602579
0.991363 0.560998 0.0601205
1 0.562295 0.0599832
1 0.56286 0.0598001
1 0.563272 0.0596475
1 0.562875 0.0594797
1 0.562875 0.0593271
1 0.5626 0.0591745
0.0813306 0.170062 0.0276493
0.0814679 0.170352 0.0276799
0.0813306 0.170062 0.0276493
0.0813001 0.169986 0.0276493
0.0813306 0.170062 0.0276493
0.0811933 0.169772 0.0276188
0.0812238 0.169848 0.0276341
0.122026 0.262364 0.039704
0.188968 0.334066 0.0472572
0.259251 0.387304 0.0520027
0.328161 0.427665 0.0551003
0.393729 0.458946 0.0572213
0.45623 0.483528 0.0587015
0.512764 0.504875 0.0598611
0.562066 0.521172 0.0606546
0.605539 0.534386 0.0612192
0.650721 0.545846 0.0616159
0.690715 0.554574 0.0618601
0.726986 0.560494 0.0619364
0.768093 0.566293 0.0619669
0.803082 0.57084 0.0619669
0.840986 0.574533 0.0618906
0.877668 0.579034 0.0618601
0.91725 0.581582 0.0617075
0.951141 0.584482 0.0616007
0.9832 0.585748 0.0614328
1 0.586831 0.0612497
1 0.588373 0.0611124
1 0.588159 0.0608835
1 0.588235 0.0607004
1 0.58706 0.0604868
1 0.587564 0.0603494
1 0.587808 0.0601968
0.0829938 0.173602 0.0280308
0.0831311 0.173892 0.0280613
0.083238 0.174105 0.0280919
0.0831311 0.173892 0.0280613
0.0830396 0.173663 0.0280308
0.0831006 0.173816 0.0280613
0.0829633 0.173526 0.0280156
0.110292 0.233906 0.0362249
0.154833 0.316869 0.0456397
0.236149 0.379629 0.0514076
0.304845 0.424384 0.0549477
0.372534 0.459953 0.0574197
0.440589 0.49073 0.0592966
0.499825 0.514092 0.0605783
0.554025 0.533654 0.0615091
0.596567 0.546456 0.0620127
0.642878 0.55938 0.0624552
0.684611 0.56939 0.0627298
0.724941 0.578042 0.0629129
0.76875 0.58558 0.062974
0.807584 0.591913 0.0630198
0.847425 0.596323 0.0629435
0.8851 0.600931 0.0628824
0.925765 0.603952 0.0627298
0.960388 0.605783 0.0625467
0.993484 0.607004 0.0623636
1 0.609796 0.0622263
1 0.610803 0.0620432
1 0.613184 0.0618906
1 0.614664 0.0617227
1 0.61503 0.0615091
1 0.614847 0.061326
1 0.615366 0.0611734
0.0846876 0.177157 0.0284581
0.0849165 0.177661 0.0285344
0.0847486 0.17731 0.0284733
0.0846876 0.177157 0.0284581
0.0847486 0.17731 0.0284733
0.0846418 0.177081 0.0284581
0.0846418 0.177081 0.0284581
0.0957504 0.200839 0.0318151
0.135698 0.296422 0.043534
0.210666 0.366552 0.0503243
0.283574 0.421012 0.0547799
0.352453 0.460929 0.0576028
0.419791 0.49305 0.0595865
0.48307 0.518807 0.0609903
0.539239 0.541207 0.0620737
0.588296 0.558953 0.0628061
0.636072 0.573678 0.0633097
0.682002 0.586221 0.0636454
0.723049 0.595682 0.0638285
0.767132 0.603876 0.0639048
0.806287 0.60972 0.0638895
0.846601 0.614572 0.0638132
0.885588 0.61973 0.0637369
0.929503 0.624231 0.0635996
0.970184 0.627802 0.063447
1 0.630961 0.0632944
1 0.633188 0.0631113
1 0.635813 0.0629587
1 0.638071 0.0627756
1 0.639338 0.0625772
1 0.640482 0.0623636
1 0.639857 0.06215
1 0.639521 0.0619516
0.0863355 0.180652 0.0289311
0.0863661 0.180713 0.0289311
0.0863661 0.180713 0.0289311
0.0863355 0.180652 0.0289311
0.0863355 0.180652 0.0289311
0.0862287 0.180423 0.0289006
0.0863355 0.180652 0.0289311
0.0860914 0.180148 0.0288548
0.12639 0.273442 0.0409857
0.183505 0.350591 0.0489204
0.26038 0.413092 0.0542306
0.329168 0.456779 0.0574044
0.398825 0.494087 0.0597696
0.467338 0.525872 0.0615396
0.525841 0.550118 0.0626993
0.579278 0.570504 0.0635233
0.627451 0.58616 0.0640269
0.674083 0.599756 0.0643931
0.715541 0.609827 0.0645762
0.761883 0.619608 0.064683
0.805035 0.627985 0.0647288
0.849821 0.635126 0.064683
0.88983 0.640803 0.0646067
0.935775 0.645914 0.0644694
0.978714 0.650904 0.064332
1 0.653407 0.0641031
1 0.655863 0.06392
1 0.658259 0.0637369
1 0.659236 0.0634928
1 0.661143 0.0633097
1 0.663203 0.0630808
1 0.664027 0.0628672
1 0.664363 0.0626688
0.0877394 0.183597 0.0293431
0.0879072 0.183963 0.0293889
0.0878614 0.183886 0.0293889
0.0878614 0.183886 0.0293889
0.0878309 0.18381 0.0293736
0.0878614 0.183886 0.0293889
0.0877394 0.183597 0.0293431
0.0877394 0.183597 0.0293431
0.113863 0.24239 0.0372931
0.149737 0.328283 0.0468452
0.235889 0.401144 0.053315
0.307546 0.453193 0.0572366
0.378241 0.494041 0.0598917
0.448264 0.528679 0.0618448
0.5084 0.554498 0.0630655
0.56553 0.577829 0.0640116
0.616464 0.596704 0.0646525
0.666407 0.613458 0.0651102
0.711833 0.626123 0.0653544
0.75938 0.637705 0.0654917
0.803494 0.646937 0.0655375
0.851438 0.655238 0.0654917
0.890791 0.660365 0.0653849
0.937163 0.665522 0.0652171
0.97879 0.670253 0.0650492
1 0.674846 0.0648508
1 0.677836 0.0646372
1 0.680461 0.0644541
1 0.682933 0.06421
1 0.68632 0.0640269
1 0.689143 0.063798
1 0.690639 0.0635386
1 0.69099 0.0633249
0.0890974 0.186496 0.0297704
0.0892195 0.18674 0.0298009
0.0890974 0.186496 0.0297704
0.0890974 0.186496 0.0297704
0.089128 0.186557 0.0297704
0.0890059 0.186297 0.0297398
0.0890974 0.186496 0.0297704
0.0890974 0.186496 0.0297704
0.0959793 0.201343 0.0318914
0.138354 0.305104 0.0444648
0.209125 0.384298 0.051957
0.283726 0.444892 0.0567025
0.353826 0.488685 0.0596323
0.424811 0.526345 0.0618296
0.489845 0.558175 0.0634012
0.550042 0.585138 0.0644999
0.606409 0.60795 0.0652781
0.656855 0.625971 0.0657511
0.705715 0.641566 0.0660716
0.752682 0.652689 0.0661784
0.795636 0.661952 0.0662089
0.845441 0.671733 0.0661784
0.888518 0.678996 0.0661021
0.936599 0.685313 0.0659342
0.982086 0.691463 0.0657664
1 0.697261 0.0655528
1 0.701747 0.0653239
1 0.705303 0.0651408
1 0.708705 0.0648966
1 0.711376 0.0646525
1 0.713436 0.0643931
1 0.715251 0.0641184
1 0.71458 0.0638743
0.0903029 0.189059 0.0301366
0.0903029 0.189059 0.0301366
0.0903029 0.189059 0.0301366
0.0902113 0.188876 0.0301061
0.0902113 0.188876 0.0301061
0.0902113 0.188876 0.0301061
0.0902113 0.188876 0.0301061
0.0901503 0.188739 0.0300908
0.0901503 0.188739 0.0300908
0.128435 0.278721 0.0415808
0.177646 0.363149 0.0501411
0.25893 0.431403 0.0557412
0.331777 0.482841 0.0593271
0.404364 0.524376 0.0618143
0.472816 0.55964 0.0635843
0.533181 0.588312 0.0647898
0.593194 0.613321 0.0656291
0.644144 0.63267 0.0661479
0.693187 0.6495 0.0664988
0.744289 0.664179 0.0666972
0.789517 0.6757 0.0667735
0.842603 0.687602 0.0667735
0.888441 0.696468 0.0666972
0.939147 0.704768 0.0665599
0.985412 0.711223 0.0663767
1 0.717906 0.0661479
1 0.723018 0.0659037
1 0.725505 0.0656748
1 0.72842 0.0654154
1 0.732128 0.0651865
1 0.735561 0.0649119
1 0.738735 0.064622
1 0.740673 0.0643473
0.091371 0.191333 0.0304723
0.0914778 0.191592 0.0305028
0.0913863 0.191394 0.0304723
0.0914778 0.191592 0.0305028
0.091371 0.191333 0.0304723
0.0913863 0.191394 0.0304723
0.09131 0.191211 0.030457
0.091371 0.191333 0.0304723
0.091371 0.191333 0.0304723
0.112383 0.238849 0.0368505
0.150561 0.336919 0.047715
0.23154 0.414267 0.0544594
0.306325 0.473396 0.0587778
0.379553 0.518746 0.0615854
0.447745 0.555505 0.0634928
0.509972 0.586816 0.0648508
0.57499 0.616358 0.0659037
0.628962 0.639002 0.0665293
0.679179 0.657542 0.0669413
0.733883 0.675258 0.0672007
0.779904 0.688167 0.0672923
0.833326 0.701411 0.0673228
0.882429 0.712184 0.0672618
0.930877 0.719081 0.0670634
0.974258 0.725124 0.0668803
1 0.73196 0.0666514
1 0.738293 0.0663767
1 0.74316 0.0661631
1 0.74873 0.0659037
1 0.752422 0.0656443
1 0.75613 0.0653697
1 0.76022 0.0650645
1 0.763363 0.064744
0.0924544 0.193683 0.030808
0.0925765 0.193942 0.0308385
0.0924544 0.193683 0.030808
0.0924544 0.193683 0.030808
0.0924544 0.193683 0.030808
0.0923781 0.1935 0.0307774
0.0924544 0.193683 0.030808
0.0924544 0.193683 0.030808
0.092256 0.19324 0.0307469
0.0959487 0.201297 0.0318761
0.141787 0.31458 0.0454566
0.207874 0.396994 0.0530861
0.283696 0.462104 0.0580453
0.357137 0.511543 0.0612192
0.427192 0.552071 0.0634165
0.493843 0.587701 0.0650034
0.558007 0.619715 0.0661631
0.618799 0.646067 0.0669108
0.670054 0.666728 0.0673686
0.727153 0.686244 0.0676585
0.772686 0.699382 0.0677501
0.823255 0.711177 0.0677195
0.873472 0.723384 0.0676738
0.92604 0.73283 0.0675059
0.974792 0.74107 0.0673228
1 0.74934 0.0670939
1 0.757229 0.0668345
1 0.762188 0.0665599
1 0.767147 0.0662852
1 0.772213 0.0660258
1 0.776867 0.0657206
1 0.78085 0.0654002
1 0.782757 0.0650797
0.0935225 0.196002 0.0311437
0.0935225 0.196002 0.0311437
0.0935225 0.196002 0.0311437
0.0934768 0.19588 0.0311131
0.0935225 0.196002 0.0311437
0.0934768 0.19588 0.0311131
0.0935225 0.196002 0.0311437
0.0934157 0.195743 0.0310979
0.0934157 0.195743 0.0310979
0.0934157 0.195743 0.0310979
0.129015 0.280217 0.0417487
0.170932 0.370138 0.0508278
0.256397 0.44538 0.0568856
0.331167 0.50193 0.0607004
0.402289 0.546044 0.0632029
0.471641 0.585077 0.0650034
0.536919 0.619638 0.0663157
0.602411 0.650553 0.067216
