sandaya_1.0/luts/SANDAYA_LOOK_001_0140_ACESCG_TO_ACESCG.cube
TITLE "Generated by Resolve"
LUT_3D_SIZE 33
0.00500496 0.00576791 0.00746166
0.0268711 0.011368 0.00598154
0.0555123 0.0161746 0.00416571
0.086244 0.020676 0.00430304
0.118288 0.0252232 0.00514229
0.144717 0.0287022 0.00588998
0.167239 0.031693 0.0065156
0.185336 0.0341344 0.00703441
0.200809 0.0365911 0.0075227
0.215259 0.0389258 0.00798047
0.228443 0.0409857 0.0083772
0.240238 0.042771 0.0087129
0.250874 0.0443275 0.00901808
0.261494 0.0458534 0.009308
0.270283 0.0470893 0.00953689
0.277821 0.0481422 0.00973526
0.285451 0.0491798 0.00991836
0.293034 0.0502022 0.0101015
0.298512 0.0509346 0.0102388
0.303838 0.0516365 0.0103609
0.308919 0.0523079 0.0104829
0.313878 0.0529488 0.010605
0.318532 0.0535439 0.0107118
0.322438 0.0540475 0.0108034
0.326131 0.0545052 0.0108797
0.329854 0.0549783 0.0109712
0.333349 0.0554208 0.0110475
0.336721 0.0558328 0.0111238
0.340078 0.0562448 0.0111849
0.343069 0.056611 0.0112612
0.345632 0.0569314 0.0113069
0.348043 0.0572213 0.011368
0.350607 0.0575265 0.0114137
0.0100862 0.0190585 0.0119326
0.0225528 0.0246128 0.0111086
0.0516976 0.0314641 0.00926223
0.0842908 0.0368811 0.00672923
0.119539 0.0411841 0.00758373
0.151629 0.0434424 0.00814832
0.177798 0.044007 0.00840772
0.196048 0.0430762 0.00840772
0.208728 0.0423438 0.00840772
0.215549 0.0413977 0.00833143
0.21706 0.0393072 0.0080415
0.216114 0.0390631 0.00799573
0.228046 0.0409247 0.00836194
0.238453 0.0424964 0.00866712
0.248142 0.0439307 0.00894179
0.257313 0.0452583 0.00920119
0.265568 0.0464332 0.00941482
0.272602 0.0474098 0.00959792
0.279423 0.0483558 0.00976577
0.286107 0.0492714 0.00993362
0.292622 0.0501564 0.0101015
0.297612 0.0508125 0.0102235
0.302541 0.0514687 0.0103304
0.30695 0.0520485 0.0104372
0.311376 0.0526284 0.010544
0.315358 0.0531319 0.0106355
0.319387 0.0536507 0.0107271
0.322621 0.0540627 0.0108034
0.325811 0.0544747 0.0108797
0.329213 0.054902 0.010956
0.332052 0.0552529 0.011017
0.335149 0.0556344 0.0110781
0.338079 0.0560006 0.0111543
0.0171511 0.0336309 0.0143282
0.0192264 0.0378882 0.014374
0.0464027 0.049836 0.0122683
0.0826581 0.0589609 0.0103761
0.115145 0.065919 0.0113985
0.147372 0.0711223 0.0122835
0.17789 0.0738994 0.0128176
0.207126 0.075761 0.0132296
0.232654 0.0767529 0.0135042
0.254383 0.0770886 0.0136568
0.269612 0.0756847 0.0135195
0.28365 0.0739605 0.0133516
0.294911 0.0724498 0.0131838
0.303822 0.0706493 0.0129854
0.310903 0.0684825 0.0127108
0.314519 0.0654307 0.012314
0.31754 0.0623941 0.011902
0.319341 0.0588235 0.011429
0.318608 0.0551156 0.0109255
0.316274 0.0533455 0.0106661
0.312581 0.052781 0.0105745
0.306081 0.0519417 0.0104219
0.295338 0.0505226 0.0101625
0.295445 0.0505379 0.0101625
0.299718 0.0511025 0.0102693
0.30428 0.0516976 0.0103761
0.308415 0.0522469 0.0104677
0.312627 0.052781 0.0105745
0.316472 0.0532845 0.0106661
0.320378 0.0537881 0.0107576
0.323293 0.0541543 0.0108186
0.326452 0.054551 0.0108949
0.329534 0.0549325 0.010956
0.0239872 0.047425 0.0166934
0.0239872 0.047425 0.0166934
0.0384833 0.0648356 0.0148928
0.0801099 0.0805524 0.0136721
0.117464 0.0924697 0.0154574
0.150652 0.100984 0.0167697
0.180896 0.106279 0.0176089
0.209735 0.110536 0.0183108
0.2383 0.113634 0.0188296
0.261341 0.115023 0.019089
0.284337 0.115923 0.0192721
0.302403 0.115541 0.0192721
0.319402 0.114855 0.0192111
0.334142 0.113481 0.0190585
0.346746 0.111345 0.0187991
0.357656 0.108736 0.0184634
0.367559 0.10602 0.0181125
0.37586 0.102785 0.0176852
0.383383 0.0992142 0.0172274
0.389746 0.0959945 0.0168002
0.39469 0.09308 0.0164187
0.39765 0.0898756 0.0159915
0.399252 0.0867323 0.0155795
0.399832 0.0831617 0.0150912
0.399832 0.0805829 0.0147555
0.398596 0.0776226 0.0143435
0.395682 0.0747845 0.0139467
0.39173 0.0709544 0.0134127
0.387503 0.0677043 0.0129549
0.382239 0.0633707 0.0123598
0.377249 0.0609293 0.0120089
0.37116 0.059968 0.0118563
0.363546 0.0590677 0.0116884
0.0297856 0.0592203 0.0184787
0.0299077 0.0594949 0.0185092
0.0363928 0.073228 0.0174411
0.0705882 0.0953231 0.0159762
0.115297 0.112551 0.0185245
0.152529 0.124788 0.0203555
0.184039 0.132204 0.0214542
0.214023 0.137835 0.0223087
0.244327 0.142672 0.0230411
0.270359 0.145327 0.0234531
0.294759 0.147723 0.0238193
0.316991 0.14934 0.0240635
0.335576 0.149966 0.0241855
0.353109 0.150011 0.0242008
0.368368 0.149111 0.024094
0.381903 0.147997 0.0239567
0.395468 0.147051 0.0238499
0.407507 0.145541 0.0236515
0.418402 0.14342 0.0233768
0.42797 0.141543 0.0231327
0.436347 0.139223 0.0228122
0.444297 0.136339 0.0224308
0.450248 0.133883 0.0221103
0.454704 0.130632 0.0216678
0.458625 0.127672 0.0212711
0.462348 0.124483 0.0208438
0.465431 0.121309 0.0204166
0.467628 0.117586 0.019913
0.468223 0.114275 0.0194705
0.467689 0.110124 0.0189059
0.467323 0.106661 0.0184482
0.465965 0.102541 0.0178836
0.464652 0.0993515 0.0174563
0.0354009 0.0709239 0.0198978
0.0357824 0.0717479 0.0199741
0.0379339 0.0763409 0.0200961
0.0552071 0.10428 0.0174258
0.107591 0.128023 0.0208896
0.14963 0.144366 0.0232853
0.184497 0.155169 0.0248722
0.215503 0.161822 0.0258335
0.247684 0.168078 0.0267338
0.278676 0.172976 0.0274357
0.30457 0.17586 0.0278477
0.32929 0.17818 0.0281834
0.350057 0.179553 0.0283665
0.369314 0.180591 0.0285191
0.387427 0.181079 0.0285801
0.403189 0.180987 0.0285801
0.417288 0.180087 0.0284581
0.430777 0.178943 0.0282902
0.443427 0.177783 0.0281376
0.454902 0.176471 0.0279545
0.466377 0.174899 0.0277409
0.475975 0.173159 0.027512
0.486152 0.17142 0.0272831
0.494301 0.16994 0.0270848
0.500954 0.167681 0.0267643
0.506096 0.165423 0.0264591
0.511452 0.16289 0.0261234
0.515969 0.160739 0.0258335
0.520302 0.157763 0.0254368
0.52343 0.155474 0.0251164
0.525307 0.152712 0.0247501
0.52639 0.149554 0.0243229
0.527733 0.147112 0.0239872
0.0408484 0.0825666 0.021088
0.0411994 0.083299 0.0211643
0.0411536 0.0832227 0.021149
0.0531472 0.109651 0.0188296
0.0944076 0.13904 0.0225986
0.143114 0.161135 0.0258183
0.180713 0.174472 0.0277256
0.21529 0.184268 0.0291295
0.249546 0.192096 0.0301976
0.28159 0.197742 0.0309453
0.310567 0.202121 0.0315099
0.337667 0.205722 0.0319524
0.362631 0.208682 0.0323186
0.38294 0.210117 0.0324865
0.401373 0.210773 0.0325475
0.41857 0.21117 0.032578
0.435279 0.21091 0.0325322
0.450431 0.210727 0.0324865
0.46482 0.210361 0.0324407
0.47895 0.209186 0.0322728
0.490929 0.208484 0.0321813
0.502251 0.206867 0.0319677
0.512489 0.205554 0.0317845
0.522713 0.203815 0.0315557
0.531029 0.20206 0.0313268
0.53901 0.200122 0.0310826
0.546166 0.198688 0.0308995
0.553231 0.196551 0.0306249
0.55964 0.194934 0.0304112
0.565942 0.19263 0.0301061
0.570779 0.190112 0.0297856
0.573953 0.188052 0.0295109
0.576944 0.185473 0.0291752
0.0457313 0.0931716 0.0220188
0.0461585 0.0941329 0.0220798
0.0460517 0.0938888 0.0220645
0.0530404 0.109255 0.0215305
0.0754711 0.144976 0.0235447
0.133028 0.172732 0.0275731
0.175174 0.190372 0.0300755
0.212558 0.20383 0.0319066
0.248585 0.213535 0.0331426
0.282506 0.220691 0.0340124
0.315694 0.22707 0.0347601
0.344808 0.232242 0.0353552
0.372473 0.236347 0.0357977
0.393881 0.238453 0.0360113
0.413474 0.239796 0.0361334
0.433921 0.241459 0.036286
0.451743 0.24239 0.0363622
0.467643 0.242664 0.0363622
0.483925 0.242893 0.0363622
0.499062 0.242527 0.036286
0.511193 0.241764 0.0361791
0.524208 0.240803 0.0360418
0.535363 0.239628 0.0358892
0.546532 0.237858 0.0356603
0.557321 0.236774 0.035523
0.567636 0.235431 0.0353552
0.575753 0.233692 0.0351263
0.583856 0.231754 0.0348974
0.592111 0.229847 0.0346532
0.599771 0.228595 0.0345006
0.60708 0.226261 0.0342107
0.613214 0.224201 0.0339666
0.616724 0.221607 0.0336461
0.0502022 0.102968 0.022797
0.050721 0.104128 0.0228885
0.0505837 0.103792 0.022858
0.0504311 0.103456 0.0228428
0.0699779 0.145937 0.0237125
0.117449 0.179522 0.0286259
0.16553 0.202808 0.0318608
0.205814 0.220233 0.0341344
0.244129 0.232486 0.0356146
0.280476 0.242237 0.0367437
0.316396 0.250828 0.0376745
0.348089 0.257237 0.0383459
0.377768 0.262928 0.0389105
0.402792 0.266133 0.0392004
0.424262 0.268559 0.0394141
0.446159 0.270848 0.0396124
0.46566 0.272374 0.0397192
0.482704 0.273426 0.0397955
0.50013 0.273991 0.0398108
0.516274 0.274723 0.0398413
0.531136 0.274495 0.0397803
0.543709 0.273274 0.0396277
0.556085 0.272206 0.0394751
0.568429 0.271519 0.0393683
0.581109 0.270375 0.0392157
0.593072 0.269551 0.0390936
0.603189 0.26804 0.0389105
0.611887 0.266697 0.0387427
0.621134 0.265171 0.0385595
0.629618 0.263981 0.038407
0.638437 0.262196 0.0381933
0.646845 0.26038 0.0379797
0.653178 0.258808 0.0377966
0.0542 0.111696 0.0234989
0.0545663 0.11249 0.0235599
0.0545663 0.11249 0.0235599
0.0544137 0.112169 0.0235294
0.0673381 0.140291 0.0229648
0.0958724 0.181399 0.0289769
0.153414 0.210788 0.0330053
0.19736 0.232853 0.0357977
0.238865 0.249516 0.0377508
0.277546 0.261677 0.0390784
0.314443 0.271351 0.0400702
0.349905 0.280125 0.0409247
0.381292 0.286717 0.0415503
0.411414 0.292653 0.0420844
0.433845 0.295613 0.0423285
0.456397 0.297887 0.0424811
0.477806 0.300771 0.0427253
0.496529 0.302586 0.0428473
0.514916 0.303395 0.0428626
0.53164 0.304524 0.0429236
0.548775 0.305119 0.0429389
0.563851 0.305348 0.0429084
0.577478 0.30428 0.0427558
0.590097 0.303731 0.0426642
0.603479 0.30251 0.0424964
0.616281 0.302129 0.0424048
0.62916 0.301198 0.0422827
0.63888 0.300389 0.0421607
0.649577 0.299153 0.0420081
0.659327 0.297581 0.0418097
0.668589 0.296422 0.0416724
0.678462 0.295064 0.0415045
0.687587 0.293385 0.0413062
0.0578317 0.11957 0.0241093
0.0581979 0.120378 0.0241855
0.0581216 0.120226 0.0241703
0.057969 0.11989 0.0241398
0.0624094 0.129534 0.0241398
0.0855726 0.178897 0.0286412
0.136934 0.213535 0.0334325
0.18555 0.240787 0.0368353
0.229221 0.261494 0.0392157
0.270817 0.276875 0.0408484
0.30988 0.288777 0.0420233
0.347097 0.298497 0.0429389
0.38085 0.306966 0.0437018
0.412665 0.314244 0.0443427
0.440482 0.319722 0.0447852
0.464988 0.323293 0.0450446
0.486854 0.32668 0.045304
0.506996 0.328893 0.0454414
0.526604 0.330404 0.0455177
0.544411 0.332143 0.0456092
0.5635 0.333455 0.0456703
0.580499 0.334707 0.045716
0.596902 0.334768 0.045655
0.611383 0.335241 0.045655
0.625711 0.334173 0.0454871
0.639033 0.333883 0.0454108
0.652842 0.332845 0.0452583
0.664836 0.332677 0.0451972
0.675868 0.331304 0.0450294
0.687556 0.33022 0.0448768
0.697368 0.329473 0.04477
0.708644 0.328298 0.0446174
0.719142 0.326787 0.0444343
0.0610208 0.126497 0.0247044
0.0615549 0.127642 0.0248112
0.061326 0.127153 0.0247654
0.0612039 0.126909 0.0247349
0.0612039 0.126909 0.0247349
0.0818036 0.171069 0.0274815
0.11754 0.212467 0.0333562
0.171969 0.24567 0.0374914
0.217899 0.270008 0.040238
0.261448 0.288808 0.0422065
0.303227 0.303838 0.0436866
0.342855 0.315938 0.0447852
0.378561 0.325277 0.045594
0.411536 0.333349 0.0462501
0.443671 0.341024 0.0468605
0.470619 0.346227 0.0472572
0.494453 0.350607 0.0475624
0.517159 0.354253 0.0478065
0.537026 0.355779 0.0478676
0.554726 0.356878 0.0478828
0.575158 0.358999 0.0479896
0.593545 0.360616 0.0480507
0.611215 0.360952 0.0480049
0.627466 0.362173 0.0480507
0.644541 0.362341 0.0479896
0.65919 0.362417 0.0479286
0.675807 0.362356 0.0478523
0.690394 0.362509 0.0477913
0.701274 0.361135 0.0476387
0.714229 0.360449 0.0475166
0.724178 0.359472 0.0473793
0.735607 0.358328 0.0472267
0.747051 0.356878 0.0470588
0.0636912 0.13225 0.0251011
0.0641184 0.133196 0.0251621
0.0641184 0.133196 0.0251621
0.0641184 0.133196 0.0251621
0.0638437 0.132616 0.0251164
0.0748302 0.156283 0.0253147
0.0983597 0.20621 0.0325628
0.154681 0.244678 0.0374304
0.20502 0.275608 0.0409247
0.249348 0.297429 0.0431983
0.293019 0.315129 0.0449073
0.335164 0.329763 0.0462196
0.375891 0.342458 0.047303
0.409827 0.351507 0.0480201
0.44213 0.359579 0.0486305
0.472862 0.366552 0.049134
0.498192 0.371817 0.049485
0.522622 0.376913 0.0498207
0.546731 0.380285 0.0500038
0.566583 0.38265 0.0501259
0.587594 0.384466 0.0501869
0.606638 0.386267 0.050248
0.627283 0.387747 0.0502632
0.642542 0.388342 0.050248
0.659983 0.388266 0.0501564
0.676204 0.389059 0.0501411
0.694286 0.389395 0.0500801
0.711803 0.389838 0.0500343
0.725399 0.389471 0.0499428
0.739528 0.38909 0.049836
0.75198 0.389059 0.0497749
0.76466 0.387884 0.0496223
0.7785 0.38732 0.0495003
0.0662699 0.137835 0.0254826
0.0665446 0.138415 0.0255131
0.0665446 0.138415 0.0255131
0.0665141 0.138354 0.0255131
0.0664073 0.138125 0.0254978
0.0665446 0.13843 0.0255283
0.0940414 0.197131 0.0312963
0.132433 0.239139 0.0368048
0.188693 0.275715 0.041001
0.23682 0.303166 0.0438697
0.281315 0.323125 0.0457771
0.323674 0.339086 0.0471962
0.365759 0.353674 0.0484169
0.40415 0.365621 0.0493629
0.438819 0.375265 0.0500801
0.474083 0.384573 0.0507362
0.49929 0.38999 0.0510719
0.524727 0.395575 0.0514382
0.550332 0.399878 0.051667
0.571756 0.403128 0.0518349
0.594812 0.40618 0.0519722
0.615412 0.408789 0.052079
0.638346 0.411322 0.0521706
0.656214 0.412528 0.0521706
0.676234 0.413825 0.0521706
0.693339 0.414878 0.0521553
0.711498 0.414908 0.0520638
0.728985 0.415 0.0519875
0.744915 0.415351 0.0519265
0.759731 0.414923 0.0518196
0.774624 0.415747 0.0518044
0.7888 0.415137 0.0516823
0.804044 0.414969 0.0515908
0.0685283 0.142687 0.0258335
0.0688792 0.143435 0.0258946
0.0688792 0.143435 0.0258946
0.0688792 0.143435 0.0258946
0.0687419 0.14313 0.0258793
0.0686351 0.142916 0.025864
0.0867628 0.181552 0.0290379
0.112581 0.232181 0.035996
0.171862 0.272908 0.0407416
0.221897 0.305074 0.0441291
0.268833 0.329274 0.0464485
0.313802 0.348501 0.0481575
0.356863 0.364385 0.0494698
0.397848 0.377951 0.0505074
0.432761 0.388159 0.0512398
0.470756 0.398993 0.0519875
0.499748 0.406592 0.052491
0.526238 0.412818 0.0528725
0.554772 0.418845 0.0532082
0.578408 0.423285 0.0534371
0.601663 0.426291 0.0535592
0.621927 0.428214 0.0536049
0.644572 0.430579 0.0536507
0.665446 0.433051 0.0537423
0.686229 0.434775 0.0537575
0.704387 0.435737 0.053727
0.72462 0.436561 0.0536812
0.745144 0.437797 0.0536507
0.763699 0.438712 0.0536202
0.781216 0.439048 0.0535439
0.796567 0.439643 0.0535134
0.811902 0.439338 0.0533913
0.826444 0.438621 0.0532692
0.0708324 0.147646 0.0261997
0.0710307 0.148074 0.026215
0.0710307 0.148074 0.026215
0.0709697 0.147936 0.0261997
0.0708629 0.147723 0.0261997
0.0708324 0.147646 0.0261997
0.0769818 0.160861 0.0261082
0.104662 0.220783 0.0345312
0.149569 0.266529 0.0400854
0.20589 0.304936 0.0441749
0.254032 0.333227 0.0469062
0.299611 0.354101 0.0487526
0.344167 0.372229 0.050248
0.388006 0.388525 0.0514992
0.427024 0.401587 0.05243
0.46627 0.413565 0.0532387
0.49839 0.422263 0.0537881
0.524239 0.428458 0.054139
0.553536 0.434852 0.05449
0.580346 0.44097 0.0548257
0.605188 0.444511 0.0549477
0.627787 0.448051 0.0550851
0.65275 0.451225 0.0551919
0.675471 0.454276 0.0552834
0.697826 0.456611 0.0553292
0.716258 0.457374 0.0552682
0.735821 0.457847 0.0551919
0.756283 0.458564 0.0551308
0.775723 0.459876 0.0551003
0.796597 0.460639 0.0550393
0.813519 0.461372 0.0549935
0.829374 0.461372 0.054902
0.847364 0.461753 0.0548257
0.0726635 0.151583 0.0262913
0.0729992 0.1523 0.0263066
0.0729381 0.152148 0.0263066
0.0729992 0.1523 0.0263066
0.0729381 0.152148 0.0263066
0.0728313 0.151934 0.0263066
0.072694 0.151659 0.0262913
0.0975509 0.204837 0.0323796
0.126589 0.256214 0.0389563
0.186526 0.299229 0.0436255
0.237354 0.332891 0.0469368
0.285359 0.358709 0.0492561
0.331624 0.379797 0.0509957
0.375814 0.397009 0.0522927
0.416831 0.410986 0.0532845
0.456733 0.423774 0.0541238
0.493553 0.43537 0.0548562
0.523049 0.443854 0.0553597
0.553826 0.451591 0.055787
0.58172 0.458167 0.0561227
0.60853 0.462684 0.0562905
0.630106 0.465187 0.0563516
0.656001 0.469017 0.0564736
0.679438 0.472374 0.0565805
0.704295 0.475196 0.0566262
0.72488 0.477165 0.0566415
0.747524 0.478645 0.0565957
0.770718 0.480598 0.0565957
0.791455 0.482094 0.0565652
0.814755 0.483421 0.0565194
0.833646 0.484367 0.0564736
0.850294 0.484382 0.0563668
0.867353 0.483757 0.0562295
0.0746166 0.155764 0.0264591
0.0748302 0.156207 0.0264897
0.0748302 0.156207 0.0264897
0.0747845 0.15613 0.0264897
0.0747845 0.15613 0.0264897
0.0746471 0.15584 0.0264744
0.0746471 0.15584 0.0264744
0.0881361 0.184451 0.0294652
0.115023 0.245121 0.0376287
0.167712 0.292912 0.0430152
0.222156 0.332097 0.0469215
0.270039 0.360723 0.0495155
0.317098 0.383276 0.0513771
0.363333 0.403433 0.0529183
0.408011 0.420661 0.0541238
0.450675 0.435737 0.0551156
0.487922 0.447913 0.0558633
0.519356 0.456657 0.0563668
0.550317 0.464652 0.0567788
0.578714 0.471763 0.0571298
0.609201 0.478355 0.0574197
0.63415 0.482826 0.0575875
0.661006 0.486748 0.0576944
0.685756 0.491066 0.057847
0.713283 0.494652 0.0579232
0.73492 0.49688 0.0579385
0.75697 0.49807 0.0578775
0.779004 0.498772 0.0577859
0.79971 0.500359 0.0577554
0.823926 0.501564 0.0576791
0.846616 0.503319 0.0576486
0.864973 0.503822 0.0575723
0.885374 0.504417 0.0574807
0.0762951 0.159335 0.026688
0.0766003 0.159991 0.0267338
0.0766308 0.160067 0.0267338
0.0766308 0.160067 0.0267338
0.0764935 0.159777 0.0267185
0.0764935 0.159777 0.0267185
0.0763256 0.159411 0.026688
0.0768139 0.160464 0.0267185
0.108629 0.229984 0.0357366
0.141299 0.281209 0.0418097
0.202625 0.325795 0.0463722
0.253758 0.360311 0.049546
0.302312 0.386801 0.0517586
0.349996 0.409613 0.0534981
0.393805 0.426764 0.0547036
0.439124 0.443214 0.0557717
0.477333 0.456718 0.0565957
0.514961 0.469444 0.0573434
0.547677 0.478752 0.0578164
0.577035 0.486534 0.0581979
0.609628 0.49456 0.0585641
0.635843 0.499962 0.0587778
0.661891 0.50338 0.0588388
0.685679 0.506569 0.0588998
0.71429 0.510903 0.0590066
0.73846 0.513893 0.0590372
0.76286 0.516121 0.0590219
0.788464 0.518318 0.0589914
0.810544 0.520424 0.0589914
0.837034 0.522271 0.0589303
0.862074 0.523751 0.058854
0.881132 0.524666 0.0587778
0.903441 0.525765 0.0587015
0.0780499 0.163088 0.0269627
0.0783551 0.163745 0.0270237
0.078294 0.163607 0.0270085
0.0781872 0.163378 0.0269932
0.0783246 0.163668 0.0270237
0.0781567 0.163302 0.026978
0.0781567 0.163302 0.026978
0.0781567 0.163302 0.026978
0.0988937 0.207782 0.0327764
0.125628 0.268818 0.0404517
0.183658 0.318074 0.0456397
0.236576 0.357961 0.0493935
0.2851 0.387259 0.0518807
0.333196 0.411353 0.053727
0.380255 0.43241 0.0552224
0.429099 0.452094 0.0565194
0.46894 0.466987 0.0574197
0.507439 0.480751 0.0581979
0.542626 0.490776 0.0587167
0.571145 0.498238 0.0590524
0.60444 0.506935 0.0594492
0.633555 0.514122 0.0597391
0.662562 0.51902 0.0598764
0.688624 0.523796 0.0599985
0.718242 0.528283 0.06009
0.744961 0.532433 0.0601663
0.77026 0.534936 0.0601511
0.796826 0.537362 0.0601205
0.819074 0.539315 0.0600748
0.845472 0.541253 0.0600137
0.871046 0.542885 0.0599374
0.892149 0.543786 0.0598459
0.914611 0.544625 0.0597391
0.0795911 0.166384 0.0272526
0.0798352 0.166888 0.0272984
0.0798657 0.166949 0.0273136
0.0798657 0.166949 0.0273136
0.0798352 0.166888 0.0272984
0.0798352 0.166888 0.0272984
0.0798352 0.166888 0.0272984
0.0796674 0.166522 0.0272679
0.0872969 0.182696 0.0292058
0.118593 0.253849 0.0386969
0.156466 0.305592 0.0444343
0.217227 0.351034 0.0488136
0.268345 0.386191 0.0518502
0.317586 0.413687 0.0540017
0.366171 0.437263 0.0556802
0.415442 0.457877 0.057023
0.456214 0.47335 0.0579538
0.495766 0.488014 0.058793
0.536492 0.501808 0.0595102
0.567758 0.511406 0.0599832
0.602213 0.521248 0.0604105
0.633066 0.529076 0.0607004
0.663783 0.535409 0.0608988
0.69015 0.54023 0.0610056
0.719051 0.544564 0.0610666
0.747082 0.548974 0.0611429
0.772641 0.551232 0.0610971
0.799695 0.554238 0.0610666
0.824628 0.557382 0.0610819
0.852705 0.55967 0.0610056
0.88011 0.561608 0.060914
0.906844 0.564675 0.0608988
0.930617 0.565301 0.0607614
0.0810864 0.169528 0.0275578
0.0813916 0.170184 0.0276188
0.0813916 0.170184 0.0276188
0.0814221 0.170245 0.0276188
0.0813458 0.170108 0.0276036
0.0813458 0.170108 0.0276036
0.0812543 0.169894 0.0275883
0.0812543 0.169894 0.0275883
0.0812085 0.169818 0.0275731
0.109514 0.232059 0.035996
0.136049 0.291234 0.0429541
0.197681 0.342153 0.0480354
0.250751 0.382284 0.0515908
0.299733 0.412161 0.0539559
0.348241 0.437247 0.0557717
0.399863 0.461234 0.0573739
0.445365 0.480186 0.0585184
0.485588 0.496132 0.0594186
0.528572 0.51165 0.0602426
0.562493 0.522866 0.0607614
0.596536 0.532708 0.0611734
0.627878 0.541268 0.0614939
0.659953 0.548333 0.0617075
0.687053 0.553719 0.0618296
0.7187 0.559991 0.0619669
0.747616 0.565255 0.0620584
0.777752 0.569238 0.0620584
0.806714 0.573129 0.0620584
0.8318 0.576165 0.0620432
0.861936 0.579644 0.0619974
0.890669 0.581857 0.0619059
0.917952 0.584375 0.0618296
0.946319 0.586343 0.0617227
0.0826123 0.172778 0.0279088
0.0829175 0.173419 0.027985
0.0827497 0.173068 0.0279393
0.0827497 0.173068 0.0279393
0.0828412 0.173281 0.0279545
0.0827497 0.173068 0.0279393
0.0827497 0.173068 0.0279393
0.0826429 0.172839 0.0279088
0.0825818 0.172702 0.0278935
0.0983444 0.206561 0.0326085
0.127474 0.276219 0.0413062
0.173404 0.329152 0.0468299
0.231174 0.374319 0.0509499
0.282139 0.409766 0.0538491
0.331762 0.437751 0.0558938
0.384649 0.463783 0.0576486
0.432105 0.485603 0.0589914
0.473762 0.502312 0.0599222
0.516854 0.518212 0.0607462
0.553414 0.530709 0.061326
0.588785 0.541909 0.061799
0.620966 0.551568 0.06215
0.657481 0.5617 0.0624857
0.685786 0.568368 0.0626688
0.717845 0.574472 0.0627604
0.747768 0.580255 0.0628519
0.780331 0.586145 0.0629282
0.810483 0.590234 0.0629129
0.836088 0.593164 0.0628672
0.863722 0.595056 0.0627604
0.892058 0.597452 0.0626688
0.920729 0.600732 0.0626078
0.951598 0.602548 0.0624704
0.0839399 0.175601 0.0282444
0.0841535 0.176028 0.0283055
0.0842603 0.176257 0.0283207
0.0841535 0.176028 0.0283055
0.0841535 0.176028 0.0283055
0.0841535 0.176028 0.0283055
0.0841535 0.176028 0.0283055
0.0840467 0.175814 0.028275
0.0840467 0.175814 0.028275
0.0851606 0.178149 0.0285801
0.119356 0.255741 0.0389258
0.147036 0.31342 0.0453193
0.211398 0.36495 0.0501717
0.264347 0.40531 0.0535439
0.314946 0.437018 0.0559243
0.36733 0.464393 0.0577859
0.414862 0.48658 0.0591592
0.460182 0.50631 0.0602731
0.504967 0.524285 0.0612192
0.545327 0.539956 0.0619516
0.582971 0.552728 0.0624857
0.615534 0.563104 0.0628519
0.652949 0.574258 0.0632181
0.68368 0.58201 0.0634165
0.716274 0.588968 0.0635386
0.744381 0.594034 0.0635843
0.775082 0.598871 0.0635996
0.808255 0.604166 0.0636149
0.835279 0.607904 0.0635843
0.866636 0.611612 0.0635233
0.897444 0.615274 0.063447
0.926879 0.618448 0.0633707
0.960281 0.621485 0.0632486
0.0852522 0.178363 0.0286107
0.0854963 0.178882 0.0286717
0.0854963 0.178882 0.0286717
0.0855726 0.179034 0.0287022
0.0855268 0.178958 0.028687
0.0855268 0.178958 0.028687
0.0854963 0.178882 0.0286717
0.0854963 0.178882 0.0286717
0.0853895 0.178668 0.0286412
0.0852522 0.178363 0.0286107
0.108248 0.229084 0.0356146
0.135576 0.296971 0.043595
0.190372 0.352193 0.0490425
0.244343 0.397223 0.0529335
0.294942 0.432395 0.0556497
0.348486 0.462913 0.0577707
0.397665 0.48777 0.0593271
0.44593 0.510216 0.0606241
0.492348 0.530159 0.061677
0.533303 0.546777 0.0624552
0.575326 0.562493 0.0630961
0.608301 0.573358 0.0634775
0.642878 0.582712 0.0637369
0.676265 0.592996 0.0640269
0.708659 0.599695 0.0641337
0.740826 0.607843 0.0642863
0.774197 0.614328 0.0643473
0.80914 0.620218 0.0643473
0.837461 0.624826 0.064332
0.869291 0.628458 0.0642557
0.902174 0.633036 0.0641947
0.932738 0.636545 0.0641031
0.96733 0.639918 0.0639811
0.0865949 0.181186 0.0289921
0.0867933 0.181613 0.0290532
0.0867628 0.181552 0.0290532
0.0867323 0.181476 0.0290379
0.0867933 0.181613 0.0290532
0.0867323 0.181476 0.0290379
0.0867628 0.181552 0.0290532
0.0867323 0.181476 0.0290379
0.0865949 0.181186 0.0289921
0.0865949 0.181186 0.0289921
0.0964828 0.202441 0.0320439
0.128695 0.279377 0.0416571
0.161227 0.3364 0.0476081
0.224964 0.387488 0.0521706
0.27779 0.427741 0.0553597
0.33283 0.461936 0.0577707
0.382849 0.489403 0.0595254
0.431754 0.513329 0.0609293
0.481117 0.535409 0.0620737
0.520409 0.5514 0.0628061
0.56553 0.568811 0.0635233
0.599023 0.580819 0.0639506
0.636881 0.593194 0.064332
0.67187 0.6047 0.0646525
0.70753 0.614099 0.0648356
0.739574 0.621942 0.0649577
0.773419 0.628916 0.0650034
0.809918 0.635859 0.0650339
