sandaya_1.0/luts/SANDAYA_LOOK_001_0060_ACESCG_TO_ACESCG.cube
TITLE "Generated by Resolve"
LUT_3D_SIZE 33
0.00444038 0.00468452 0.00561532
0.0664378 0.0177157 0.00387579
0.0867475 0.020737 0.00430304
0.10544 0.0234531 0.00479133
0.122194 0.0257267 0.0052491
0.136477 0.0276799 0.0056611
0.148547 0.0291905 0.0059968
0.159579 0.0306706 0.00630198
0.16936 0.0319371 0.00657664
0.177935 0.0330358 0.00680552
0.18558 0.0341497 0.00703441
0.192706 0.0352789 0.00726329
0.199557 0.0363928 0.00747692
0.206195 0.0374609 0.00769055
0.212161 0.0384222 0.00787366
0.217838 0.0393225 0.00805676
0.223392 0.0402075 0.00822461
0.228809 0.0410315 0.00839246
0.2336 0.0417639 0.00852979
0.238209 0.0424659 0.00866712
0.242817 0.0431525 0.0087892
0.24715 0.0437934 0.00891127
0.251179 0.0443732 0.00903334
0.255329 0.0449683 0.00914015
0.258915 0.0454871 0.00923171
0.262592 0.0460059 0.00933852
0.265827 0.0464637 0.00941482
0.268833 0.046891 0.00950637
0.271977 0.0473335 0.00958267
0.274922 0.0477455 0.00965896
0.277714 0.048127 0.00972
0.280461 0.0485084 0.00979629
0.283406 0.0489052 0.00987259
0.0217288 0.0428626 0.0161135
0.0424201 0.0490883 0.0129854
0.0961929 0.0615244 0.0106966
0.144381 0.0672465 0.0116884
0.187716 0.0683909 0.0120546
0.219516 0.0671397 0.0120546
0.240284 0.0644083 0.0117647
0.249638 0.0599069 0.0111849
0.25304 0.0538643 0.0103609
0.248676 0.0471962 0.00939956
0.235264 0.0421759 0.00859083
0.221973 0.0399786 0.00817884
0.232609 0.0416266 0.00849927
0.241886 0.0430152 0.00877394
0.250309 0.0442512 0.00900282
0.258518 0.0454261 0.00923171
0.265705 0.0464485 0.00941482
0.272282 0.0473793 0.00958267
0.278401 0.0482185 0.00975052
0.284215 0.049012 0.00988785
0.290089 0.0498054 0.0100404
0.294591 0.0504158 0.0101472
0.29865 0.0509499 0.0102388
0.302449 0.0514534 0.0103304
0.306355 0.0519722 0.0104219
0.309926 0.05243 0.0105135
0.313634 0.0529183 0.0105898
0.317067 0.0533608 0.0106813
0.320211 0.0537575 0.0107424
0.322911 0.0541085 0.0108034
0.325383 0.0544137 0.0108644
0.327886 0.0547341 0.0109255
0.330343 0.0550393 0.0109712
0.0294652 0.0585489 0.0188296
0.0322576 0.0644388 0.0163882
0.0949722 0.0932174 0.0155795
0.147738 0.108766 0.0179446
0.191577 0.116396 0.0191348
0.231907 0.11986 0.0197147
0.264927 0.120211 0.0198367
0.293889 0.118822 0.0196994
0.314427 0.114946 0.0192111
0.329747 0.109499 0.0184939
0.341466 0.102937 0.0176089
0.349844 0.0953231 0.0165866
0.354162 0.0886702 0.0156863
0.354543 0.0816052 0.0147097
0.351629 0.075349 0.0138399
0.345815 0.0688182 0.0129244
0.335424 0.0612039 0.011841
0.321736 0.0543069 0.0108339
0.302922 0.0515145 0.0103456
0.273747 0.0475776 0.00962844
0.279484 0.0483711 0.00976577
0.285344 0.0491646 0.00991836
0.29099 0.0499275 0.0100557
0.295384 0.0505226 0.0101625
0.29926 0.0510414 0.0102541
0.303319 0.0515755 0.0103456
0.307027 0.0520638 0.0104372
0.310704 0.0525368 0.0105287
0.314092 0.0529793 0.010605
0.317601 0.0534218 0.0106813
0.320485 0.0537881 0.0107576
0.323308 0.0541543 0.0108186
0.325917 0.05449 0.0108797
0.0364843 0.0732128 0.0206607
0.03299 0.0658579 0.0197757
0.0795605 0.11136 0.0184024
0.147295 0.138308 0.022385
0.196765 0.151019 0.0242466
0.240528 0.158099 0.0252842
0.280461 0.162127 0.0258793
0.314199 0.163485 0.0260777
0.341939 0.163317 0.0260777
0.364752 0.1617 0.025864
0.382757 0.158755 0.0254673
0.398611 0.15523 0.024979
0.41239 0.150866 0.0243992
0.422568 0.145846 0.0237125
0.430518 0.140337 0.0229648
0.435569 0.134035 0.0221103
0.439445 0.127581 0.0212253
0.439872 0.120562 0.020264
0.438682 0.112612 0.0191958
0.435966 0.104662 0.0181125
0.431601 0.0970626 0.0170748
0.424994 0.0898756 0.016083
0.415885 0.0832532 0.0151675
0.403555 0.0767529 0.0142519
0.390173 0.0697795 0.0132448
0.374105 0.0616922 0.0121004
0.356405 0.0582284 0.0115358
0.332509 0.055314 0.011017
0.306355 0.0519722 0.0104219
0.310033 0.0524453 0.0105135
0.313207 0.0528573 0.0105898
0.316747 0.053315 0.0106661
0.319905 0.053727 0.0107424
0.0427405 0.0866102 0.0220188
0.040177 0.0810712 0.0214542
0.057084 0.117632 0.0194705
0.137255 0.158953 0.0254978
0.194965 0.179263 0.0284276
0.245243 0.19089 0.0300298
0.290974 0.197681 0.03093
0.330037 0.201862 0.0314488
0.36318 0.203586 0.0316472
0.388373 0.203006 0.0315557
0.413016 0.20235 0.0314488
0.432059 0.199969 0.0311131
0.449348 0.197421 0.0307774
0.465324 0.194354 0.0303655
0.47808 0.190372 0.0298466
0.488716 0.18587 0.0292363
0.498543 0.181369 0.0286412
0.505501 0.176425 0.0279698
0.509865 0.171313 0.0272679
0.513603 0.166354 0.0265965
0.51577 0.161074 0.0258793
0.516762 0.155062 0.0250553
0.515923 0.149248 0.0242771
0.511971 0.142306 0.023331
0.507134 0.135622 0.0224155
0.501945 0.12871 0.0214694
0.496056 0.121492 0.0204929
0.489036 0.113725 0.01944
0.481239 0.10602 0.0183871
0.47219 0.0987411 0.0173953
0.461616 0.0920424 0.0164797
0.449058 0.0853285 0.0155489
0.435904 0.0796063 0.0147402
0.0483711 0.0989395 0.0230564
0.0465248 0.0948806 0.0227207
0.054139 0.11165 0.0221408
0.116899 0.170001 0.0272068
0.187091 0.20116 0.0315862
0.243 0.218799 0.0338598
0.295247 0.230335 0.0352178
0.33959 0.237354 0.035996
0.378439 0.24152 0.036408
0.408469 0.243824 0.0366217
0.436454 0.2448 0.0366674
0.458091 0.243153 0.0364385
0.478309 0.241321 0.0361791
0.498009 0.23946 0.035935
0.513848 0.236271 0.0355383
0.527932 0.23299 0.0351263
0.540337 0.228794 0.0346075
0.551873 0.224216 0.0340429
0.559762 0.219532 0.0334783
0.566827 0.215457 0.0329747
0.57319 0.210956 0.0324102
0.578683 0.206302 0.0318303
0.583017 0.201389 0.03122
0.584344 0.196231 0.0305638
0.584298 0.190555 0.0298314
0.583688 0.185275 0.0291447
0.582223 0.179812 0.0284276
0.579217 0.17438 0.0276951
0.576257 0.168978 0.0269627
0.57261 0.163424 0.026215
0.567926 0.15758 0.0254215
0.561303 0.151095 0.0245518
0.555154 0.145281 0.0237583
0.0534676 0.110063 0.0240177
0.0521706 0.107225 0.0237736
0.0516213 0.10602 0.0236667
0.0843366 0.170153 0.0273289
0.172793 0.216175 0.0336767
0.235431 0.241856 0.03682
0.292119 0.257603 0.0385443
0.344457 0.269596 0.039765
0.388861 0.277348 0.0404974
0.423423 0.280919 0.0407874
0.453269 0.282963 0.0409094
0.480949 0.284398 0.0409857
0.503929 0.284047 0.0408789
0.525032 0.282353 0.0406348
0.544366 0.280797 0.0404212
0.559258 0.277256 0.0400092
0.574914 0.274418 0.0396582
0.590112 0.27126 0.039292
0.602365 0.267887 0.0388952
0.611246 0.263233 0.0383764
0.620676 0.259663 0.0379644
0.628809 0.255222 0.0374609
0.636378 0.251179 0.0370031
0.642283 0.245899 0.0363928
0.644816 0.241047 0.0358434
0.646159 0.235447 0.0352178
0.647532 0.230335 0.0346227
0.647974 0.22475 0.0339666
0.648157 0.220005 0.0334173
0.647898 0.215061 0.0328222
0.64715 0.210056 0.0322118
0.644373 0.204837 0.0315862
0.640375 0.1991 0.030869
0.0576333 0.119127 0.0247044
0.0570382 0.117815 0.0245975
0.0565805 0.116823 0.0245212
0.0763409 0.159487 0.0257572
0.151171 0.22034 0.0343023
0.222721 0.25771 0.0387884
0.285481 0.279973 0.0411383
0.343252 0.296269 0.0427253
0.392752 0.307332 0.0437018
0.434943 0.314641 0.0442969
0.468681 0.319295 0.0446326
0.499687 0.322164 0.0448005
0.52578 0.323354 0.044831
0.550042 0.323049 0.0447089
0.572534 0.32253 0.0445716
0.590448 0.320333 0.0442969
0.607492 0.317418 0.0439612
0.624842 0.315221 0.0436713
0.641154 0.31281 0.0433814
0.653605 0.308934 0.0429694
0.664927 0.305913 0.0426337
0.675761 0.302144 0.0422217
0.68455 0.297993 0.0417792
0.692241 0.293065 0.0412604
0.698619 0.28925 0.0408484
0.702617 0.284169 0.0403296
0.706203 0.279789 0.0398718
0.708904 0.274708 0.0393378
0.711437 0.270146 0.0388495
0.71342 0.265415 0.0383459
0.714534 0.260304 0.0377966
0.714885 0.255619 0.0372931
0.712703 0.250233 0.0367132
0.0614328 0.127337 0.0253758
0.061265 0.127001 0.0253605
0.060914 0.126238 0.0252842
0.0641794 0.133303 0.0253605
0.121141 0.215915 0.033814
0.204166 0.266178 0.0398413
0.273457 0.296635 0.0430152
0.335256 0.31722 0.0449531
0.391531 0.332586 0.0462654
0.440269 0.343847 0.0471504
0.477043 0.349722 0.0475471
0.511849 0.354803 0.0478828
0.541726 0.357458 0.0479896
0.569207 0.358862 0.0480049
0.593973 0.359167 0.0479286
0.615381 0.358434 0.0477607
0.636484 0.356756 0.0475166
0.656901 0.355886 0.047364
0.676509 0.354803 0.0471809
0.693202 0.351949 0.0468452
0.705943 0.349187 0.0465553
0.719173 0.346166 0.0462196
0.731502 0.342916 0.0458839
0.741619 0.338781 0.0454566
0.751827 0.335744 0.0451362
0.75787 0.331319 0.0447089
0.763088 0.327138 0.0443122
0.768429 0.323018 0.0439002
0.772015 0.318044 0.0434272
0.776959 0.314519 0.0430762
0.778622 0.309316 0.0425727
0.780957 0.304219 0.0420691
0.781323 0.299748 0.0416266
0.0647135 0.134447 0.0259709
0.0649729 0.134981 0.0260166
0.064622 0.134218 0.0259556
0.0641642 0.133242 0.0258793
0.0966049 0.202686 0.0320745
0.181003 0.266087 0.0399176
0.25684 0.307546 0.0442512
0.322942 0.332799 0.0465858
0.386191 0.353475 0.0483101
0.439063 0.367971 0.0494087
0.481849 0.376547 0.0499886
0.519783 0.384054 0.0504616
0.555261 0.389807 0.0507973
0.585061 0.391989 0.0508278
0.612497 0.392767 0.0507668
0.639124 0.394232 0.0507515
0.661372 0.392752 0.0505226
0.684276 0.392294 0.05037
0.70631 0.391836 0.0502327
0.727367 0.38996 0.0499733
0.742672 0.387655 0.0496986
0.758144 0.385275 0.0494392
0.773388 0.382849 0.0491646
0.787503 0.379995 0.0488594
0.800717 0.377035 0.0485389
0.808911 0.373404 0.0482032
0.817472 0.369802 0.0478523
0.824048 0.366354 0.0475319
0.831067 0.362707 0.0471962
0.83624 0.358938 0.0468452
0.841871 0.354986 0.046479
0.847532 0.351522 0.0461585
0.84979 0.346838 0.0457313
0.0676432 0.140749 0.0264744
0.0680858 0.14168 0.026566
0.0677348 0.140932 0.0265049
0.0673991 0.14023 0.0264439
0.0843519 0.176471 0.0282902
0.150408 0.256825 0.0389258
0.235416 0.310826 0.0446784
0.306523 0.343297 0.0476844
0.373602 0.367788 0.0496986
0.432074 0.385885 0.0510567
0.482719 0.399176 0.0519417
0.522225 0.407584 0.0524605
0.561624 0.414954 0.0528573
0.594766 0.418769 0.0529946
0.626032 0.422339 0.0531167
0.656016 0.424399 0.0531167
0.683284 0.425116 0.0530251
0.707607 0.425147 0.0528878
0.732479 0.425284 0.0527657
0.758175 0.424491 0.0525673
0.776196 0.423194 0.052369
0.795697 0.422187 0.0521859
0.812818 0.419913 0.0519265
0.830091 0.417868 0.0516823
0.846677 0.415106 0.0513771
0.860258 0.412985 0.0511482
0.870756 0.409674 0.0508278
0.879973 0.406897 0.0505684
0.887785 0.402838 0.0502174
0.893568 0.398978 0.0498817
0.900389 0.395209 0.049546
0.907942 0.392081 0.0492561
0.913497 0.387991 0.0489052
0.0702831 0.14641 0.026978
0.0710002 0.147967 0.0271153
0.0706035 0.147097 0.0270237
0.0703136 0.146487 0.026978
0.0699474 0.145708 0.0269017
0.116472 0.24062 0.0370642
0.211093 0.308293 0.0445106
0.286412 0.349447 0.0483711
0.357717 0.37879 0.050782
0.422293 0.401129 0.0524147
0.476768 0.41735 0.0534981
0.522683 0.429023 0.0542
0.564675 0.437934 0.0546731
0.600961 0.443198 0.0548714
0.63534 0.447852 0.0550393
0.667185 0.45066 0.0550546
0.698024 0.452445 0.0550088
0.726116 0.453803 0.0549477
0.754192 0.4551 0.0548867
0.78349 0.455436 0.0547341
0.8056 0.454124 0.0545205
0.824308 0.452338 0.0542763
0.844343 0.450843 0.0540627
0.864713 0.449866 0.0538796
0.886168 0.448569 0.0536507
0.903609 0.446601 0.0534218
0.917647 0.444587 0.053193
0.929778 0.44271 0.0529946
0.942184 0.439963 0.0527199
0.953445 0.43743 0.0524758
0.962402 0.434485 0.0522164
0.973083 0.431952 0.0519722
0.980438 0.427802 0.0516213
0.0726482 0.151476 0.0274052
0.073518 0.153353 0.027451
0.0733806 0.153063 0.027451
0.0729992 0.152224 0.0274205
0.0726177 0.1514 0.0274052
0.103456 0.218067 0.034165
0.182666 0.298497 0.0435645
0.264195 0.351965 0.0487068
0.338857 0.386709 0.0515755
0.409308 0.41355 0.0535286
0.467231 0.4327 0.0547951
0.519463 0.447562 0.0556649
0.564675 0.458656 0.0562448
0.607141 0.46743 0.0566567
0.643168 0.47248 0.0567941
0.678004 0.476585 0.0568856
0.710994 0.478752 0.0568399
0.741146 0.48011 0.0567483
0.771405 0.481697 0.056672
0.803357 0.482887 0.0565499
0.831586 0.483345 0.0564126
0.855024 0.482414 0.056199
0.877134 0.481239 0.0559854
0.899138 0.480217 0.055787
0.92134 0.478477 0.0555428
0.941863 0.477134 0.0553292
0.959182 0.474845 0.0550698
0.973037 0.473228 0.0548714
0.98822 0.471336 0.0546578
1 0.469337 0.0544442
1 0.466957 0.0542153
1 0.464836 0.0540017
1 0.462104 0.0537423
0.0749676 0.156435 0.0275425
0.0759136 0.15848 0.0276188
0.0756695 0.157961 0.0276036
0.0753796 0.157351 0.0275731
0.0751049 0.156741 0.0275578
0.0865797 0.18117 0.0289921
0.146365 0.281788 0.0418555
0.238712 0.347143 0.0483406
0.317403 0.390448 0.0520027
0.391485 0.42153 0.0542916
0.45597 0.445762 0.0558785
0.515526 0.465171 0.057023
0.560555 0.476081 0.057557
0.605737 0.486244 0.0579995
0.645945 0.493965 0.0582895
0.68394 0.499336 0.0584268
0.723186 0.504173 0.0585031
0.754864 0.505928 0.0584115
0.786679 0.507561 0.05832
0.819074 0.507942 0.0581369
0.852094 0.5093 0.0579995
0.880812 0.510124 0.0578775
0.906874 0.509834 0.0576944
0.932738 0.509346 0.057496
0.959289 0.5084 0.0572671
0.98201 0.507362 0.0570535
1 0.505486 0.0568093
1 0.504189 0.0566262
1 0.502235 0.0563973
1 0.499702 0.0561532
1 0.497505 0.0559396
1 0.494942 0.0556954
1 0.49276 0.0554665
0.0769513 0.160693 0.0277256
0.0780957 0.163134 0.027863
0.0780194 0.162982 0.0278477
0.0776684 0.162234 0.0278172
0.077348 0.161532 0.0277714
0.0770581 0.160922 0.0277409
0.121218 0.259922 0.0394141
0.211658 0.338201 0.0475776
0.294652 0.39115 0.0521706
0.371313 0.427558 0.0548867
0.441291 0.455131 0.056672
0.502846 0.476967 0.0579538
0.557031 0.493584 0.0588235
0.604044 0.505272 0.0593271
0.646937 0.513527 0.059617
0.68629 0.519875 0.0597696
0.727703 0.525811 0.0598764
0.764477 0.529473 0.0598611
0.799969 0.532372 0.0597848
0.836789 0.534646 0.059678
0.870451 0.53547 0.0595102
0.903014 0.53637 0.0593423
0.931777 0.536599 0.0591592
0.957458 0.535348 0.0589151
0.986969 0.534966 0.0587015
1 0.534874 0.0585184
1 0.534081 0.0582895
1 0.533181 0.0581216
1 0.530785 0.0578622
1 0.528664 0.0576333
1 0.527199 0.0574502
1 0.525719 0.0572519
1 0.523156 0.0569924
0.0789349 0.16492 0.0279698
0.0803082 0.167865 0.0281834
0.0800488 0.1673 0.0281376
0.0798047 0.166781 0.0280919
0.079469 0.166064 0.0280461
0.079118 0.165316 0.0280003
0.107439 0.227222 0.0353704
0.180148 0.321096 0.0459754
0.267369 0.385794 0.0518196
0.348592 0.430289 0.0552224
0.422507 0.462959 0.0573739
0.488441 0.48777 0.0588235
0.547906 0.50721 0.0598154
0.597391 0.521202 0.060441
0.64567 0.533165 0.0608835
0.688029 0.541085 0.0610819
0.730175 0.547036 0.0611429
0.771359 0.552453 0.0611734
0.807614 0.555352 0.0610819
0.846113 0.558373 0.0609751
0.884138 0.560494 0.0608225
0.922652 0.562524 0.0606699
0.952117 0.562417 0.0604562
0.981918 0.562585 0.0602579
1 0.562737 0.0600443
1 0.562737 0.0598459
1 0.562524 0.059617
1 0.561379 0.0594186
1 0.559701 0.0591897
1 0.557809 0.0589761
1 0.555886 0.0587625
1 0.554788 0.0585794
1 0.552361 0.0583352
0.0807965 0.168872 0.0282597
0.0821698 0.171801 0.0284581
0.0820172 0.171481 0.0284428
0.0817731 0.170977 0.0284123
0.0814832 0.170352 0.0283665
0.0813001 0.16997 0.028336
0.0871595 0.182406 0.0291752
0.140032 0.297658 0.0436561
0.241047 0.377218 0.0511635
0.324269 0.428305 0.0551766
0.400565 0.465995 0.0577249
0.474067 0.496468 0.0595102
0.539376 0.52079 0.0607767
0.59115 0.536339 0.0614328
0.641428 0.549874 0.0619211
0.686244 0.559304 0.06215
0.732067 0.567254 0.0622721
0.776913 0.574655 0.0623484
0.81561 0.577996 0.0622568
0.85684 0.581659 0.0621347
0.897841 0.585367 0.0620279
0.940093 0.587961 0.0618448
0.97496 0.58883 0.0616465
1 0.588495 0.0614176
1 0.589761 0.0612192
1 0.589899 0.0610056
1 0.588724 0.0607462
1 0.588327 0.0605325
1 0.587121 0.0603037
1 0.586175 0.0601053
1 0.585046 0.0599222
1 0.583444 0.0596933
1 0.581827 0.0594797
0.082536 0.172595 0.0285039
0.084062 0.175814 0.0287175
0.0838483 0.175372 0.028687
0.0835737 0.174792 0.0286564
0.08336 0.174319 0.0286107
0.0830396 0.173648 0.0285649
0.082826 0.173205 0.0285344
0.125551 0.27129 0.0407416
0.211185 0.361563 0.0498512
0.299657 0.424598 0.0549935
0.378378 0.467185 0.0579232
0.456306 0.502098 0.0600137
0.523552 0.527962 0.0613413
0.582391 0.548684 0.0622416
0.634592 0.564508 0.0628061
0.683635 0.576471 0.0631113
0.730846 0.58555 0.0632486
0.777798 0.59443 0.0633555
0.822324 0.600366 0.0633249
0.86479 0.604212 0.0631876
0.907942 0.60824 0.0630503
0.950484 0.610422 0.0628367
0.990921 0.613397 0.0626688
1 0.615061 0.0624857
1 0.615442 0.0622263
1 0.616907 0.0620432
1 0.616938 0.0617685
1 0.6177 0.0615702
1 0.616541 0.0613413
1 0.615045 0.0611124
1 0.612863 0.0608835
1 0.6121 0.0606851
1 0.6094 0.0604257
0.0841077 0.175906 0.0287327
0.0856641 0.179217 0.0290227
0.0856031 0.17908 0.0290074
0.0852979 0.178454 0.0289464
0.0850538 0.17792 0.0289006
0.0848707 0.177554 0.0288701
0.0845197 0.176791 0.028809
0.108705 0.230182 0.0357519
0.174014 0.338979 0.0478065
0.271031 0.414878 0.0543221
0.35137 0.46334 0.0577859
0.432288 0.503182 0.0602274
0.50486 0.533822 0.0618296
0.57055 0.559213 0.0629435
0.624338 0.577203 0.0635691
0.677668 0.592752 0.0640116
0.725872 0.60296 0.0641642
0.772595 0.611765 0.0642405
0.821897 0.620386 0.0642557
0.867704 0.62591 0.0641489
0.912306 0.630076 0.0639963
0.960388 0.634821 0.0638285
1 0.637827 0.0635996
1 0.640345 0.0634165
1 0.640803 0.0631418
1 0.641398 0.0629129
1 0.641657 0.0626535
1 0.642023 0.0624094
1 0.642329 0.0621805
1 0.642603 0.0619821
1 0.641245 0.0617533
1 0.641245 0.0615549
1 0.639765 0.061326
0.0856031 0.17908 0.0290074
0.0873121 0.182696 0.0293889
0.0871748 0.182406 0.0293584
0.0869612 0.181949 0.0292973
0.0867475 0.181506 0.0292668
0.0864271 0.180835 0.0291905
0.0862593 0.180484 0.0291447
0.0860456 0.180026 0.029099
0.141268 0.310323 0.0450141
0.241733 0.400732 0.053254
0.325521 0.458228 0.0575265
0.408591 0.503029 0.0603494
0.487205 0.539437 0.0622873
0.555138 0.567315 0.063508
0.612299 0.587488 0.06421
0.667155 0.605173 0.0646983
0.721263 0.619287 0.0649729
0.770336 0.630137 0.0650797
0.821958 0.640345 0.0651255
0.87158 0.646922 0.0650034
0.917403 0.651591 0.0648356
0.964187 0.65568 0.064622
1 0.659312 0.0643931
1 0.661967 0.0641642
1 0.66424 0.0639353
1 0.666331 0.0637064
1 0.667536 0.0634318
1 0.668956 0.0631876
1 0.669261 0.0629129
1 0.669627 0.0627146
1 0.668742 0.0624857
1 0.667247 0.0622416
1 0.666758 0.0619974
0.0871138 0.182269 0.0293431
0.0887312 0.185702 0.0297398
0.0887312 0.185702 0.0297398
0.0884718 0.185153 0.0296788
0.0882582 0.18471 0.0296178
0.0880598 0.184283 0.029572
0.0878004 0.183749 0.0295109
0.0875715 0.18323 0.0294499
0.127733 0.27689 0.0413825
0.209018 0.379583 0.0515297
0.298238 0.45037 0.0570687
0.382361 0.499825 0.0602731
0.46424 0.53994 0.0624552
0.535164 0.572412 0.06392
0.60061 0.598535 0.0648508
0.657145 0.618235 0.0654002
0.715785 0.63595 0.0657511
0.764691 0.646906 0.0658427
0.815366 0.656062 0.0658122
0.868544 0.665293 0.0657511
0.917876 0.671809 0.0655985
0.968933 0.677791 0.0654002
1 0.683192 0.0651713
1 0.687266 0.0649424
1 0.689418 0.0646677
1 0.691691 0.0644388
1 0.692546 0.0641337
1 0.695399 0.0639048
1 0.695064 0.0635691
1 0.694911 0.0633402
1 0.694697 0.0630961
1 0.694408 0.0628519
1 0.693446 0.0626078
0.0884108 0.185016 0.0296635
0.0902571 0.188952 0.0301671
0.0901808 0.188815 0.0301366
0.0899825 0.188373 0.0300755
0.0897231 0.187823 0.0300145
0.0894789 0.187304 0.0299382
0.0892195 0.186755 0.0298772
0.0890211 0.186313 0.0298161
0.10898 0.230823 0.0358434
0.167926 0.352285 0.0491493
0.268345 0.435538 0.0560311
0.355917 0.49398 0.0599985
0.44094 0.53994 0.0625925
0.516579 0.577264 0.0643015
0.588586 0.608148 0.0654154
0.644373 0.628702 0.0659648
0.704356 0.648081 0.0663615
0.756848 0.662043 0.0665141
0.811063 0.673747 0.0665293
0.869657 0.686091 0.0664988
0.921172 0.693996 0.0663462
0.972885 0.700069 0.0661326
1 0.705379 0.0658732
1 0.710109 0.0655985
1 0.711299 0.0652781
1 0.714534 0.0650492
1 0.717479 0.0647593
1 0.719554 0.0644846
1 0.720668 0.0641337
1 0.722423 0.0638743
1 0.72221 0.0636301
1 0.721889 0.0633707
1 0.720928 0.0631113
0.0898299 0.188037 0.030045
0.0915084 0.191623 0.0305333
0.0914473 0.191501 0.030518
0.0912795 0.19115 0.030457
0.0911269 0.190829 0.0304112
0.0909133 0.190341 0.0303502
0.0907301 0.18996 0.0302892
0.090547 0.189578 0.0302434
0.0902876 0.189029 0.0301671
0.143877 0.319951 0.0460059
0.237186 0.416098 0.0545815
0.327749 0.484123 0.0594492
0.413809 0.534508 0.0624094
0.49247 0.57438 0.0643015
0.564416 0.608637 0.0655985
0.629847 0.635584 0.0663767
0.69192 0.658167 0.066865
0.749218 0.67599 0.0671092
0.804334 0.689906 0.0671702
0.861646 0.701671 0.0670939
0.916442 0.711208 0.0669413
0.969345 0.718044 0.0667124
1 0.725658 0.0664836
1 0.732021 0.0662089
1 0.737026 0.0659037
1 0.74081 0.0656443
1 0.742947 0.0653086
1 0.745205 0.0650187
1 0.747295 0.0646677
1 0.749065 0.0643473
1 0.74963 0.0640879
1 0.750225 0.0638132
1 0.749203 0.0635386
0.0909743 0.190509 0.0303655
0.0926375 0.19408 0.0308843
0.0926375 0.19408 0.0308843
0.0924849 0.193744 0.0308385
0.0923018 0.193362 0.0307774
0.0920272 0.192752 0.0306859
0.0919661 0.192615 0.0306706
0.0917067 0.192081 0.0305943
0.0915084 0.191623 0.0305333
0.130694 0.284611 0.042237
0.206775 0.392966 0.0527352
0.300084 0.471199 0.0586404
0.387869 0.526818 0.0620737
0.471687 0.572946 0.0643473
0.54583 0.610636 0.0658274
0.616464 0.642176 0.0667582
0.678691 0.66508 0.0672313
0.739208 0.686549 0.0675669
0.793912 0.700191 0.0675975
0.853925 0.714229 0.0675669
0.912886 0.726162 0.0674296
0.96907 0.735332 0.067216
1 0.743709 0.0669718
1 0.750347 0.0666819
1 0.755749 0.0663462
1 0.760281 0.0660716
1 0.764584 0.0657359
1 0.768261 0.0654307
1 0.770108 0.0650492
1 0.772854 0.0646983
1 0.774212 0.0644236
1 0.775357 0.0641337
1 0.775876 0.0638437
0.0920272 0.192752 0.0306859
0.0937972 0.196582 0.0312352
0.0937972 0.196582 0.0312352
0.0936141 0.196185 0.0311742
0.0933852 0.195697 0.0311131
0.0932937 0.195499 0.0310826
0.093019 0.194888 0.0309911
0.0928664 0.194553 0.0309453
0.0927443 0.194293 0.0309148
0.108034 0.228611 0.0355535
0.16199 0.357961 0.0497139
0.26717 0.451331 0.0572976
0.357214 0.515709 0.0615091
0.443183 0.566323 0.0641489
0.520806 0.607675 0.0658427
0.593774 0.642527 0.0669413
0.660227 0.669932 0.0675669
0.722393 0.693324 0.0679332
0.781735 0.711574 0.0680705
0.842176 0.727214 0.0680552
0.901915 0.739971 0.0679179
0.960174 0.750378 0.0677043
1 0.759686 0.0674296
1 0.768246 0.067155
1 0.774777 0.0667887
1 0.779248 0.0664836
1 0.784085 0.0661326
1 0.788861 0.0658122
1 0.791043 0.0654307
1 0.794614 0.0650645
1 0.797345 0.0647288
1 0.798215 0.0644236
1 0.799451 0.0641031
0.0931716 0.195239 0.0310369
0.0948959 0.198962 0.0315709
0.0947585 0.198672 0.0315251
0.0946975 0.198535 0.0315099
0.0945449 0.198215 0.0314641
0.0942855 0.19765 0.0313878
0.0941329 0.19733 0.031342
0.0940108 0.19707 0.0312963
0.0937972 0.196582 0.0312352
0.0935836 0.196124 0.0311589
0.145571 0.325261 0.0465553
0.236957 0.430747 0.0558022
0.329595 0.503975 0.060853
0.41648 0.558236 0.0638437
0.498787 0.604501 0.0658274
0.573358 0.643046 0.0671092
0.645182 0.675883 0.0679026
0.708553 0.700923 0.0683146
0.770748 0.721904 0.0684825
0.832166 0.738888 0.0684672
0.895079 0.754192 0.0683604
0.954437 0.765164 0.0681163
1 0.775113 0.0678569
1 0.783902 0.0675517
1 0.792477 0.0671702
1 0.797894 0.0668498
1 0.803189 0.0664683
1 0.808454 0.0661326
1 0.812924 0.0657359
1 0.815991 0.0653239
1 0.820035 0.0649424
1 0.821057 0.0646067
1 0.823255 0.064271
0.0941329 0.19733 0.031342
0.0959487 0.201282 0.0318914
0.0958572 0.201083 0.0318608
0.0956741 0.200687 0.0317998
0.0955673 0.200458 0.0317693
0.0953231 0.199924 0.031693
0.0952163 0.199695 0.0316625
0.0949874 0.199161 0.0315862
0.0948653 0.198901 0.0315557
0.0946975 0.198535 0.0315099
0.129397 0.281209 0.0418555
0.201984 0.400656 0.0534371
0.297612 0.48632 0.0597696
0.386542 0.54725 0.0633555
0.472206 0.598505 0.0656901
0.548287 0.640162 0.067155
0.625895 0.678614 0.0681468
0.690135 0.70547 0.0686046
0.756909 0.730983 0.068864
0.817136 0.74844 0.068864
0.88011 0.765347 0.0687724
0.945998 0.780316 0.0685588
1 0.789837 0.0682536
1 0.800015 0.0679484
1 0.81059 0.0675669
1 0.8177 0.0672007
1 0.823682 0.066804
1 0.830091 0.066453
1 0.83444 0.0660105
1 0.837705 0.0655985
1 0.841062 0.0651865
1 0.843214 0.0648203
1 0.844114 0.0644694
