sandaya_1.0/luts/SANDAYA_LOOK_001_0090_ACESCG_TO_ACESCG.cube
TITLE "Generated by Resolve"
LUT_3D_SIZE 9
0.00695811 0.00877394 0.0109865
0.154788 0.0290227 0.00602731
0.221912 0.0399634 0.00817884
0.258305 0.0453956 0.00921645
0.279255 0.0483406 0.00976577
0.296284 0.0506447 0.0101778
0.309346 0.0523537 0.0104982
0.320195 0.0537575 0.0107424
0.328542 0.0548104 0.0109407
0.0447395 0.0910964 0.0203708
0.225544 0.185748 0.0293278
0.389425 0.206821 0.0320439
0.472923 0.20415 0.031632
0.523842 0.197192 0.0307164
0.554833 0.1888 0.0296178
0.569757 0.179507 0.0283818
0.577142 0.170703 0.0271916
0.576654 0.161471 0.0259556
0.0627451 0.130312 0.02327
0.18323 0.246021 0.0374914
0.420142 0.323995 0.0452888
0.547692 0.34081 0.0464179
0.634653 0.341833 0.0461738
0.698512 0.337972 0.0455634
0.74313 0.331029 0.0447395
0.770901 0.322835 0.0438697
0.790356 0.313771 0.0429541
0.0727398 0.151827 0.0246738
0.10692 0.22594 0.0352026
0.395026 0.384176 0.0510872
0.570504 0.427832 0.0538491
0.689799 0.440574 0.0541695
0.788617 0.444144 0.0538796
0.866972 0.443091 0.0533608
0.91931 0.438346 0.0527352
0.966934 0.433356 0.0521096
0.0798505 0.166949 0.0268711
0.0747234 0.156069 0.0252384
0.337148 0.406699 0.053315
0.560067 0.485008 0.0581979
0.70985 0.512337 0.0591287
0.838529 0.523156 0.0589761
0.942397 0.525475 0.0584268
1 0.525017 0.0578317
1 0.521981 0.0572213
0.0853285 0.178515 0.0285954
0.080415 0.168154 0.0270542
0.269398 0.401144 0.0531624
0.529274 0.521477 0.0608835
0.705516 0.568704 0.0625467
0.855726 0.588708 0.062501
0.992737 0.598718 0.0619821
1 0.602869 0.0613107
1 0.601541 0.0606546
0.0890822 0.186465 0.0297551
0.0848707 0.177554 0.0284428
0.196933 0.364935 0.0502327
0.479225 0.538399 0.0622721
0.686213 0.612787 0.0649271
0.857282 0.646159 0.065095
1 0.66302 0.0644846
1 0.671626 0.0637064
1 0.674266 0.0629129
0.0920119 0.192737 0.0306706
0.0881514 0.184482 0.0294804
0.13608 0.298955 0.0438087
0.416464 0.532738 0.0622873
0.648463 0.637079 0.0663157
0.840726 0.689342 0.0668498
1 0.715526 0.0662242
1 0.731456 0.0653697
1 0.741054 0.0644083
0.0941024 0.197253 0.0313115
0.0909895 0.190509 0.0303502
0.0962692 0.201984 0.0319829
0.347936 0.513008 0.0613718
0.603952 0.65008 0.0671855
0.80798 0.721645 0.0681773
1 0.75874 0.0675669
1 0.782208 0.0665599
1 0.797574 0.0653849
0.0173953 0.00653086 0.112917
0.164508 0.0357061 0.144823
0.231891 0.0476692 0.153811
0.275425 0.0538338 0.157321
0.30518 0.0574807 0.159045
0.326238 0.0598306 0.159823
0.341985 0.0614939 0.160143
0.35523 0.0628367 0.160357
0.365484 0.0638285 0.160174
0.080293 0.145251 0.217304
0.209293 0.218509 0.224018
0.404654 0.23328 0.213703
0.498436 0.225711 0.207462
0.553643 0.214542 0.200656
0.586038 0.202991 0.194842
0.603845 0.191257 0.189258
0.610468 0.179889 0.183627
0.611017 0.168627 0.178439
0.10486 0.199603 0.227878
0.149935 0.29192 0.225101
0.417624 0.371633 0.195972
0.546334 0.380072 0.187579
0.633799 0.373846 0.181018
0.697826 0.364858 0.175891
0.743511 0.353292 0.170504
0.772137 0.341131 0.165942
0.793774 0.329549 0.161791
0.116503 0.227405 0.227451
0.136538 0.279591 0.222522
0.362615 0.438041 0.205631
0.556741 0.476112 0.174899
0.668894 0.480323 0.165972
0.758724 0.477455 0.159228
0.827848 0.470817 0.153552
0.879347 0.463569 0.148547
0.921157 0.455604 0.143755
0.123049 0.244602 0.22089
0.113924 0.225559 0.196017
0.289021 0.459327 0.208591
0.531945 0.532937 0.163302
0.676631 0.552041 0.148852
0.78732 0.555062 0.140261
0.875669 0.551781 0.132708
0.95172 0.546212 0.126528
1 0.540032 0.121355
0.127138 0.256245 0.212146
0.118257 0.237308 0.187579
0.217487 0.446967 0.197284
0.483757 0.566796 0.164218
0.661082 0.602457 0.126543
0.7906 0.614893 0.120333
0.902007 0.617288 0.111971
0.998718 0.614496 0.102144
1 0.608454 0.0940566
0.129747 0.26424 0.203433
0.121187 0.245914 0.177966
0.177081 0.407782 0.187854
0.424628 0.579751 0.159533
0.628595 0.641215 0.120287
0.780499 0.6607 0.0960403
0.905638 0.666651 0.0832685
1 0.667124 0.0733654
1 0.665476 0.0677043
0.131258 0.269612 0.193439
0.122866 0.251362 0.168719
0.153414 0.333867 0.176944
0.356085 0.569223 0.15349
0.585351 0.661234 0.113909
0.751583 0.689403 0.0770886
0.907012 0.711513 0.0694743
1 0.728298 0.0667735
1 0.740047 0.0655985
0.131197 0.270985 0.182467
0.123827 0.255192 0.157992
0.122484 0.252399 0.153323
0.285557 0.53994 0.145602
0.536049 0.664637 0.105913
0.723262 0.719829 0.0732891
0.933211 0.774701 0.0685283
1 0.795438 0.0675364
1 0.815229 0.0664378
0.0238499 0.00885023 0.15845
0.170291 0.0373693 0.197269
0.237064 0.0496376 0.208286
0.277409 0.0561379 0.213535
0.304891 0.0601511 0.216785
0.323369 0.0626383 0.218387
0.337728 0.0644694 0.219699
0.349538 0.0659037 0.220356
0.359167 0.0670329 0.220981
0.0898451 0.152941 0.308721
0.194232 0.225238 0.333242
0.374746 0.242557 0.335958
0.466407 0.235996 0.331456
0.524941 0.224018 0.323842
0.559518 0.21146 0.316457
0.579721 0.1991 0.309209
0.587198 0.187076 0.301961
0.588785 0.175372 0.294789
0.116243 0.211902 0.333669
0.151003 0.302068 0.346624
0.382376 0.386709 0.362829
0.539895 0.403204 0.348562
0.641428 0.399481 0.342855
0.715587 0.389853 0.336919
0.770153 0.379294 0.332235
0.803174 0.366812 0.327626
0.827863 0.354284 0.322423
0.128527 0.242054 0.339513
0.144961 0.285618 0.34435
0.339223 0.460975 0.367041
0.563485 0.5131 0.321736
0.682948 0.519677 0.315923
0.779324 0.515435 0.310353
0.858396 0.510063 0.305867
0.917159 0.502083 0.301976
0.963149 0.492866 0.297765
0.136751 0.263401 0.341924
0.127184 0.242969 0.307485
0.275731 0.48838 0.360769
0.51487 0.577783 0.348745
0.688182 0.607752 0.310109
0.805386 0.611749 0.302586
0.903487 0.609781 0.297322
0.985199 0.603098 0.292409
1 0.596704 0.288792
0.142611 0.279622 0.340505
0.133471 0.259571 0.306355
0.209674 0.477836 0.349477
0.453544 0.616419 0.360403
0.660838 0.67718 0.309392
0.80763 0.692653 0.293431
0.926452 0.696757 0.286702
1 0.696452 0.280934
1 0.691066 0.276539
0.146426 0.290654 0.33785
0.138537 0.273396 0.304707
0.193256 0.43946 0.346853
0.394949 0.632166 0.351736
0.617121 0.728939 0.324178
0.792111 0.762005 0.281804
0.93521 0.774639 0.276448
1 0.776898 0.269322
1 0.775097 0.264027
0.14934 0.299489 0.334005
0.141497 0.282048 0.300969
0.166384 0.351781 0.327535
0.330175 0.624063 0.342321
0.56846 0.759548 0.329198
0.756146 0.817456 0.289296
0.925231 0.840345 0.265324
1 0.850111 0.257542
1 0.854597 0.251392
0.15079 0.304387 0.328893
0.143832 0.289235 0.29601
0.142779 0.286824 0.292119
0.260609 0.592248 0.330587
0.50692 0.764675 0.329381
0.711925 0.854994 0.294148
0.887221 0.890547 0.258762
1 0.90634 0.245579
1 0.915679 0.238285
0.0273747 0.0101167 0.18378
0.171618 0.0379492 0.227359
0.240467 0.0505226 0.241032
0.282078 0.0573129 0.247822
0.309606 0.0614633 0.252247
0.328038 0.0640879 0.254704
0.341268 0.0658732 0.25568
0.352209 0.0673075 0.256535
0.361379 0.0684672 0.257511
0.0927138 0.15227 0.357626
0.186343 0.22678 0.399802
0.372442 0.246098 0.409873
0.453986 0.239933 0.405615
0.505302 0.228901 0.398383
0.536309 0.216052 0.389883
0.555932 0.203494 0.381659
0.563012 0.190799 0.372702
0.565301 0.178607 0.363653
0.121965 0.217258 0.399237
0.153765 0.299123 0.431815
0.360296 0.392538 0.457542
0.522362 0.410407 0.45449
0.629343 0.406439 0.451453
0.704952 0.396536 0.446021
0.758007 0.385565 0.441306
0.791516 0.372732 0.435569
0.817212 0.362173 0.431373
0.135683 0.250813 0.414633
0.142046 0.268284 0.413458
0.322866 0.46836 0.465019
0.518578 0.519753 0.471321
0.654902 0.534951 0.461479
0.767727 0.533364 0.449104
0.853605 0.528161 0.445289
0.920989 0.519783 0.44036
0.972763 0.511879 0.436454
0.143954 0.272831 0.419043
0.134951 0.253132 0.382345
0.266377 0.498054 0.459449
0.493614 0.590677 0.475776
0.677592 0.629419 0.434012
0.813809 0.636408 0.413642
0.914488 0.633768 0.409445
1 0.627955 0.406027
1 0.622156 0.402808
0.149889 0.289418 0.420264
0.141558 0.270558 0.38584
0.211215 0.486686 0.450309
0.446021 0.635645 0.473701
0.636866 0.703044 0.458976
0.815152 0.727581 0.409979
0.938582 0.732754 0.404593
1 0.732219 0.399939
1 0.726558 0.396216
0.153994 0.301122 0.421683
0.146349 0.283909 0.385763
0.199283 0.445563 0.45124
0.384771 0.653254 0.466468
0.587289 0.755306 0.473106
0.784512 0.807889 0.417655
0.944533 0.821424 0.397726
1 0.825193 0.39173
1 0.823987 0.387457
0.157366 0.311025 0.422095
0.14966 0.293523 0.38436
0.168322 0.345556 0.415824
0.318883 0.644236 0.457084
0.547265 0.789929 0.467155
0.737591 0.867933 0.439902
0.924331 0.901884 0.391226
1 0.913954 0.383688
1 0.921614 0.377905
0.159289 0.317021 0.420218
0.152422 0.301839 0.382025
0.151522 0.299657 0.378607
0.24802 0.608972 0.444114
0.492378 0.797772 0.459739
0.688075 0.910048 0.450721
0.878691 0.963073 0.405631
1 0.986481 0.375326
1 0.999313 0.368811
0.0298466 0.0109865 0.201816
0.17203 0.0382849 0.250004
0.242359 0.0510414 0.265202
0.285359 0.0580453 0.273426
0.312963 0.0622263 0.278279
0.331365 0.0648966 0.281315
0.345006 0.0667887 0.282856
0.356313 0.0682994 0.284108
0.365133 0.0694591 0.285008
0.0965744 0.1552 0.400641
0.179599 0.226352 0.447349
0.367803 0.247395 0.466331
0.452842 0.241657 0.461845
0.501579 0.230228 0.453239
0.531609 0.217639 0.444526
0.549981 0.205203 0.435416
0.555856 0.192035 0.424613
0.558694 0.180056 0.415061
0.126116 0.221057 0.451423
0.1552 0.296162 0.487892
0.35314 0.395148 0.522576
0.51284 0.415229 0.523583
0.60032 0.41207 0.520821
0.674479 0.402716 0.515969
0.729671 0.392233 0.510964
0.765454 0.379232 0.504753
0.790478 0.367193 0.499794
0.139178 0.253635 0.466346
0.131746 0.237766 0.434791
0.294881 0.464439 0.537301
0.499763 0.524422 0.553231
0.650126 0.538369 0.548577
0.761425 0.538674 0.546212
0.848173 0.533608 0.542977
0.918807 0.525658 0.538277
0.966964 0.517815 0.534951
0.148043 0.277211 0.474647
0.138933 0.256962 0.434836
0.241764 0.493507 0.529763
0.480064 0.59733 0.557748
0.632563 0.633707 0.560769
0.762661 0.647471 0.550149
0.88101 0.647608 0.537667
0.984512 0.644617 0.5308
1 0.639048 0.527535
0.15462 0.295521 0.479789
0.145541 0.274861 0.437522
0.213901 0.488777 0.523522
0.437339 0.643915 0.555566
0.614969 0.713573 0.565362
0.786862 0.744808 0.528054
0.9402 0.755581 0.499306
1 0.753414 0.4916
1 0.74844 0.489143
0.158541 0.306996 0.480644
0.150774 0.289494 0.439246
0.201053 0.44181 0.524498
0.374945 0.66212 0.550042
0.579568 0.768841 0.562997
0.74992 0.824506 0.548455
0.949767 0.851728 0.493767
1 0.8551 0.48658
1 0.854871 0.483238
0.161837 0.316808 0.481498
0.154421 0.299794 0.441596
0.166629 0.333165 0.469291
0.30808 0.651865 0.539712
0.537987 0.807187 0.559609
0.704829 0.886793 0.564095
0.909667 0.938231 0.504433
1 0.955962 0.482597
1 0.96112 0.476402
0.163882 0.323171 0.480949
0.157458 0.308659 0.442435
0.156634 0.306584 0.439475
0.246494 0.616266 0.527123
0.483162 0.815961 0.553231
0.669734 0.933272 0.560235
0.854032 0.999527 0.531655
1 1 0.480934
1 1 0.47071
0.0317235 0.0116426 0.215991
0.171221 0.0383154 0.266987
0.243702 0.0514382 0.28484
0.286702 0.0583963 0.292485
0.315694 0.0627909 0.298604
0.333623 0.0654002 0.301625
0.347799 0.0673838 0.303975
0.359426 0.0689708 0.305745
0.368231 0.0701305 0.306615
0.0978256 0.15407 0.429664
0.172717 0.224872 0.484215
0.362325 0.247547 0.512688
0.451621 0.242557 0.507393
0.501228 0.231098 0.498634
0.531014 0.218296 0.489021
0.548806 0.205646 0.478843
0.554986 0.192737 0.467552
0.557763 0.180545 0.457008
0.128145 0.221775 0.487434
0.156008 0.292775 0.535225
0.344945 0.39501 0.577096
0.505531 0.416922 0.586175
0.595926 0.415061 0.579721
0.661646 0.406577 0.574853
0.708232 0.394812 0.568139
0.743923 0.382712 0.562219
0.768688 0.371313 0.557015
0.141909 0.255863 0.508873
0.132174 0.234699 0.468009
0.286198 0.465126 0.595987
0.490043 0.527382 0.623133
0.628855 0.543633 0.616541
0.735973 0.544106 0.614404
0.827192 0.537911 0.610315
0.905119 0.531044 0.606134
0.955154 0.523018 0.602701
0.151186 0.280491 0.520943
0.141649 0.259098 0.47686
0.215473 0.479377 0.586999
0.448295 0.593683 0.634867
0.615534 0.639139 0.640558
0.762814 0.651865 0.634516
0.880369 0.652094 0.63151
0.979904 0.648615 0.628672
1 0.643015 0.625711
0.158007 0.299413 0.529152
0.148791 0.278248 0.483299
0.212924 0.476799 0.58912
0.416297 0.642634 0.628962
0.603708 0.718303 0.643091
0.745678 0.74934 0.643931
0.876753 0.76228 0.632929
0.994934 0.764385 0.621927
1 0.763088 0.611322
0.16202 0.311284 0.53077
0.154345 0.293797 0.487053
0.201282 0.435538 0.581231
0.365911 0.665629 0.619791
0.573404 0.778012 0.641199
0.726604 0.831708 0.647578
0.899702 0.861341 0.610773
1 0.875181 0.583902
1 0.873167 0.55996
0.165209 0.321065 0.530709
0.157946 0.304173 0.488853
0.162585 0.316716 0.500328
0.298177 0.654154 0.607187
0.529702 0.816083 0.63859
0.699428 0.902693 0.647654
0.861265 0.949752 0.633402
1 0.980392 0.576867
1 0.986526 0.554574
0.167193 0.327321 0.529793
0.160952 0.313085 0.489677
0.160143 0.31104 0.486595
0.247517 0.617716 0.594568
0.474952 0.825589 0.632029
0.662379 0.950072 0.645258
0.818433 1 0.646845
1 1 0.579049
1 1 0.551461
0.0332494 0.0121767 0.227817
0.169924 0.0382086 0.28043
0.244526 0.0517128 0.300206
0.288167 0.0587472 0.308003
0.317174 0.0631266 0.314031
0.335622 0.0657969 0.317433
0.350195 0.0678416 0.32018
0.361868 0.0694285 0.322103
0.370855 0.070634 0.32314
0.0989395 0.153384 0.453635
0.166094 0.223438 0.513954
0.356741 0.247257 0.550927
0.450019 0.242878 0.545647
0.500572 0.231601 0.536507
0.531395 0.218936 0.526528
0.548882 0.205707 0.514534
0.555474 0.192935 0.503014
0.558343 0.180713 0.491569
0.129625 0.222049 0.516854
0.155413 0.287022 0.570504
0.337011 0.394827 0.624262
0.498894 0.417578 0.640543
0.593652 0.416709 0.63209
0.658961 0.408347 0.627329
0.70222 0.396719 0.619852
0.735454 0.384405 0.613016
0.758633 0.373068 0.607111
0.144228 0.257923 0.545602
0.133867 0.235431 0.498344
0.277852 0.463584 0.64477
0.485298 0.528725 0.682536
0.618357 0.545113 0.684627
0.719921 0.547829 0.676951
0.799405 0.542397 0.67219
0.875624 0.53576 0.668528
0.927428 0.528023 0.664836
0.153582 0.282841 0.560113
0.143954 0.26099 0.513161
0.214527 0.476738 0.636362
0.441215 0.595041 0.698177
0.600565 0.64239 0.714031
0.742397 0.657252 0.704402
0.867445 0.656519 0.700984
0.971267 0.654017 0.698878
1 0.647822 0.695109
0.160266 0.301686 0.568093
0.151324 0.280781 0.521859
0.208331 0.453346 0.647395
0.379065 0.630381 0.695842
0.572549 0.715999 0.723293
0.725414 0.754467 0.724437
0.870741 0.767987 0.718303
0.993469 0.767452 0.714794
1 0.763577 0.712276
0.164294 0.313619 0.570596
0.157107 0.29691 0.527993
0.193072 0.402655 0.617899
0.342138 0.657221 0.684718
0.558007 0.780346 0.717891
0.716243 0.839704 0.726619
0.853101 0.863416 0.724987
0.987106 0.878752 0.715511
1 0.883589 0.704356
0.167758 0.324041 0.573098
0.160647 0.307362 0.529061
0.159747 0.305104 0.525292
0.289128 0.6533 0.667674
0.521553 0.821271 0.712123
0.692943 0.911986 0.726497
0.84007 0.958679 0.729717
1 0.991272 0.694041
1 1 0.664576
0.169894 0.330678 0.573739
0.163622 0.31632 0.529534
0.162814 0.314229 0.526558
0.249104 0.61709 0.656641
0.466865 0.83061 0.705272
0.654582 0.959258 0.7243
0.812009 1 0.730434
0.975967 1 0.717311
1 1 0.657526
0.0344854 0.0125887 0.237659
0.168536 0.0380713 0.291691
0.244999 0.0518959 0.312963
0.289281 0.0590219 0.321294
0.318318 0.063386 0.32697
0.337301 0.0661326 0.330968
0.352163 0.0682078 0.333989
0.363745 0.0697948 0.335744
0.373083 0.0710307 0.337301
0.100252 0.153765 0.474296
0.158923 0.221729 0.538308
0.351507 0.247028 0.584558
0.447761 0.243565 0.581491
0.49955 0.231769 0.571023
0.531044 0.219074 0.56051
0.549584 0.206027 0.547906
0.556039 0.193027 0.535195
0.558984 0.180621 0.522713
0.1308 0.222309 0.540383
0.154299 0.280583 0.599863
0.329488 0.393988 0.665858
0.492546 0.417823 0.690211
0.590936 0.41796 0.683558
0.657542 0.409583 0.67718
0.700511 0.39762 0.669078
0.73344 0.386069 0.661738
0.754437 0.374014 0.654215
0.145525 0.258564 0.572061
0.135332 0.236118 0.525017
0.2701 0.461585 0.689418
0.480293 0.52961 0.738033
0.611261 0.546868 0.747723
0.717006 0.550423 0.737469
0.790265 0.545037 0.732662
0.857374 0.538888 0.72813
0.904768 0.531411 0.723934
0.155001 0.283787 0.589166
0.145907 0.262684 0.544839
0.215152 0.474342 0.6851
0.434089 0.594568 0.756756
0.595117 0.643931 0.77908
0.726085 0.659449 0.779644
0.839338 0.661936 0.768704
0.938003 0.65861 0.765743
1 0.651194 0.761257
0.161975 0.303304 0.600336
0.153353 0.282689 0.555596
0.206714 0.442741 0.694453
0.370367 0.629129 0.754742
0.563653 0.717784 0.793271
0.707683 0.757763 0.801785
0.865476 0.770947 0.790219
0.993103 0.77171 0.786862
1 0.770275 0.785351
0.166232 0.315847 0.605188
0.159075 0.298848 0.561608
0.180667 0.359472 0.630518
0.302998 0.635981 0.739773
0.520455 0.769589 0.795132
0.687404 0.839567 0.81059
0.834058 0.870314 0.807996
0.97998 0.88275 0.800519
1 0.885649 0.797803
0.169802 0.326558 0.609247
0.162676 0.309438 0.563958
0.161776 0.307088 0.560647
0.266835 0.636713 0.723598
0.497658 0.81442 0.785534
0.677165 0.915007 0.805692
0.829969 0.966674 0.81088
0.977935 0.994003 0.809033
1 1 0.796719
0.172015 0.333303 0.611582
0.165743 0.318715 0.565118
0.164797 0.316304 0.560525
0.249744 0.612924 0.713542
0.459174 0.832395 0.773297
0.64741 0.965896 0.800137
0.805539 1 0.810269
0.956008 1 0.812329
1 1 0.773007
0.0355535 0.0129549 0.246418
0.166903 0.0378576 0.300298
0.244724 0.0519265 0.322484
0.29012 0.0592203 0.331823
0.319478 0.0636301 0.337835
0.338491 0.0663767 0.341451
0.353475 0.0684672 0.344366
0.365118 0.0700389 0.346365
0.374533 0.0713054 0.347875
0.101305 0.153918 0.492439
0.150652 0.219898 0.558083
0.346273 0.246632 0.612528
0.445319 0.243915 0.61088
0.498878 0.23241 0.599344
0.530846 0.219501 0.587655
0.549981 0.206424 0.574395
0.556756 0.193378 0.560678
0.559243 0.180743 0.546777
0.131777 0.2224 0.562097
0.152392 0.272877 0.621347
0.322377 0.391943 0.699672
0.486717 0.417044 0.732174
0.586801 0.418204 0.726116
0.65478 0.409827 0.716899
0.699458 0.398703 0.710063
0.733257 0.387213 0.702617
0.752499 0.37409 0.693446
0.14667 0.259129 0.596658
0.136522 0.236667 0.54757
0.262516 0.459129 0.725109
0.473457 0.529488 0.785077
0.604562 0.547448 0.801907
0.710811 0.551537 0.791455
0.788235 0.546578 0.784421
0.851637 0.540612 0.780255
0.894697 0.532494 0.774395
0.156252 0.284611 0.616373
0.14699 0.263111 0.568063
0.215106 0.47039 0.725155
0.427359 0.594659 0.80708
0.589837 0.645289 0.836728
0.716823 0.659907 0.844114
0.835096 0.665583 0.829526
0.919066 0.661448 0.826688
0.993805 0.656168 0.822644
0.163409 0.304601 0.63032
0.154574 0.283345 0.58146
0.205692 0.435431 0.733898
0.362387 0.62771 0.805463
0.557671 0.718257 0.854246
0.697597 0.75906 0.870237
0.833417 0.773861 0.868055
0.963714 0.776822 0.854536
1 0.775219 0.85333
0.16791 0.31783 0.63682
0.160525 0.300008 0.590463
0.169604 0.324468 0.623377
0.291188 0.630854 0.788571
0.51281 0.769665 0.858244
0.672572 0.839658 0.884932
0.818189 0.874937 0.885664
0.983902 0.88748 0.874846
1 0.890684 0.871351
0.171572 0.328862 0.641779
0.164324 0.311101 0.594156
0.163516 0.308919 0.591562
0.251942 0.613581 0.774166
0.460304 0.795132 0.853208
0.638315 0.905455 0.889403
0.803571 0.968658 0.897841
0.955352 0.999847 0.89305
1 1 0.88539
0.173602 0.33518 0.643061
0.167468 0.320577 0.596414
0.166644 0.318395 0.593118
0.24596 0.589349 0.770428
0.431006 0.81738 0.838605
0.623697 0.960006 0.878691
0.788876 1 0.893523
0.945251 1 0.896345
1 1 0.892851
