sandaya_1.0/luts/SANDAYA_LOOK_001_0020_ACESCG_TO_ACESCG.cube
TITLE "Generated by Resolve"
LUT_3D_SIZE 9
0.00729381 0.00959792 0.0121004
0.243641 0.0432746 0.00881972
0.313634 0.0529183 0.0105898
0.34345 0.0566567 0.0112612
0.362921 0.0590066 0.0116732
0.375601 0.0604868 0.0119326
0.385016 0.0615549 0.0121309
0.392676 0.0624247 0.0122835
0.39794 0.0630045 0.0123751
0.0480659 0.0983902 0.0208896
0.236057 0.174334 0.0276493
0.385626 0.186099 0.0292821
0.473548 0.183597 0.0289311
0.532662 0.176745 0.0280156
0.566888 0.169833 0.0270848
0.584009 0.161273 0.0259251
0.592615 0.152865 0.0247959
0.59501 0.143908 0.0236057
0.0669413 0.139406 0.0233921
0.242695 0.252872 0.0381476
0.411063 0.284413 0.0411994
0.506966 0.288487 0.0413367
0.576791 0.285206 0.0408026
0.633265 0.280644 0.0401617
0.674769 0.274342 0.0393835
0.704158 0.267308 0.0385748
0.724681 0.260792 0.0378271
0.0773327 0.161593 0.0260777
0.243702 0.297139 0.043183
0.419806 0.346075 0.0474556
0.528069 0.359548 0.048249
0.609125 0.362478 0.0481575
0.67602 0.360021 0.0476387
0.728969 0.356619 0.0471046
0.772213 0.351431 0.0464637
0.804181 0.34609 0.0458686
0.0850233 0.177874 0.0284886
0.242954 0.326223 0.0462501
0.41912 0.385718 0.0511025
0.538537 0.408774 0.0524758
0.627573 0.417044 0.0526894
0.701137 0.418006 0.052369
0.766491 0.4177 0.0520027
0.824552 0.41532 0.0515145
0.864454 0.410941 0.0509651
0.0907912 0.190082 0.0302892
0.24271 0.349447 0.0485542
0.418387 0.41735 0.0538033
0.543893 0.447547 0.0555276
0.636774 0.458473 0.0558175
0.719722 0.46363 0.0557107
0.791135 0.463661 0.0552834
0.853056 0.462226 0.0548257
0.910719 0.460563 0.0543679
0.0954299 0.200137 0.0317235
0.242618 0.368368 0.0503395
0.416419 0.442847 0.0558633
0.544884 0.478065 0.0577859
0.644526 0.494667 0.0583505
0.730678 0.501076 0.0582437
0.808103 0.503166 0.0578927
0.879057 0.503426 0.0574502
0.94464 0.502678 0.0569924
0.0992599 0.208606 0.0328985
0.241627 0.383246 0.0517128
0.412955 0.463813 0.057496
0.545983 0.504494 0.0596475
0.649699 0.525399 0.0603647
0.741161 0.534417 0.0603189
0.820768 0.537835 0.0599832
0.899947 0.53994 0.0595712
0.968246 0.539376 0.0590829
0.102693 0.216342 0.0339361
0.241413 0.396582 0.0528878
0.41062 0.481834 0.0588388
0.547723 0.528237 0.0612039
0.65185 0.551461 0.0619364
0.747982 0.565332 0.0620584
0.830839 0.569635 0.0616922
0.916976 0.573465 0.0612802
0.988968 0.574105 0.0608072
0.0275578 0.0101778 0.185061
0.237797 0.0485237 0.153262
0.330632 0.0590677 0.143938
0.373251 0.0628367 0.13724
0.398703 0.0649577 0.13196
0.415534 0.066331 0.127733
0.427085 0.0672465 0.124086
0.435554 0.0679332 0.121401
0.442344 0.0684825 0.118914
0.105318 0.186267 0.329198
0.20911 0.219394 0.210285
0.379156 0.220066 0.174365
0.466087 0.211749 0.154726
0.524269 0.201862 0.140749
0.564874 0.192691 0.13022
0.58999 0.18265 0.120272
0.605097 0.174548 0.112535
0.612558 0.166201 0.105821
0.124544 0.236606 0.304814
0.210575 0.315755 0.199985
0.387976 0.335134 0.131701
0.495644 0.329488 0.0968032
0.577188 0.310887 0.0696117
0.634913 0.296101 0.0556344
0.676722 0.282795 0.0483253
0.70106 0.269612 0.0438544
0.719097 0.259571 0.0407874
0.133135 0.26183 0.283772
0.207828 0.362615 0.185565
0.366842 0.399542 0.14728
0.497017 0.404593 0.0936141
0.57641 0.402533 0.0761273
0.643427 0.390311 0.0532692
0.71809 0.382589 0.0494392
0.787991 0.377172 0.0486152
0.835752 0.368795 0.0476844
0.137575 0.276478 0.264118
0.205814 0.390127 0.171084
0.355459 0.438056 0.141878
0.490593 0.451423 0.0894942
0.581979 0.452354 0.0602426
0.652369 0.450568 0.055436
0.727718 0.451408 0.0547646
0.806043 0.453086 0.0544442
0.886976 0.451072 0.0538338
0.14049 0.286976 0.246433
0.201144 0.407691 0.155505
0.351293 0.465278 0.127611
0.482231 0.486259 0.0898909
0.58558 0.492393 0.0585641
0.676753 0.502205 0.0586557
0.753536 0.506004 0.0584268
0.832151 0.508141 0.0580606
0.907759 0.509056 0.0576333
0.142046 0.29369 0.229587
0.199054 0.421027 0.142245
0.34786 0.485527 0.114275
0.473823 0.512505 0.0842145
0.582727 0.526665 0.0608835
0.702831 0.551858 0.0616159
0.783291 0.554711 0.0612192
0.86949 0.558862 0.0608377
0.945876 0.560449 0.0603952
0.143252 0.299306 0.213642
0.197711 0.430594 0.128756
0.343923 0.499718 0.10132
0.465522 0.531868 0.0753338
0.581735 0.556466 0.0626993
0.704295 0.586892 0.0635233
0.814237 0.602808 0.0634928
0.906737 0.607614 0.063035
0.99205 0.609812 0.062501
0.143236 0.301442 0.198413
0.196674 0.436484 0.116701
0.341436 0.511223 0.0887922
0.460639 0.547799 0.0680095
0.582712 0.583551 0.0641947
0.707195 0.619226 0.0650797
0.830457 0.642695 0.065156
0.9346 0.649592 0.064622
1 0.654902 0.0640726
0.0343633 0.0125582 0.236774
0.242115 0.0505837 0.217792
0.321675 0.0621805 0.21149
0.360876 0.066453 0.205142
0.386084 0.0686961 0.200153
0.403586 0.0700542 0.196139
0.416892 0.0710155 0.192935
0.425834 0.0715801 0.189929
0.433539 0.0720531 0.187335
0.117586 0.194888 0.487846
0.204181 0.231891 0.344488
0.356527 0.233555 0.304585
0.456382 0.22446 0.282628
0.524681 0.21294 0.264729
0.567514 0.201755 0.250568
0.595941 0.191913 0.238972
0.612238 0.18323 0.229755
0.62005 0.173556 0.22031
0.1411 0.257359 0.478721
0.20145 0.339208 0.346181
0.36054 0.365667 0.313863
0.472908 0.366461 0.287373
0.556527 0.356634 0.261921
0.618799 0.346685 0.247379
0.667506 0.335332 0.235035
0.706172 0.325902 0.225864
0.734707 0.316487 0.217929
0.150332 0.285863 0.457618
0.201816 0.393637 0.331884
0.358114 0.437964 0.303441
0.493309 0.450568 0.245853
0.589929 0.441596 0.199527
0.669551 0.42591 0.1738
0.728801 0.411399 0.16025
0.778881 0.399558 0.151537
0.812924 0.388815 0.144625
0.156634 0.306493 0.440101
0.199817 0.427543 0.321828
0.351537 0.484062 0.293721
0.471595 0.506371 0.273106
0.586938 0.503899 0.200809
0.660029 0.498985 0.182086
0.732067 0.486 0.15758
0.794079 0.47155 0.135744
0.847456 0.459648 0.122698
0.160342 0.319631 0.424826
0.201343 0.453681 0.312108
0.344869 0.516564 0.282368
0.466514 0.546685 0.263066
0.571954 0.553414 0.213947
0.661799 0.545846 0.174228
0.728649 0.541421 0.161501
0.793713 0.534157 0.145998
0.849989 0.519753 0.125322
0.163165 0.330175 0.410437
0.203464 0.47245 0.302113
0.340597 0.542763 0.272328
0.461723 0.578073 0.251926
0.561044 0.593866 0.22414
0.654521 0.588037 0.172
0.732982 0.582132 0.150973
0.794446 0.576837 0.140093
0.850813 0.568826 0.128862
0.164935 0.337636 0.395804
0.205615 0.487434 0.291585
0.335042 0.56257 0.261036
0.455863 0.60267 0.24062
0.552728 0.624949 0.223728
0.645151 0.624674 0.178576
0.731991 0.617609 0.138766
0.798459 0.612039 0.129061
0.860609 0.607599 0.120562
0.166247 0.343465 0.383215
0.207156 0.497261 0.282445
0.331334 0.579644 0.250874
0.452918 0.625559 0.231189
0.549813 0.651362 0.215778
0.638636 0.656352 0.181308
0.721843 0.651469 0.145083
0.798001 0.641123 0.116945
0.86508 0.637125 0.108141
0.0374456 0.013611 0.262303
0.246296 0.0516213 0.255512
0.325902 0.0637369 0.251423
0.360647 0.0680552 0.245197
0.384115 0.070573 0.240497
0.399878 0.0720836 0.236851
0.411795 0.0731212 0.233951
0.420264 0.0737926 0.231357
0.427482 0.074342 0.229175
0.121263 0.194812 0.56582
0.203418 0.235416 0.424643
0.354757 0.23798 0.389838
0.432959 0.229633 0.36492
0.493782 0.218433 0.344884
0.538643 0.206317 0.327733
0.571008 0.196155 0.314336
0.588983 0.186465 0.302419
0.600168 0.176822 0.291478
0.148058 0.264042 0.587182
0.182879 0.348333 0.457572
0.34963 0.375784 0.419257
0.479942 0.377203 0.385367
0.563668 0.368627 0.366186
0.625742 0.35729 0.349966
0.677607 0.346975 0.336492
0.715846 0.336812 0.325597
0.746151 0.326177 0.315297
0.159213 0.297963 0.573358
0.195636 0.406012 0.439841
0.348013 0.453254 0.414252
0.469688 0.469184 0.387655
0.553201 0.469871 0.365682
0.631571 0.462821 0.342855
0.692424 0.453239 0.322652
0.744884 0.444678 0.31017
0.790021 0.436576 0.299901
0.165698 0.319753 0.554376
0.203616 0.44596 0.428412
0.349493 0.504051 0.401022
0.469612 0.527611 0.378836
0.566491 0.535149 0.335348
0.664652 0.526497 0.276905
0.746303 0.511589 0.242283
0.80885 0.500267 0.23003
0.863828 0.491157 0.221286
0.169451 0.333608 0.536767
0.207813 0.474067 0.421668
0.342702 0.540917 0.39205
0.462669 0.570764 0.368811
0.554086 0.58526 0.351522
0.661723 0.581857 0.2748
0.736156 0.575799 0.252506
0.807172 0.563058 0.226413
0.871504 0.550286 0.208576
0.172946 0.346242 0.524575
0.211688 0.494545 0.413458
0.337545 0.569924 0.382864
0.458427 0.608301 0.360006
0.553384 0.629343 0.342855
0.642374 0.63328 0.299596
0.737041 0.623652 0.247517
0.800549 0.61828 0.234302
0.864729 0.609094 0.216999
0.175051 0.354543 0.512932
0.215625 0.512154 0.405341
0.33138 0.592844 0.371832
0.452522 0.637797 0.350042
0.549004 0.66331 0.33286
0.630274 0.675273 0.312932
0.723491 0.671321 0.25565
0.803662 0.661555 0.22707
0.870329 0.657328 0.216739
0.176761 0.361456 0.502678
0.218372 0.524392 0.398199
0.327077 0.612924 0.362814
0.448692 0.664622 0.341115
0.547448 0.69572 0.324636
0.624537 0.709163 0.309682
0.711086 0.712215 0.269245
0.7953 0.699138 0.221881
0.872297 0.693599 0.208606
0.0392309 0.0142367 0.277714
0.25008 0.052491 0.284871
0.328939 0.0645457 0.280949
0.363867 0.0691386 0.275486
0.385733 0.0717174 0.271183
0.40116 0.0733654 0.267445
0.411765 0.0743877 0.263996
0.419654 0.0751049 0.261112
0.426169 0.0756542 0.258305
0.122942 0.194034 0.612787
0.20325 0.236057 0.483253
0.352224 0.239445 0.452766
0.432456 0.231266 0.42356
0.483757 0.219425 0.401297
0.522454 0.208438 0.384192
0.55082 0.198108 0.369146
0.566583 0.187945 0.355978
0.578302 0.178439 0.344381
0.152514 0.269154 0.663432
0.183642 0.352453 0.536583
0.34876 0.380545 0.488731
0.460029 0.382712 0.458381
0.543648 0.375418 0.436301
0.613275 0.363394 0.418967
0.670283 0.353124 0.404791
0.710185 0.342412 0.392569
0.741238 0.331258 0.380667
0.163943 0.303487 0.658351
0.193011 0.410529 0.530861
0.328511 0.459632 0.497398
0.458122 0.479042 0.472648
0.558404 0.479133 0.442039
0.634775 0.474647 0.425666
0.694987 0.46389 0.410117
0.751232 0.456153 0.398428
0.796185 0.447318 0.387793
0.171176 0.327245 0.644892
0.204166 0.45243 0.512245
0.339773 0.51284 0.48452
0.460029 0.539086 0.465415
0.550149 0.547646 0.442817
0.625284 0.547158 0.423407
0.690806 0.540307 0.405936
0.761517 0.533227 0.385855
0.815473 0.527153 0.37142
0.175799 0.34342 0.632105
0.212024 0.483864 0.499245
0.341054 0.553811 0.472786
0.461067 0.585733 0.45095
0.553521 0.601801 0.43331
0.629892 0.60502 0.406668
0.723461 0.598795 0.349813
0.813062 0.583337 0.304021
0.880827 0.573205 0.284474
0.179538 0.356939 0.619165
0.217716 0.50721 0.494316
0.335668 0.585534 0.46595
0.456352 0.626108 0.443976
0.550683 0.646998 0.425391
0.628092 0.656504 0.410941
0.721263 0.653468 0.348013
0.804791 0.643717 0.307027
0.877943 0.631907 0.281071
0.181247 0.364385 0.602136
0.222538 0.526879 0.488945
0.329122 0.611017 0.456519
0.450446 0.658549 0.435035
0.546777 0.684932 0.417014
0.626413 0.700267 0.40293
0.704417 0.701106 0.366369
0.803708 0.693278 0.305379
0.876524 0.687999 0.288823
0.183078 0.371801 0.590433
0.22565 0.540078 0.483513
0.324651 0.632639 0.448432
0.446632 0.688457 0.42739
0.544854 0.720363 0.409842
0.623041 0.737331 0.394568
0.691951 0.744839 0.381704
0.785855 0.739803 0.320546
0.876143 0.730449 0.283314
0.0403754 0.0146334 0.287953
0.253101 0.0531777 0.306538
0.331762 0.065156 0.303807
0.367086 0.0699016 0.299168
0.388083 0.0724651 0.294682
0.40351 0.0742351 0.291615
0.413367 0.0752575 0.287846
0.420645 0.0759594 0.284535
0.426581 0.0765087 0.281621
0.124636 0.194629 0.650187
0.203433 0.236103 0.530114
0.35111 0.239017 0.503822
0.432898 0.231647 0.470481
0.483131 0.21976 0.446769
0.518639 0.208835 0.428473
0.542687 0.198032 0.411475
0.557458 0.188434 0.397574
0.567147 0.178637 0.384619
0.154299 0.269947 0.713008
0.186069 0.354147 0.595453
0.347738 0.383383 0.546792
0.456611 0.385901 0.52018
0.532097 0.379705 0.49131
0.590585 0.36817 0.472709
0.648219 0.357946 0.458289
0.689693 0.346365 0.444968
0.724163 0.334874 0.433066
0.16733 0.308095 0.723476
0.196384 0.414755 0.608972
0.32134 0.463966 0.571344
0.455283 0.483528 0.535225
0.547463 0.486442 0.51075
0.637079 0.478523 0.484077
0.701579 0.470192 0.469932
0.757641 0.461738 0.457832
0.800198 0.451621 0.445762
0.174578 0.331884 0.712718
0.207065 0.454627 0.595163
0.317067 0.515969 0.556771
0.448066 0.546426 0.537102
0.540383 0.55642 0.514
0.625055 0.554131 0.48571
0.694255 0.550118 0.471855
0.757473 0.544442 0.460517
0.81442 0.537987 0.448936
0.179629 0.348928 0.705638
0.215137 0.486809 0.574899
0.331121 0.560281 0.54258
0.449729 0.594034 0.523796
0.543542 0.612055 0.505348
0.620829 0.616922 0.486488
0.691951 0.6168 0.470222
0.749905 0.610941 0.456214
0.821317 0.604166 0.43917
0.183581 0.362829 0.695781
0.221958 0.514138 0.563424
0.333974 0.595728 0.529793
0.454994 0.637659 0.510079
0.549599 0.659907 0.492866
0.627802 0.670817 0.478569
0.692332 0.670527 0.461753
0.781491 0.664317 0.407889
0.868635 0.65182 0.366033
0.185702 0.371359 0.67953
0.227253 0.535943 0.555489
0.326955 0.621759 0.521508
0.449149 0.67245 0.502922
0.545724 0.700511 0.485954
0.625193 0.715892 0.470588
0.690166 0.719524 0.45597
0.778897 0.719387 0.406058
0.862821 0.710781 0.368124
0.187701 0.379232 0.667506
0.23061 0.55024 0.55082
0.322713 0.645197 0.515084
0.444968 0.704143 0.496895
0.543328 0.73817 0.478813
0.621851 0.755962 0.463447
0.690044 0.764004 0.449851
0.763455 0.76672 0.426902
0.861692 0.759274 0.363165
0.0388647 0.0140993 0.274571
0.255024 0.0536202 0.323415
0.334218 0.0656291 0.321447
0.369787 0.0704509 0.318044
0.390494 0.0730449 0.314275
0.405478 0.074815 0.31136
0.415686 0.0759442 0.308431
0.422812 0.0766918 0.305043
0.42858 0.0772564 0.302174
0.125963 0.195117 0.681483
0.2038 0.236347 0.568612
0.350378 0.238483 0.545922
0.432212 0.231083 0.513024
0.483299 0.219287 0.487541
0.517906 0.208438 0.467903
0.539742 0.197131 0.448493
0.553414 0.187839 0.434028
0.562295 0.178164 0.420127
0.155871 0.271229 0.753552
0.188128 0.354635 0.637873
0.346349 0.384665 0.597223
0.454566 0.387579 0.574365
0.528878 0.380255 0.540459
0.583383 0.370886 0.520729
0.631617 0.360265 0.505455
0.668696 0.348623 0.490913
0.704036 0.338231 0.479133
0.169146 0.309957 0.770794
0.199084 0.417441 0.676097
0.323156 0.466407 0.630106
0.452811 0.485283 0.588373
0.539376 0.489418 0.569406
0.618814 0.483391 0.536721
0.69044 0.474891 0.521721
0.750835 0.466163 0.508736
0.79382 0.455039 0.495216
0.177111 0.33547 0.76875
0.210163 0.457435 0.672007
0.304112 0.518181 0.624613
0.433097 0.549264 0.601663
0.534722 0.562234 0.574838
0.620447 0.559869 0.551781
0.702007 0.555688 0.525887
0.766247 0.550286 0.51342
0.821485 0.542123 0.500847
0.182498 0.353445 0.764172
0.218006 0.488411 0.652888
0.30811 0.560922 0.608911
0.436744 0.599985 0.58938
0.531121 0.618173 0.571496
0.613184 0.626688 0.550393
0.689265 0.624506 0.526894
0.752392 0.618692 0.511574
0.817288 0.614176 0.500755
0.186435 0.367071 0.756588
0.224948 0.516442 0.638224
0.320104 0.59733 0.594339
0.444251 0.645151 0.577996
0.537499 0.669215 0.561395
0.618784 0.681773 0.543572
0.684886 0.680934 0.524742
0.751476 0.679118 0.508644
0.812467 0.67599 0.498238
0.18883 0.37612 0.744305
0.23032 0.539101 0.626123
0.321782 0.62797 0.581537
0.447517 0.682399 0.562478
0.544289 0.711376 0.544244
0.623911 0.728237 0.529549
0.689342 0.732204 0.515145
0.754788 0.736095 0.503883
0.839673 0.729335 0.456809
0.191165 0.384833 0.734859
0.234134 0.556252 0.614359
0.320195 0.65301 0.573617
0.443351 0.715709 0.556268
0.541741 0.75021 0.537911
0.619913 0.769604 0.523568
0.689006 0.778347 0.510323
0.754421 0.783078 0.498497
0.835492 0.781781 0.456016
0.0397498 0.0144198 0.282399
0.256214 0.0539254 0.336187
0.336431 0.066041 0.336202
0.37229 0.0709087 0.333715
0.392828 0.0735027 0.329885
0.40798 0.0753338 0.327642
0.418296 0.0765087 0.325322
0.425437 0.0772869 0.322515
0.431083 0.0778821 0.319997
0.126375 0.194568 0.699657
0.203937 0.23595 0.602014
0.349065 0.237278 0.58233
0.431678 0.230304 0.549081
0.483604 0.218845 0.52047
0.517601 0.207568 0.499687
0.53959 0.196704 0.480476
0.5523 0.187015 0.465064
0.560418 0.177386 0.449928
0.157565 0.273304 0.792081
0.189975 0.355032 0.675151
0.345495 0.385489 0.645548
0.45214 0.387762 0.623117
0.526406 0.381155 0.587015
0.5823 0.37174 0.562936
0.625727 0.360586 0.545037
0.659175 0.349813 0.5299
0.691493 0.339864 0.516884
0.17052 0.311376 0.810056
0.200641 0.417762 0.731594
0.327199 0.468421 0.678874
0.452079 0.487785 0.640253
0.537011 0.492042 0.624842
0.607217 0.486381 0.586786
0.669703 0.478248 0.566308
0.730449 0.468345 0.551339
0.779599 0.458778 0.538003
0.179431 0.339193 0.820691
0.212589 0.459907 0.738827
0.300175 0.520455 0.688472
0.432212 0.551781 0.664103
0.533989 0.565667 0.62829
0.605066 0.564324 0.611093
0.701411 0.559762 0.574395
0.767971 0.554437 0.559976
0.82388 0.54638 0.546471
0.184771 0.357244 0.813275
0.220172 0.489082 0.727092
0.294347 0.562783 0.672694
0.422385 0.604395 0.653529
0.523201 0.623148 0.629282
0.605585 0.632456 0.608728
0.679133 0.629129 0.588159
0.756741 0.624811 0.560464
0.823987 0.619776 0.54847
0.188647 0.37052 0.808362
0.226917 0.516518 0.708583
0.300679 0.596933 0.654566
0.428412 0.648096 0.641596
0.527504 0.674769 0.623301
0.60557 0.687617 0.604883
0.676997 0.690455 0.582025
0.749294 0.688136 0.561578
0.813214 0.683635 0.54638
0.191135 0.379614 0.798428
0.232181 0.539254 0.690532
0.309529 0.629053 0.63859
0.436423 0.686061 0.623346
0.532464 0.718807 0.607294
0.610056 0.736278 0.59115
0.679744 0.743175 0.573709
0.750072 0.745754 0.557412
0.811795 0.742763 0.542123
0.193469 0.388281 0.789136
0.236103 0.556588 0.679164
0.312612 0.656474 0.628092
0.439857 0.722637 0.610452
0.540032 0.759716 0.591363
0.619028 0.780346 0.575967
0.687312 0.788495 0.560784
0.753567 0.794903 0.548455
0.813352 0.794278 0.536904
0.0404669 0.0146639 0.288746
0.256947 0.0541238 0.346395
0.338308 0.066392 0.348241
0.374273 0.0712596 0.346288
0.395087 0.0738994 0.343725
0.410468 0.0757916 0.342306
0.420829 0.076997 0.339834
0.427955 0.0777905 0.33698
0.4336 0.0783856 0.334371
0.127092 0.194827 0.717983
0.204181 0.23592 0.629343
0.347753 0.236088 0.613001
0.430564 0.229175 0.580667
0.483192 0.217594 0.551385
0.516991 0.2065 0.528527
0.539376 0.195544 0.508583
0.551675 0.185885 0.492485
0.558816 0.175921 0.476158
0.158633 0.274434 0.821347
0.191302 0.355871 0.708003
0.345113 0.385946 0.68632
0.450507 0.387762 0.668406
0.524453 0.381537 0.631281
0.581979 0.371923 0.601877
0.624521 0.361242 0.582986
0.656199 0.351019 0.567544
0.685313 0.340658 0.55375
0.17174 0.312993 0.843214
0.20209 0.418906 0.778881
0.329686 0.469734 0.719982
0.451225 0.48954 0.689082
0.534676 0.492927 0.673808
0.604181 0.487953 0.636347
0.662058 0.48014 0.610162
0.712673 0.470603 0.59266
0.760143 0.461616 0.578683
0.180835 0.341192 0.8589
0.214343 0.461265 0.799191
0.299519 0.52224 0.745647
0.435889 0.553933 0.712963
0.533059 0.567895 0.678233
0.602594 0.566674 0.663157
0.67689 0.565362 0.628382
0.756008 0.557671 0.604028
0.816815 0.548959 0.589273
0.186725 0.360662 0.85803
0.222065 0.490639 0.790372
0.288014 0.563561 0.734676
0.415091 0.606683 0.716213
0.518471 0.62768 0.691539
0.604318 0.636606 0.661463
0.6701 0.633341 0.646204
0.761898 0.628992 0.6094
0.831052 0.624491 0.593729
0.190478 0.373709 0.850736
0.22855 0.516564 0.775601
0.285176 0.594614 0.714885
0.411597 0.648859 0.698909
0.518624 0.680049 0.679088
0.601205 0.693141 0.659648
0.669322 0.696117 0.638285
0.741176 0.694011 0.621332
0.814252 0.68893 0.592264
0.193103 0.383078 0.843656
0.23357 0.538033 0.758068
0.293431 0.627848 0.695857
0.418128 0.686702 0.684092
0.517754 0.722728 0.670192
0.595361 0.74107 0.653361
0.668986 0.750423 0.633005
0.742107 0.753872 0.612268
0.805768 0.750225 0.594079
0.195544 0.391745 0.838865
0.237736 0.556542 0.743648
0.301305 0.656016 0.682551
0.428504 0.72604 0.671489
0.524941 0.764843 0.653727
0.602731 0.786694 0.638025
0.674846 0.798093 0.620279
0.743877 0.804364 0.604608
0.80589 0.803601 0.589059
