sandaya_1.0/luts/SANDAYA_LOOK_001_0050_ACESCG_TO_ACESCG.cube
TITLE "Generated by Resolve"
LUT_3D_SIZE 33
0.00587472 0.00709545 0.00927749
0.0227665 0.0114137 0.00852979
0.0463722 0.0144961 0.00645457
0.0659953 0.0169833 0.00462348
0.088777 0.0197299 0.00421149
0.111543 0.0228122 0.00476081
0.131426 0.025742 0.00534066
0.148089 0.0280461 0.00582895
0.162112 0.0302586 0.00627146
0.173861 0.0321965 0.00665293
0.184329 0.0338903 0.00698863
0.193576 0.0354162 0.00729381
0.202335 0.0368353 0.00756847
0.210269 0.038117 0.00782788
0.218296 0.0393988 0.00807202
0.225757 0.0405737 0.00830091
0.232792 0.0416419 0.00849927
0.239582 0.0426642 0.00869764
0.245853 0.043595 0.00888075
0.25153 0.044419 0.00903334
0.256519 0.0451362 0.00917067
0.261585 0.0458686 0.009308
0.266285 0.0465248 0.00943008
0.271031 0.0471962 0.00955215
0.275441 0.0478065 0.00967422
0.278782 0.0482643 0.00975052
0.282063 0.0487221 0.00984207
0.285664 0.0492103 0.00991836
0.289006 0.0496681 0.0100099
0.291875 0.0500496 0.010071
0.294972 0.0504616 0.0101472
0.298009 0.0508736 0.0102235
0.300603 0.0512093 0.0102846
0.00996414 0.0187686 0.0124056
0.0239719 0.0248112 0.0111696
0.0591287 0.0314641 0.00823987
0.0982528 0.0370031 0.00679026
0.14052 0.0407111 0.00764477
0.174426 0.0415503 0.00802625
0.197696 0.0418097 0.00823987
0.209201 0.0409094 0.00820935
0.213046 0.038819 0.00794995
0.208453 0.0378271 0.00776684
0.222248 0.0400244 0.00819409
0.234882 0.0419623 0.00856031
0.246601 0.0437018 0.00889601
0.256077 0.0450752 0.00915541
0.265019 0.0463569 0.00939956
0.273732 0.0475776 0.00962844
0.280125 0.0484627 0.00978103
0.286641 0.0493477 0.00994888
0.292775 0.0501717 0.0101015
0.298299 0.0509041 0.0102388
0.303197 0.0515602 0.0103456
0.307317 0.0520943 0.0104524
0.311742 0.0526741 0.010544
0.315755 0.053193 0.0106508
0.319646 0.0536812 0.0107271
0.323278 0.0541543 0.0108186
0.326497 0.054551 0.0108949
0.329656 0.0549477 0.010956
0.332525 0.055314 0.0110323
0.335424 0.0556802 0.0110933
0.338186 0.0560159 0.0111543
0.340948 0.0563516 0.0112154
0.343359 0.0566567 0.0112612
0.0166476 0.032639 0.0138399
0.0184939 0.0363165 0.0129702
0.0533913 0.0484169 0.0102541
0.0950179 0.0580758 0.0101472
0.133883 0.064271 0.0112001
0.171832 0.0678416 0.011902
0.206958 0.070985 0.0125277
0.235966 0.0721294 0.0128481
0.257481 0.071397 0.0128481
0.274983 0.0701762 0.0127718
0.288716 0.0686046 0.0126192
0.299733 0.0664073 0.0123751
0.3075 0.0631876 0.0119631
0.31107 0.0592966 0.0114443
0.312734 0.0552834 0.0109102
0.310948 0.0527352 0.0105592
0.307012 0.0520638 0.0104372
0.299321 0.0510414 0.0102541
0.282338 0.0487526 0.00984207
0.285557 0.0491951 0.00991836
0.291081 0.0499428 0.0100557
0.296284 0.0506447 0.0101778
0.301381 0.0513161 0.0102998
0.305562 0.0518654 0.0104067
0.309789 0.0524147 0.0104982
0.313787 0.0529335 0.010605
0.317922 0.0534676 0.0106966
0.321645 0.0539406 0.0107729
0.325002 0.0543679 0.0108492
0.327993 0.0547494 0.0109255
0.330846 0.0551003 0.0109865
0.333654 0.0554513 0.0110475
0.336233 0.0557717 0.0111086
0.0228275 0.0451667 0.015198
0.0230564 0.0456397 0.0153658
0.0445869 0.0645762 0.0126497
0.0949111 0.0816052 0.0137942
0.136538 0.0923781 0.0154574
0.175082 0.099382 0.0165866
0.210117 0.103746 0.017319
0.242985 0.106813 0.0178531
0.270634 0.107942 0.0180972
0.292439 0.10724 0.0180667
0.312367 0.106523 0.0180209
0.329442 0.104631 0.0178073
0.344579 0.102083 0.0175021
0.356512 0.0985885 0.0170596
0.366232 0.0943313 0.016495
0.375662 0.0911269 0.0160983
0.38262 0.0880598 0.0157015
0.386709 0.0846113 0.0152438
0.389624 0.0812695 0.0148013
0.391257 0.0781567 0.0143893
0.389883 0.0749676 0.0139467
0.38616 0.0708476 0.0133822
0.380789 0.0667735 0.0128023
0.375891 0.0618143 0.0121157
0.369757 0.0598306 0.0118257
0.362417 0.0589456 0.0116732
0.351568 0.0576486 0.0114443
0.337697 0.0559548 0.0111391
0.315129 0.0531167 0.0106355
0.318914 0.0535897 0.0107118
0.322377 0.0540322 0.0108034
0.325383 0.0544137 0.0108644
0.328313 0.0547799 0.0109255
0.0284123 0.0565194 0.0168612
0.0283207 0.0563211 0.0168307
0.0365301 0.0733654 0.0150912
0.0881056 0.0980545 0.0163272
0.136248 0.114458 0.0187991
0.177005 0.124193 0.020264
0.214603 0.130968 0.0213016
0.251423 0.136019 0.0220798
0.280354 0.138323 0.0224613
0.307683 0.139849 0.0227054
0.330388 0.140307 0.0228122
0.351476 0.140215 0.0228275
0.368948 0.139193 0.0227207
0.382803 0.136828 0.0224155
0.396704 0.135027 0.0221866
0.409293 0.132677 0.0218814
0.421149 0.129839 0.0215
0.431113 0.127062 0.021149
0.437919 0.124086 0.0207523
0.443946 0.120439 0.020264
0.448051 0.116289 0.0196994
0.451499 0.111971 0.0191196
0.452918 0.107774 0.0185702
0.453361 0.103548 0.0179904
0.45301 0.0991989 0.0174105
0.452491 0.0957809 0.0169528
0.450629 0.091722 0.0164034
0.447288 0.0879683 0.0158846
0.442802 0.0844282 0.0154116
0.437568 0.0809491 0.0149233
0.431891 0.0776837 0.0144656
0.424918 0.0730907 0.0138399
0.416815 0.068925 0.0132448
0.0338598 0.0677958 0.0180972
0.0337682 0.0675975 0.0180819
0.0390784 0.0789044 0.0183108
0.0749676 0.109545 0.0181277
0.131563 0.132235 0.0214847
0.17644 0.146624 0.0236057
0.215549 0.154635 0.0247807
0.255009 0.160998 0.0257115
0.289631 0.165667 0.0263828
0.321263 0.168612 0.0268101
0.344442 0.168856 0.0268559
0.367346 0.169604 0.026978
0.387549 0.169421 0.0269627
0.405951 0.168734 0.0268711
0.423011 0.16759 0.0267185
0.43743 0.165545 0.0264439
0.449027 0.163424 0.026154
0.461021 0.161761 0.0259403
0.47306 0.15935 0.0256199
0.481041 0.157122 0.0253147
0.488792 0.154406 0.0249485
0.495796 0.151659 0.0245823
0.501656 0.148775 0.0242008
0.504875 0.145312 0.0237278
0.507301 0.142107 0.0233005
0.508644 0.138506 0.0228122
0.509483 0.134951 0.0223239
0.50956 0.130968 0.0217899
0.509575 0.127108 0.0212711
0.507988 0.123323 0.0207523
0.505989 0.118898 0.0201572
0.503685 0.114763 0.0195926
0.500877 0.110414 0.0190127
0.0392004 0.079118 0.0193484
0.0393072 0.0793164 0.0193637
0.0394141 0.0795605 0.0194247
0.0598917 0.117418 0.0193942
0.123186 0.147127 0.023743
0.172457 0.165209 0.0263676
0.215167 0.176394 0.0279698
0.257679 0.184939 0.0291752
0.294728 0.190326 0.0299077
0.327642 0.193515 0.0303197
0.357366 0.196185 0.0306554
0.382437 0.197436 0.030808
0.404623 0.197925 0.030869
0.424002 0.197589 0.030808
0.441642 0.196338 0.0306401
0.458762 0.195285 0.0304875
0.473091 0.19411 0.0303349
0.488121 0.192294 0.0300908
0.501488 0.190707 0.0298772
0.512352 0.188907 0.029633
0.521263 0.186023 0.0292515
0.528893 0.183703 0.0289464
0.536492 0.180652 0.0285344
0.543191 0.17821 0.0282139
0.548043 0.175051 0.0277867
0.551629 0.172686 0.0274662
0.554864 0.169787 0.0270695
0.55758 0.167208 0.0267185
0.559945 0.164218 0.0263218
0.561578 0.160998 0.0258946
0.562036 0.158251 0.0255131
0.560723 0.154299 0.024979
0.55935 0.150912 0.0245212
0.0440375 0.0895705 0.0202487
0.0441749 0.0898756 0.0202792
0.0434119 0.0882124 0.0201419
0.0574502 0.11899 0.0196384
0.110475 0.156954 0.0252537
0.165911 0.180331 0.0286259
0.212192 0.195438 0.0307317
0.256886 0.206088 0.0321202
0.297292 0.213703 0.0330663
0.333455 0.218647 0.0336461
0.367224 0.223072 0.034165
0.394141 0.225376 0.0344091
0.418067 0.226535 0.0345159
0.438361 0.226459 0.0344701
0.458213 0.225376 0.0343023
0.476997 0.22504 0.0342412
0.493339 0.224125 0.0341039
0.509865 0.2224 0.033875
0.523964 0.220905 0.0336767
0.537102 0.218799 0.0334173
0.547082 0.216205 0.0330816
0.556298 0.213886 0.0327916
0.565164 0.211246 0.0324559
0.573617 0.208957 0.032166
0.581994 0.206683 0.0318761
0.587472 0.204074 0.0315404
0.592218 0.201877 0.0312657
0.596384 0.198947 0.0308995
0.59997 0.196445 0.0305791
0.603159 0.193393 0.0301823
0.605524 0.190341 0.0297856
0.607263 0.187518 0.0294194
0.607614 0.184146 0.0289769
0.0484321 0.0991836 0.0210422
0.0486152 0.0995804 0.0210727
0.0478523 0.0979324 0.0209354
0.0563973 0.116686 0.0202487
0.0904707 0.161349 0.0259861
0.156466 0.192309 0.030396
0.205966 0.211826 0.0330053
0.253529 0.225681 0.0347295
0.296193 0.234928 0.0357977
0.335851 0.241779 0.0365454
0.373327 0.247745 0.0371557
0.403067 0.25127 0.0375067
0.428626 0.252964 0.037644
0.451392 0.253834 0.0376898
0.473213 0.253376 0.037583
0.492653 0.253223 0.0375219
0.510918 0.253117 0.0374762
0.528481 0.251698 0.0372778
0.543526 0.250736 0.0371405
0.557916 0.248676 0.0368811
0.571115 0.246998 0.0366674
0.581842 0.244862 0.036408
0.591806 0.242664 0.0361334
0.601587 0.240055 0.0358129
0.609903 0.237339 0.0354925
0.618936 0.234867 0.0352026
0.624506 0.232349 0.0348974
0.630121 0.229496 0.0345617
0.634928 0.226978 0.0342565
0.639292 0.223941 0.0338903
0.643 0.220722 0.0335088
0.64651 0.217624 0.0331273
0.648554 0.21503 0.0328222
0.0521859 0.107408 0.0216831
0.052369 0.107774 0.0217136
0.0518196 0.106584 0.021622
0.0533913 0.110018 0.0219425
0.077821 0.161959 0.0261234
0.144213 0.199512 0.0314641
0.19791 0.224598 0.0347295
0.24828 0.24213 0.03682
0.293996 0.254322 0.0381628
0.337575 0.263584 0.0391089
0.375341 0.269978 0.0397192
0.409323 0.275181 0.0401923
0.437919 0.278767 0.0404974
0.463706 0.280568 0.0406195
0.486732 0.280964 0.0406043
0.507179 0.28098 0.0405432
0.526101 0.280842 0.0404822
0.544717 0.279759 0.0403143
0.560754 0.279118 0.0402075
0.577447 0.278004 0.0400397
0.592203 0.276188 0.0398108
0.604837 0.274281 0.0395666
0.616098 0.272221 0.0393225
0.626627 0.269642 0.0390173
0.637232 0.267918 0.0388037
0.648112 0.265187 0.0384833
0.655482 0.263081 0.0382391
0.661509 0.260471 0.0379492
0.66659 0.25742 0.0376135
0.672312 0.255024 0.0373388
0.677775 0.252049 0.0370031
0.682612 0.249653 0.0367285
0.687221 0.247059 0.0364233
0.0555734 0.114748 0.0222782
0.0557107 0.115053 0.0223087
0.0552529 0.114061 0.0222171
0.0546883 0.11284 0.0221103
0.0754864 0.157687 0.0254826
0.127413 0.201755 0.0318303
0.186877 0.23299 0.0358434
0.239643 0.254368 0.0383307
0.288334 0.269917 0.0399939
0.335363 0.281849 0.0411688
0.376196 0.290227 0.0419471
0.41297 0.296544 0.0424964
0.443244 0.301045 0.0428626
0.472541 0.305074 0.043183
0.497642 0.306172 0.0432136
0.519219 0.307332 0.0432593
0.539788 0.307469 0.0431983
0.56025 0.30692 0.0430762
0.578012 0.306874 0.0430152
0.595636 0.305287 0.0428016
0.611353 0.304326 0.042649
0.627008 0.30277 0.0424353
0.639658 0.301305 0.0422522
0.651911 0.299306 0.0420081
0.662577 0.297139 0.0417639
0.674052 0.294331 0.0414435
0.683925 0.292302 0.0412146
0.691127 0.289815 0.04094
0.698161 0.287098 0.0406348
0.70457 0.284794 0.0403906
0.711025 0.282292 0.040116
0.717021 0.279759 0.039826
0.721599 0.276722 0.0395056
0.0588998 0.121996 0.0229038
0.0588998 0.121996 0.0229038
0.0582742 0.120623 0.022797
0.0576944 0.119387 0.0226749
0.0712902 0.14873 0.0241398
0.10692 0.199954 0.0316472
0.174975 0.238651 0.0366064
0.230243 0.265248 0.0396429
0.280186 0.282292 0.041413
0.330007 0.296941 0.0428321
0.374456 0.3075 0.0437934
0.414679 0.315969 0.0445106
0.447166 0.321294 0.0449226
0.477867 0.326024 0.0452735
0.505318 0.328252 0.0453803
0.528725 0.330266 0.0454871
0.551934 0.331746 0.0455482
0.573922 0.331746 0.0454566
0.591363 0.331319 0.0453498
0.611017 0.330556 0.0452125
0.629282 0.330205 0.0451057
0.647791 0.329747 0.0449836
0.661952 0.328695 0.044831
0.675044 0.326421 0.0445716
0.687236 0.324941 0.0443885
0.700664 0.322759 0.0441291
0.713008 0.320958 0.0439155
0.720928 0.318273 0.0436255
0.728115 0.315282 0.0433204
0.734691 0.313008 0.0430762
0.741573 0.310262 0.0427863
0.748669 0.308034 0.0425422
0.755215 0.305531 0.0422827
0.0613718 0.127337 0.0231174
0.0614328 0.127474 0.0231174
0.0607919 0.126101 0.0230564
0.0604105 0.125277 0.0230259
0.0654154 0.136126 0.0230869
0.0937972 0.19646 0.0312047
0.160327 0.239567 0.036759
0.219501 0.272496 0.040528
0.272358 0.294133 0.0427558
0.322728 0.310079 0.0442664
0.371054 0.323308 0.0454261
0.412985 0.333043 0.0462196
0.450324 0.340871 0.0468299
0.480476 0.345434 0.0471351
0.511254 0.349157 0.0473487
0.536049 0.351858 0.0475013
0.560281 0.353872 0.0475929
0.584756 0.35465 0.0475471
0.604593 0.355077 0.0475013
0.62649 0.355001 0.0474098
0.644068 0.354269 0.0472725
0.663081 0.353323 0.0471046
0.678492 0.352346 0.046952
0.69424 0.351034 0.0467689
0.708293 0.349996 0.0466163
0.7234 0.348501 0.0464179
0.737453 0.347127 0.0462348
0.749844 0.345556 0.0460365
0.758846 0.34316 0.0457923
0.766522 0.341161 0.0455787
0.774594 0.338704 0.0453193
0.781842 0.336202 0.0450599
0.788571 0.33373 0.0448157
0.0636759 0.132342 0.0233921
0.0636454 0.132265 0.0233921
0.0632334 0.131365 0.023331
0.0627146 0.130251 0.02327
0.0622568 0.129274 0.023209
0.0895094 0.187381 0.0298924
0.141009 0.236271 0.036408
0.204837 0.274525 0.0408026
0.258717 0.300084 0.0434424
0.313329 0.320302 0.0453498
0.364019 0.335607 0.0466773
0.407401 0.347112 0.0476081
0.449958 0.357412 0.0483864
0.482628 0.363516 0.0488136
0.51574 0.369177 0.0491646
0.542611 0.372442 0.0493324
0.566461 0.374044 0.0493782
0.592554 0.375677 0.0493935
0.615045 0.376989 0.0494087
0.638148 0.37734 0.0493324
0.65864 0.377691 0.0492561
0.680613 0.377523 0.0491493
0.69778 0.376394 0.0489662
0.714229 0.375296 0.0487984
0.728283 0.373907 0.0486152
0.744137 0.372335 0.0484016
0.759762 0.370962 0.0482185
0.772503 0.369299 0.0480201
0.783291 0.366873 0.0477607
0.792874 0.365652 0.0476234
0.802152 0.363333 0.0473793
0.811337 0.361273 0.0471656
0.820096 0.359701 0.0469825
0.0660258 0.137407 0.0237583
0.0659648 0.13727 0.023743
0.0652781 0.135775 0.0236362
0.0648508 0.134859 0.0235599
0.0644236 0.133944 0.0234989
0.0838941 0.175509 0.0281376
0.122286 0.230671 0.0357671
0.191546 0.275731 0.0409857
0.246586 0.304921 0.044007
0.302953 0.328267 0.0462043
0.35671 0.345876 0.047715
0.403952 0.359701 0.0488136
0.446067 0.370153 0.0495766
0.482124 0.377722 0.0500801
0.516976 0.384405 0.0505074
0.546807 0.389425 0.0507973
0.573449 0.392935 0.0509651
0.601129 0.394827 0.0509957
0.625299 0.397116 0.0510719
0.64831 0.397055 0.0509499
0.670344 0.398123 0.0509194
0.693141 0.398108 0.0508125
0.713359 0.398077 0.0507057
0.732586 0.397452 0.0505531
0.749218 0.39675 0.0504158
0.766247 0.395727 0.050248
0.783169 0.394324 0.0500496
0.798733 0.393881 0.0499428
0.812833 0.391516 0.0496834
0.821057 0.389242 0.0494545
0.829831 0.386999 0.0492256
0.839979 0.384817 0.0489967
0.849241 0.382864 0.0487984
0.0679484 0.141527 0.0239261
0.0678416 0.141329 0.0239261
0.0673686 0.140291 0.0239109
0.0668193 0.139116 0.0238804
0.066392 0.138186 0.0238193
0.0763714 0.159548 0.0257572
0.106294 0.223285 0.0348516
0.175631 0.272725 0.0406958
0.234974 0.308278 0.044419
0.291386 0.334218 0.0468452
0.345266 0.353353 0.0484779
0.396201 0.369528 0.0497597
0.441062 0.382391 0.0507057
0.482033 0.392447 0.0513771
0.51667 0.399283 0.0517891
0.54757 0.4047 0.0520943
0.575418 0.408728 0.0522774
0.603418 0.411078 0.0523232
0.629908 0.414221 0.0524453
0.656382 0.415869 0.05243
0.679316 0.417105 0.0524147
0.704128 0.417853 0.0523384
0.726726 0.418387 0.0522621
0.746868 0.41738 0.052079
0.763333 0.416617 0.0519265
0.781888 0.415961 0.0517891
0.799558 0.414862 0.051606
0.815488 0.413825 0.0514382
0.833478 0.413123 0.0512856
0.845594 0.411841 0.051133
0.857908 0.410529 0.0509651
0.869596 0.408576 0.0507515
0.880034 0.407141 0.0505837
0.0699321 0.145815 0.024094
0.0697642 0.145464 0.0240787
0.0691234 0.144076 0.0240024
0.0686809 0.143114 0.0239719
0.0682536 0.142214 0.0239414
0.0685893 0.142916 0.0240635
0.101854 0.214435 0.0336767
0.158251 0.26804 0.0402228
0.219913 0.308003 0.0444495
0.278294 0.33814 0.047303
0.335485 0.361517 0.0493019
0.388846 0.379324 0.0506752
0.434043 0.392493 0.0516213
0.47895 0.404471 0.0524147
0.515114 0.412406 0.0528878
0.548272 0.41944 0.0532998
0.579263 0.42443 0.0535286
0.609949 0.428428 0.0536812
0.636851 0.431266 0.0537575
0.663401 0.43212 0.0536812
0.687053 0.433783 0.053666
0.712093 0.434318 0.0535744
0.734661 0.434882 0.0534981
0.759823 0.435233 0.0533761
0.778851 0.435203 0.0532692
0.798581 0.434592 0.0531167
0.818631 0.434455 0.0529946
0.83714 0.434073 0.0528725
0.856764 0.433143 0.0526894
0.871565 0.432547 0.0525673
0.884688 0.431189 0.0523995
0.897322 0.42948 0.0522011
0.908049 0.427924 0.052018
0.0717174 0.149645 0.0244297
0.071458 0.149081 0.0243687
0.0708782 0.147829 0.0242466
0.0703441 0.146715 0.0241703
0.0699016 0.145739 0.024094
0.0696422 0.14519 0.0240635
0.0960403 0.20148 0.0319066
0.137774 0.260273 0.0393835
0.206973 0.307942 0.04448
0.264958 0.340932 0.0476234
0.322667 0.366018 0.0497749
0.377157 0.386114 0.0513466
0.428031 0.402487 0.0525063
0.474464 0.416175 0.0534066
0.514961 0.426215 0.0540169
0.547585 0.432776 0.0543679
0.579873 0.438407 0.0546273
0.610346 0.442344 0.0547494
0.638498 0.445579 0.0548409
0.669642 0.448554 0.0548867
0.694408 0.450721 0.054902
0.722103 0.451911 0.0548409
0.746944 0.4533 0.0547951
0.774441 0.4542 0.0547036
0.794934 0.454307 0.0545968
0.816327 0.454078 0.0544442
0.834928 0.453178 0.0542763
0.851301 0.451728 0.054078
0.870054 0.450385 0.0538796
0.887968 0.449744 0.053727
0.902083 0.448661 0.0535744
0.916671 0.447578 0.0534066
0.928893 0.446311 0.053254
0.0733959 0.153231 0.0248417
0.0731365 0.152667 0.0247807
0.0725414 0.1514 0.0246128
0.0720073 0.150271 0.0244907
0.0716564 0.149508 0.0244144
0.0712596 0.148669 0.0243229
0.0881819 0.184558 0.0294804
0.120027 0.250675 0.0383001
0.189929 0.302632 0.0439765
0.249241 0.340368 0.0476387
0.308095 0.369207 0.0501411
0.365286 0.392538 0.051957
0.418631 0.410956 0.0532692
0.465385 0.42446 0.054139
0.508583 0.436072 0.0548257
0.542611 0.444266 0.0552834
0.579751 0.452369 0.0556954
0.612177 0.457282 0.0558785
0.64152 0.461509 0.0560159
0.675364 0.465522 0.0561074
0.702358 0.467964 0.0561227
0.729961 0.469245 0.0560464
0.753048 0.469337 0.0559091
0.779355 0.469291 0.0557565
0.80354 0.469871 0.0556497
0.825193 0.470237 0.0555428
0.846693 0.469856 0.0553902
0.86862 0.469978 0.0552682
0.890852 0.469413 0.0551003
0.911589 0.469215 0.054963
0.927321 0.468177 0.0547951
0.943343 0.467094 0.0546273
0.957351 0.465843 0.0544594
0.0751659 0.157 0.0253758
0.0747234 0.156069 0.0252384
0.0740978 0.154711 0.0250553
0.0735332 0.153521 0.0248875
0.0731365 0.152667 0.0247807
0.0728008 0.151965 0.0246891
0.0796063 0.166415 0.0267948
0.113344 0.241093 0.0371405
0.17406 0.296483 0.0433814
0.236728 0.340581 0.047715
0.295689 0.372183 0.0504616
0.352819 0.39646 0.052369
0.408682 0.417197 0.0538338
0.458213 0.433158 0.0548714
0.505806 0.447395 0.0557259
0.542214 0.456962 0.05626
0.578653 0.465537 0.0566873
0.61413 0.471733 0.0569162
0.641657 0.474983 0.0569924
0.67219 0.477516 0.0569772
0.701167 0.480735 0.0570382
0.731594 0.483101 0.0570077
0.758267 0.484916 0.0569772
0.787747 0.486503 0.0569009
0.815641 0.487892 0.0568246
0.840024 0.487953 0.056672
0.862943 0.488304 0.0565499
0.886625 0.488579 0.0564279
0.908553 0.487663 0.0562295
0.927962 0.486717 0.0560464
0.947173 0.485603 0.0558633
0.963317 0.484154 0.0556649
0.975708 0.482734 0.0554971
0.0764782 0.159808 0.025803
0.0761578 0.159106 0.0256962
0.0755932 0.157916 0.0255131
0.0750286 0.15671 0.02533
0.0746014 0.155779 0.0252079
0.0742962 0.155138 0.0251164
0.0739605 0.154437 0.0250095
0.107546 0.227451 0.0354009
0.152041 0.288121 0.0425422
0.220111 0.336248 0.0473487
0.279957 0.37174 0.0504921
0.339757 0.400015 0.0527352
0.397147 0.423285 0.0543984
0.449714 0.441855 0.0556039
0.501457 0.458122 0.0565652
0.537438 0.467353 0.0570535
0.572168 0.474372 0.0573587
0.609979 0.482185 0.0576944
0.640986 0.487495 0.0578775
0.676143 0.49221 0.0579843
0.707683 0.496437 0.0580758
0.738125 0.498894 0.0580453
0.765774 0.500893 0.0579995
0.797192 0.50248 0.057908
0.824598 0.503243 0.0577859
0.848508 0.502983 0.0576181
0.871504 0.503044 0.0574807
0.894835 0.502678 0.0573129
0.918944 0.50222 0.0571298
0.941955 0.50248 0.0569924
0.96614 0.502373 0.0568399
0.98378 0.50132 0.0566567
0.999191 0.500389 0.0565042
0.0780041 0.163043 0.026276
0.0775769 0.162127 0.0261387
0.0768444 0.160571 0.0259098
0.0763561 0.159518 0.0257572
0.076051 0.158892 0.0256657
0.0756542 0.158053 0.0255436
0.0753948 0.157488 0.025452
0.100801 0.21207 0.0333715
0.133654 0.277302 0.0413977
0.205234 0.331655 0.046952
0.267536 0.372976 0.05066
0.327626 0.403311 0.0530709
0.385977 0.428687 0.054902
0.438849 0.447532 0.0561074
0.488701 0.463249 0.057023
0.530877 0.476005 0.0577249
0.569146 0.486107 0.0582132
0.609293 0.495537 0.0586404
0.641703 0.501152 0.0588083
0.677165 0.506447 0.0589456
0.708217 0.510277 0.0590066
0.739193 0.512535 0.0589456
0.767071 0.514382 0.0588846
0.797864 0.515373 0.0587472
0.827863 0.517159 0.0586709
0.856214 0.518425 0.0585641
0.881819 0.519066 0.0584268
0.907912 0.51957 0.0582895
0.933761 0.51986 0.0581369
0.958419 0.519921 0.0579843
0.984451 0.519631 0.0578012
1 0.519036 0.0576333
1 0.518059 0.0574807
0.079408 0.166018 0.0267338
0.0789044 0.16495 0.026566
0.0782788 0.163607 0.0263676
0.0777142 0.162402 0.0261845
0.0773175 0.161563 0.0260624
0.0770123 0.160922 0.0259709
0.0767224 0.160296 0.0258793
0.0914931 0.191608 0.0305028
0.124041 0.266651 0.0402075
0.18883 0.32462 0.0462959
0.252949 0.370916 0.0505379
0.31249 0.403525 0.0531624
0.369512 0.429343 0.0550393
0.429389 0.453147 0.0565957
0.482185 0.471977 0.0577096
0.528664 0.486641 0.0585031
0.567422 0.497337 0.0590219
0.607736 0.506752 0.0594034
0.639811 0.512215 0.0595712
0.675029 0.517159 0.0596628
0.706874 0.52137 0.0597238
0.741787 0.525292 0.0597391
0.771344 0.528466 0.0597391
0.805478 0.530602 0.0596475
0.837049 0.532982 0.0595865
0.868803 0.534691 0.0594644
0.895842 0.535485 0.0593271
0.921111 0.535561 0.0591745
0.946807 0.535164 0.0589761
0.973297 0.535714 0.0588235
0.998001 0.534951 0.0586252
1 0.534218 0.0584421
1 0.533684 0.0582895
0.0805829 0.168505 0.0271
0.0801862 0.167651 0.026978
0.0795453 0.166308 0.0267643
0.0790112 0.165164 0.0265965
0.0785382 0.164172 0.0264591
0.0783093 0.163668 0.0263828
0.0779126 0.162829 0.0262455
0.0817121 0.170901 0.027451
0.118502 0.25362 0.0386664
0.168078 0.314504 0.0453346
0.23592 0.364492 0.0500191
0.297154 0.402258 0.0531319
0.357321 0.43212 0.055314
0.418051 0.457847 0.0570077
0.473075 0.47863 0.0582437
0.520485 0.494301 0.0590829
0.560067 0.504982 0.0595865
0.600244 0.514717 0.0599985
0.636728 0.523262 0.0603189
0.674418 0.529702 0.0604715
0.708782 0.535302 0.0605936
0.745724 0.540017 0.0606241
0.775753 0.543099 0.0605936
0.81001 0.545708 0.0605173
0.840528 0.547417 0.0603952
0.874983 0.549233 0.0602731
0.901579 0.549706 0.0601053
0.929168 0.550011 0.0599374
0.955627 0.550393 0.0597848
0.981476 0.55021 0.0596017
1 0.550393 0.0594186
1 0.550393 0.0592355
1 0.549905 0.0590829
0.0819409 0.171374 0.0275273
0.0814069 0.17023 0.0273594
0.0806592 0.168658 0.0271153
0.0801862 0.167651 0.026978
0.0798505 0.166949 0.0268711
0.079408 0.166018 0.0267338
0.0791485 0.165454 0.0266423
0.0789807 0.165087 0.0265965
0.112276 0.23859 0.03682
0.147005 0.302815 0.0441749
0.222873 0.360861 0.0497292
0.28423 0.401953 0.0531624
0.345968 0.434516 0.0555734
0.405982 0.460533 0.0572824
0.462043 0.482033 0.0585641
0.511162 0.49929 0.0594949
0.555322 0.512947 0.0601511
0.59852 0.524971 0.0606699
0.636042 0.534279 0.0610056
0.675456 0.541863 0.0612039
0.709804 0.547555 0.0613107
0.746044 0.552346 0.0613413
0.778073 0.555779 0.0613107
0.81178 0.558251 0.0612192
0.844465 0.561044 0.0611429
0.877424 0.562432 0.0609751
0.909072 0.563928 0.0608377
0.938811 0.565194 0.0607004
0.966232 0.566049 0.0605478
0.994583 0.566461 0.0603799
1 0.567193 0.0602121
1 0.567391 0.0600137
1 0.566995 0.0598611
0.0832074 0.174044 0.027924
0.0825513 0.172671 0.0277256
0.0819104 0.171313 0.027512
0.0813306 0.170092 0.0273289
0.0809339 0.169223 0.0272068
0.0805829 0.168505 0.0271
0.0803845 0.168078 0.027039
0.0800488 0.167376 0.0269322
0.103914 0.219089 0.0343023
0.134371 0.290791 0.0429236
0.206043 0.35288 0.0490425
0.269276 0.398505 0.0529335
0.329885 0.432258 0.0554665
0.390204 0.460609 0.0573739
0.45095 0.485924 0.0588998
0.501534 0.505287 0.059968
0.549249 0.52134 0.0607462
0.593591 0.534127 0.0612802
0.631418 0.543633 0.0616159
0.671046 0.551629 0.0618143
0.704707 0.557183 0.0619059
0.743481 0.563149 0.0619669
0.776379 0.567224 0.0619516
0.81265 0.570642 0.0618906
0.847547 0.574014 0.0618143
0.884001 0.576806 0.0616922
0.91931 0.579309 0.0615702
0.949523 0.580438 0.0614176
0.978973 0.580926 0.0612192
1 0.58143 0.0610513
