sandaya_1.0/luts/SANDAYA_LOOK_001_0030_ACESCG_TO_ACESCG.cube
TITLE "Generated by Resolve"
LUT_3D_SIZE 9
0.00518807 0.00605783 0.00793469
0.117678 0.0245365 0.00505074
0.204532 0.0372015 0.00764477
0.257435 0.0452735 0.00920119
0.291218 0.049958 0.0100557
0.313649 0.0529183 0.0105898
0.330434 0.0550546 0.0109712
0.343389 0.0566567 0.0112612
0.353704 0.057908 0.01149
0.0361181 0.0725414 0.0188907
0.174533 0.139757 0.0225834
0.391821 0.169162 0.0269169
0.483833 0.153307 0.0247959
0.502998 0.124575 0.0209201
0.471382 0.0884413 0.016022
0.395285 0.0627146 0.0123293
0.361791 0.0588693 0.0116579
0.37261 0.0601358 0.0118715
0.0619059 0.128496 0.0235142
0.112093 0.208148 0.0327764
0.455833 0.335454 0.0462806
0.639567 0.347036 0.0466316
0.751049 0.334524 0.0450294
0.801877 0.312764 0.0428168
0.810437 0.284855 0.0400549
0.80061 0.257603 0.0372778
0.774105 0.229252 0.0342412
0.0764782 0.159777 0.0258183
0.0737621 0.153994 0.0250858
0.411902 0.424735 0.0544442
0.70631 0.491783 0.0577707
0.929503 0.50132 0.0569924
1 0.492943 0.0555276
1 0.47599 0.0539864
1 0.45684 0.0525216
1 0.43798 0.051133
0.0866712 0.181338 0.0290074
0.084596 0.176959 0.0283665
0.283543 0.427283 0.0552987
0.692622 0.595911 0.0640574
1 0.637324 0.0634928
1 0.644907 0.0618143
1 0.63386 0.0601968
1 0.619806 0.058854
1 0.602533 0.0576638
0.0932021 0.195315 0.0310369
0.0914626 0.191562 0.0305028
0.136736 0.30071 0.0439918
0.611414 0.646937 0.0670024
1 0.75198 0.067216
1 0.784436 0.0647746
1 0.791104 0.0624247
1 0.779385 0.0605631
1 0.765347 0.0591287
0.0973983 0.204486 0.0323186
0.0957656 0.200885 0.0318303
0.0952926 0.199863 0.0316777
0.472847 0.622187 0.0668498
0.945388 0.82208 0.0694133
1 0.900557 0.0662089
1 0.928023 0.0626078
1 0.93341 0.0597086
1 0.918563 0.0582895
0.100053 0.210391 0.0331426
0.0988937 0.207782 0.0327764
0.0984817 0.206897 0.0326543
0.301595 0.525261 0.0624399
0.822431 0.844694 0.0709087
1 0.978424 0.0673991
1 1 0.0626535
1 1 0.0585794
1 1 0.0567483
0.10219 0.215198 0.0337835
0.101152 0.212863 0.0334783
0.100816 0.212085 0.0333715
0.144411 0.321965 0.0462196
0.67042 0.807218 0.0714885
1 1 0.068864
1 1 0.0631876
1 1 0.0580301
1 1 0.0546578
0.0125887 0.00495918 0.0792859
0.1178 0.0260777 0.0999924
0.214298 0.0423896 0.107012
0.279591 0.0505989 0.108446
0.322026 0.0554513 0.108446
0.349218 0.0583658 0.106996
0.36965 0.0604868 0.10515
0.383841 0.0619059 0.102541
0.395712 0.0630961 0.100237
0.0651865 0.0951247 0.289586
0.176242 0.183764 0.171313
0.417014 0.195956 0.154131
0.520424 0.175326 0.141711
0.55285 0.149065 0.129198
0.543374 0.117403 0.115801
0.508064 0.0848554 0.100786
0.473503 0.0708782 0.090135
0.396475 0.0626688 0.0755322
0.105821 0.178149 0.396567
0.107057 0.212482 0.172534
0.40209 0.352621 0.165728
0.647013 0.36817 0.0755016
0.780896 0.339345 0.0454566
0.824689 0.303853 0.0419165
0.824918 0.268391 0.0383307
0.806302 0.235157 0.0348211
0.770871 0.204593 0.0313573
0.130709 0.230793 0.468437
0.111116 0.223133 0.164233
0.358663 0.456123 0.0998093
0.584924 0.499123 0.177539
0.72253 0.506523 0.155123
1 0.5178 0.0570382
1 0.513771 0.0552224
1 0.45539 0.0520943
1 0.427756 0.0502327
0.146227 0.267216 0.514382
0.120104 0.246036 0.156344
0.188891 0.40798 0.0838788
0.703914 0.659205 0.0668193
0.776699 0.626886 0.165621
0.920897 0.6421 0.165438
1 0.616983 0.0922866
1 0.673915 0.0597848
1 0.610712 0.0576791
0.158022 0.296681 0.553124
0.12401 0.257664 0.141955
0.105058 0.219974 0.0599374
0.581155 0.676341 0.0683909
1 0.804181 0.0683604
0.991287 0.749157 0.143099
1 0.769818 0.153048
1 0.758251 0.123323
1 0.742611 0.0631876
0.165667 0.316701 0.580774
0.124208 0.260426 0.122484
0.0983902 0.206683 0.0326238
0.378622 0.567956 0.064622
0.893523 0.826856 0.0699626
1 0.941543 0.0670939
1 0.85069 0.117525
1 0.875257 0.130465
1 0.871534 0.114809
0.171283 0.331792 0.603906
0.121813 0.256779 0.0998856
0.0992599 0.208621 0.0328985
0.176349 0.404685 0.0539101
0.73994 0.820645 0.0711833
1 0.973663 0.06804
1 1 0.06392
1 0.938979 0.0803693
1 0.964202 0.104753
0.175479 0.343114 0.624628
0.116869 0.247105 0.0717174
0.101656 0.213993 0.0336309
0.101091 0.212711 0.0334478
0.556985 0.742809 0.0707561
1 1 0.0696727
1 1 0.0646677
1 1 0.0589456
1 1 0.0641031
0.019913 0.00743114 0.130663
0.122454 0.0277104 0.162554
0.21239 0.0449836 0.174212
0.269566 0.054078 0.178851
0.308949 0.059266 0.180697
0.336721 0.0624552 0.18143
0.357366 0.0645762 0.180911
0.373404 0.0661479 0.18088
0.386694 0.0673533 0.180087
0.0691691 0.0885176 0.374105
0.159228 0.192416 0.298848
0.386618 0.209354 0.29958
0.497108 0.187823 0.286793
0.53431 0.159487 0.270298
0.523857 0.12578 0.250645
0.48809 0.090013 0.227985
0.462165 0.0760052 0.209323
0.397345 0.0681315 0.17734
0.110842 0.175128 0.512596
0.139467 0.266026 0.377005
0.413611 0.418402 0.328695
0.64387 0.431586 0.30547
0.790951 0.414679 0.294911
0.868788 0.388373 0.285542
0.897444 0.357519 0.276204
0.901183 0.327733 0.267964
0.886915 0.296803 0.257969
0.13637 0.230549 0.599741
0.13434 0.252766 0.372763
0.305165 0.501549 0.321187
0.684153 0.593256 0.265232
0.913558 0.579416 0.221714
1 0.557351 0.189914
1 0.524269 0.177707
1 0.492164 0.168093
1 0.463386 0.160571
0.151369 0.266148 0.660334
0.148394 0.28777 0.400397
0.180621 0.400885 0.312139
0.604379 0.71902 0.273777
0.812055 0.71107 0.326925
0.98439 0.717037 0.299001
1 0.701366 0.16228
1 0.663111 0.114641
1 0.626902 0.0880446
0.162875 0.295613 0.709957
0.157183 0.310964 0.418433
0.143404 0.291157 0.273899
0.456168 0.728908 0.273991
0.886442 0.868681 0.190982
1 0.878401 0.331243
1 0.897978 0.326833
1 0.869291 0.236728
1 0.803586 0.110826
0.17116 0.317968 0.749508
0.162661 0.32575 0.431708
0.146685 0.301091 0.26894
0.275181 0.62002 0.245975
0.759472 0.915297 0.186542
1 0.965789 0.166339
1 1 0.324346
1 1 0.330495
1 1 0.290166
0.177401 0.33547 0.78143
0.166018 0.33518 0.439384
0.148531 0.307195 0.263081
0.171893 0.385336 0.221225
0.616648 0.880217 0.177127
1 0.978821 0.0792859
1 1 0.188876
1 1 0.315312
1 1 0.325277
0.181231 0.346059 0.807126
0.168399 0.342 0.444175
0.14931 0.310765 0.254047
0.137179 0.287617 0.177844
0.435172 0.754788 0.158694
0.921492 0.972824 0.0738079
1 1 0.0651408
1 1 0.202152
1 1 0.301656
0.0243076 0.00901808 0.161715
0.122499 0.0281987 0.199542
0.215869 0.0460365 0.215427
0.271702 0.0554055 0.221729
0.310246 0.0610971 0.226215
0.335393 0.0644388 0.227497
0.354803 0.0668345 0.228717
0.369268 0.0684825 0.228901
0.381765 0.0698558 0.229099
0.0717174 0.0867323 0.41886
0.14757 0.193988 0.37995
0.379812 0.214267 0.393347
0.474327 0.193469 0.379416
0.510018 0.164523 0.358907
0.503777 0.129793 0.333791
0.474403 0.0923629 0.30396
0.452796 0.0789502 0.276692
0.397864 0.0717479 0.23389
0.113893 0.175677 0.571008
0.147539 0.275608 0.47599
0.383764 0.428931 0.464073
0.644526 0.446693 0.454917
0.794919 0.428885 0.446876
0.874235 0.401892 0.436927
0.904509 0.371649 0.427161
0.90309 0.339467 0.415702
0.885618 0.308339 0.4038
0.138903 0.230488 0.670008
0.139773 0.254902 0.469261
0.262257 0.505821 0.503365
0.628534 0.631556 0.468391
0.881239 0.646906 0.445624
1 0.633478 0.426932
1 0.61471 0.421103
1 0.587411 0.412375
1 0.562753 0.405341
0.154147 0.267704 0.734798
0.155169 0.29337 0.510124
0.181872 0.379568 0.493584
0.564172 0.757748 0.459632
0.952605 0.841093 0.389746
1 0.801038 0.336339
1 0.786923 0.303639
1 0.751003 0.293706
1 0.717067 0.285924
0.164874 0.295766 0.784802
0.164675 0.318563 0.537896
0.159991 0.315022 0.451881
0.398779 0.752743 0.443946
0.842283 0.993667 0.41297
1 0.982666 0.409689
1 0.959991 0.419837
1 0.959381 0.285389
1 0.929534 0.239963
0.17319 0.318303 0.832517
0.17055 0.334524 0.558541
0.165408 0.329931 0.464912
0.231495 0.573602 0.427573
0.701015 1 0.42269
1 1 0.327077
1 1 0.460319
1 1 0.453666
1 1 0.354665
0.179538 0.336187 0.872038
0.174701 0.345785 0.576364
0.168826 0.339544 0.473518
0.158846 0.323613 0.361791
0.561807 0.995041 0.400122
1 1 0.343313
1 1 0.313115
1 1 0.461418
1 1 0.465202
0.183276 0.3467 0.899596
0.1776 0.353597 0.591226
0.171313 0.346761 0.479072
0.160189 0.328496 0.356054
0.37084 0.821637 0.374365
0.851011 1 0.344915
1 1 0.259648
1 1 0.337133
1 1 0.457557
0.0272374 0.010071 0.182803
0.120394 0.0281529 0.225559
0.217578 0.0466163 0.245731
0.274907 0.0562448 0.253986
0.313771 0.06215 0.259434
0.338949 0.0656748 0.261921
0.357336 0.0680858 0.263218
0.371038 0.0697948 0.263752
0.383291 0.0712749 0.264866
0.0737011 0.0865339 0.449042
0.133349 0.192035 0.436164
0.374228 0.216754 0.466102
0.473716 0.196139 0.4495
0.507347 0.16643 0.424674
0.502556 0.131518 0.39556
0.474235 0.0926223 0.359335
0.454994 0.0805982 0.326726
0.403159 0.0737774 0.274388
0.115496 0.17586 0.605951
0.145556 0.263722 0.52755
0.373709 0.433173 0.554589
0.610742 0.456672 0.552117
0.762982 0.437873 0.543267
0.850187 0.411978 0.533227
0.879545 0.380926 0.52137
0.877195 0.348501 0.507561
0.859724 0.317327 0.494697
0.139467 0.228901 0.705486
0.143465 0.256611 0.538521
0.293919 0.527291 0.624125
0.590631 0.644312 0.594461
0.871031 0.660716 0.579705
1 0.650294 0.574197
1 0.629053 0.566918
1 0.60322 0.558236
1 0.578256 0.550881
0.15523 0.267353 0.779797
0.158236 0.293843 0.584283
0.214633 0.476234 0.649439
0.489265 0.755871 0.607584
0.854124 0.86978 0.585733
1 0.890822 0.562936
1 0.879316 0.54406
1 0.856794 0.532143
1 0.828397 0.526207
0.16611 0.29604 0.834501
0.168231 0.320714 0.617945
0.165576 0.320302 0.546822
0.303151 0.708553 0.595422
0.793561 1 0.578882
1 1 0.514015
1 1 0.445884
1 1 0.404944
1 1 0.394522
0.174075 0.318151 0.87863
0.174472 0.337667 0.646296
0.171481 0.33637 0.568154
0.209308 0.464958 0.577005
0.671244 1 0.565591
1 1 0.534737
1 1 0.481498
1 1 0.505119
1 1 0.39765
0.180697 0.337041 0.921126
0.178943 0.349859 0.670619
0.175631 0.347692 0.586709
0.170764 0.341955 0.502815
0.494682 0.994873 0.549462
0.948989 1 0.547219
1 1 0.442695
1 1 0.543481
1 1 0.560388
0.184085 0.3467 0.946212
0.182025 0.358114 0.691005
0.178454 0.355398 0.600443
0.173434 0.349554 0.510735
0.273732 0.748501 0.521584
0.805768 1 0.529412
1 1 0.470558
1 1 0.437919
1 1 0.575067
0.0294652 0.0108492 0.198932
0.117601 0.0278935 0.24622
0.218067 0.0469368 0.270039
0.276844 0.0567636 0.27982
0.316152 0.0627604 0.285542
0.342016 0.066453 0.289525
0.360433 0.068925 0.290913
0.374182 0.0707103 0.292226
0.385992 0.0721904 0.2934
0.0736095 0.0830854 0.465171
0.123659 0.189837 0.47895
0.36788 0.217502 0.525582
0.473243 0.197375 0.507591
0.509071 0.167529 0.479576
0.505272 0.132525 0.446967
0.476326 0.0921798 0.404105
0.459648 0.0817121 0.368322
0.410346 0.0753338 0.308553
0.116167 0.175235 0.627787
0.139727 0.244175 0.557565
0.361944 0.434318 0.633173
0.596216 0.460395 0.645441
0.736431 0.444327 0.631373
0.816739 0.418326 0.619532
0.848554 0.387274 0.604547
0.850965 0.354681 0.588113
0.83798 0.323064 0.572122
0.141039 0.230716 0.735225
0.145373 0.257176 0.581125
0.293889 0.532067 0.703105
0.584924 0.650996 0.703105
0.87425 0.670802 0.689616
1 0.661555 0.686198
1 0.637934 0.676661
1 0.612879 0.667857
1 0.586877 0.658701
0.156024 0.267369 0.811994
0.160357 0.294392 0.640101
0.223102 0.497459 0.756115
0.506294 0.772519 0.779553
0.817136 0.890013 0.718486
1 0.910994 0.704463
1 0.899901 0.698116
1 0.877287 0.692958
1 0.848569 0.684352
0.167056 0.296818 0.868101
0.17055 0.321889 0.680583
0.168658 0.322011 0.618173
0.33373 0.752361 0.773297
0.749432 1 0.714076
1 1 0.706004
1 1 0.681331
1 1 0.658106
1 1 0.638422
0.175204 0.319539 0.916075
0.176761 0.339376 0.707774
0.17464 0.338872 0.639979
0.24036 0.566278 0.75671
0.601465 1 0.709529
1 1 0.697353
1 1 0.628382
1 1 0.553735
1 1 0.497139
0.181674 0.338338 0.955001
0.180697 0.350271 0.730404
0.179019 0.350835 0.662867
0.176928 0.349447 0.609522
0.387045 0.91162 0.692897
0.932326 1 0.686061
1 1 0.649516
1 1 0.568048
1 1 0.575097
0.18468 0.347143 0.97467
0.183551 0.357946 0.751217
0.182055 0.359091 0.68159
0.17966 0.357046 0.621912
0.249348 0.616114 0.672953
0.765057 1 0.669978
1 1 0.661326
1 1 0.541207
1 1 0.608728
0.0312352 0.0114748 0.212177
0.113787 0.0274052 0.262211
0.217945 0.0470893 0.289662
0.277821 0.057084 0.300359
0.318593 0.0632792 0.307225
0.344488 0.0669871 0.311391
0.363272 0.0695506 0.313558
0.377401 0.071397 0.315251
0.388922 0.0728618 0.316274
0.0749065 0.0838483 0.481132
0.118273 0.186725 0.51429
0.361944 0.217853 0.574243
0.47245 0.198276 0.555184
0.510781 0.168383 0.524666
0.508095 0.133333 0.488823
0.479805 0.0923476 0.441764
0.464179 0.082536 0.402472
0.417517 0.0765698 0.336553
0.118364 0.178607 0.649958
0.132403 0.223911 0.5635
0.348791 0.432288 0.703365
0.586114 0.462882 0.730266
0.730922 0.447471 0.710964
0.808255 0.423056 0.699077
0.836835 0.390768 0.679377
0.842069 0.358618 0.661479
0.831525 0.326833 0.641901
0.142458 0.232792 0.758343
0.14696 0.258045 0.615091
0.278019 0.527718 0.767452
0.576593 0.655146 0.805035
0.820783 0.679667 0.807263
1 0.671061 0.792157
1 0.647471 0.781155
1 0.621408 0.770794
1 0.594858 0.758282
0.15697 0.268849 0.83125
0.161654 0.294682 0.678309
0.228138 0.51014 0.834699
0.532341 0.788556 0.88603
0.794705 0.899092 0.860151
1 0.926848 0.826383
1 0.914885 0.818723
1 0.889708 0.81088
1 0.861509 0.802686
0.1682 0.298665 0.895476
0.171969 0.322454 0.725643
0.17084 0.323537 0.673121
0.370001 0.786206 0.917128
0.685588 1 0.928038
1 1 0.847257
1 1 0.832471
1 1 0.825177
1 1 0.816541
0.176104 0.321126 0.940444
0.17818 0.339971 0.755581
0.176761 0.340307 0.697063
0.261479 0.651469 0.894316
0.544274 1 0.915587
1 1 0.837919
1 1 0.828275
1 1 0.803662
1 1 0.780987
0.182071 0.338689 0.97258
0.182254 0.351537 0.778531
0.180621 0.351415 0.714305
0.179507 0.351522 0.672602
0.35938 0.904891 0.86775
0.884062 1 0.829374
1 1 0.82118
1 1 0.751842
1 1 0.662318
0.18529 0.348165 0.993942
0.185534 0.360662 0.800931
0.18352 0.359289 0.733791
0.182574 0.359869 0.691752
0.252216 0.611917 0.833021
0.687648 1 0.818906
1 1 0.804578
1 1 0.772076
1 1 0.664973
0.0327001 0.0119783 0.22356
0.109377 0.0267491 0.274464
0.21706 0.0470741 0.304585
0.27866 0.0573434 0.317174
0.319951 0.0635996 0.323827
0.346822 0.0674449 0.328893
0.365774 0.0700236 0.33138
0.380163 0.071931 0.333501
0.391516 0.0733806 0.334447
0.0767529 0.0864271 0.496788
0.116167 0.183551 0.544732
0.355154 0.217746 0.61532
0.470207 0.199329 0.596582
0.51252 0.169802 0.562707
0.510307 0.13431 0.522438
0.482963 0.0927443 0.472755
0.468177 0.0831617 0.430045
0.42359 0.0775158 0.35964
0.12047 0.181994 0.670192
0.12668 0.209155 0.561608
0.33608 0.430274 0.761715
0.576913 0.464561 0.806836
0.727001 0.449653 0.783276
0.805905 0.424887 0.765911
0.836316 0.393759 0.745159
0.842771 0.362051 0.724224
0.831037 0.328954 0.699489
0.144121 0.23592 0.778088
0.148028 0.258473 0.641337
0.262501 0.521675 0.824323
0.567636 0.65658 0.897337
0.807187 0.683299 0.910323
1 0.676265 0.886122
1 0.654627 0.875975
1 0.629908 0.864607
1 0.6009 0.848875
0.157961 0.270741 0.84712
0.162585 0.294957 0.707118
0.228061 0.50573 0.891691
0.523125 0.789654 0.977996
0.783825 0.906981 0.968307
1 0.932326 0.957946
1 0.926619 0.938094
1 0.899886 0.929351
1 0.869612 0.918975
0.169223 0.300908 0.912016
0.172396 0.321401 0.755398
0.172107 0.324239 0.710018
0.399359 0.816617 1
0.728099 1 1
1 1 0.99765
1 1 0.965728
1 1 0.954849
1 1 0.949691
0.176745 0.322393 0.954696
0.178973 0.339879 0.790311
0.178164 0.341131 0.740993
0.268788 0.680613 1
0.574426 1 1
0.884367 1 1
1 1 0.982742
1 1 0.967926
1 1 0.96228
0.182452 0.339284 0.985885
0.18352 0.352667 0.819944
0.181842 0.351705 0.758663
0.194034 0.390555 0.784298
0.412634 0.984054 1
0.771923 1 1
1 1 0.973754
1 1 0.970047
1 1 0.939788
0.185916 0.349386 1
0.186984 0.362417 0.844587
0.184817 0.360128 0.776455
0.183658 0.35967 0.734813
0.278309 0.736385 0.991562
0.611749 1 0.999878
1 1 0.958114
1 1 0.954772
1 1 0.870558
0.0339361 0.0124056 0.233295
0.105089 0.0260777 0.283787
0.215702 0.0469368 0.316854
0.279011 0.0575113 0.331151
0.320851 0.0638437 0.338216
0.347997 0.0677043 0.343114
0.367605 0.0703746 0.346288
0.382239 0.0723125 0.348608
0.393759 0.0737926 0.349767
0.0787518 0.0897383 0.511284
0.115145 0.179294 0.566674
0.348348 0.21796 0.647364
0.467369 0.200488 0.631754
0.51368 0.171344 0.595285
0.511772 0.13521 0.550103
0.486122 0.0937057 0.498878
0.471534 0.0836652 0.453407
0.430503 0.0785077 0.38088
0.122637 0.185992 0.687526
0.128099 0.210117 0.586175
0.32575 0.428656 0.81088
0.568475 0.464912 0.871382
0.722148 0.452796 0.853361
0.805325 0.427085 0.830564
0.837339 0.39588 0.806989
0.8448 0.364355 0.783123
0.832898 0.330999 0.753841
0.1458 0.239307 0.795666
0.149157 0.259373 0.665324
0.243412 0.512352 0.867338
0.558312 0.656611 0.980743
0.795804 0.685939 1
0.997726 0.68014 0.986679
1 0.661341 0.973602
1 0.634546 0.958099
1 0.605905 0.938964
0.159167 0.273426 0.860899
0.163302 0.295155 0.730922
0.225452 0.492653 0.941711
0.507271 0.785809 1
0.773281 0.909056 1
1 0.938811 1
1 0.93843 1
1 0.911269 1
1 0.88127 1
0.170352 0.303502 0.928069
0.172961 0.321248 0.780972
0.172808 0.324269 0.736171
0.404761 0.823789 1
0.736355 1 1
1 1 1
1 1 1
1 1 1
1 1 1
0.177462 0.32401 0.967544
0.179812 0.340337 0.822156
0.178927 0.341207 0.770932
0.2757 0.712749 1
0.616083 1 1
0.924681 1 1
1 1 1
1 1 1
1 1 1
0.18294 0.340215 0.998322
0.184298 0.352926 0.853513
0.1832 0.353262 0.796857
0.209094 0.434546 0.909041
0.436835 1 1
0.754009 1 1
1 1 1
1 1 1
1 1 1
0.186557 0.350774 1
0.187503 0.362036 0.876829
0.186694 0.363119 0.820584
0.185046 0.360723 0.778607
0.292332 0.819013 1
0.607446 1 1
1 1 1
1 1 1
1 1 1
