sandaya_1.0/luts/SANDAYA_LOOK_001_0150_ACESCG_TO_ACESCG.cube
TITLE "Generated by Resolve"
LUT_3D_SIZE 9
0.00596628 0.00712596 0.00921645
0.149905 0.0293736 0.00602731
0.233188 0.0417029 0.00851453
0.282155 0.0487373 0.00984207
0.312795 0.0528115 0.0105745
0.333364 0.0554208 0.0110475
0.348852 0.0573129 0.0113832
0.360983 0.0587778 0.0116426
0.370321 0.0598611 0.0118257
0.035523 0.0712139 0.0200351
0.164691 0.148852 0.0239414
0.32372 0.177569 0.0280919
0.417334 0.179294 0.028336
0.47744 0.171374 0.0272679
0.513008 0.160601 0.0258183
0.524804 0.145586 0.0237888
0.522026 0.128618 0.0214847
0.507637 0.10901 0.0188449
0.0575418 0.118975 0.024155
0.100908 0.193469 0.0307469
0.34255 0.296666 0.0427558
0.4907 0.325765 0.0451972
0.58584 0.331579 0.0453956
0.662104 0.330343 0.0449836
0.714 0.322774 0.0440833
0.751019 0.314397 0.0431525
0.776944 0.303532 0.0420081
0.0705119 0.146944 0.0262913
0.0705119 0.146944 0.0262913
0.295262 0.351202 0.0484932
0.504448 0.421393 0.0536812
0.640223 0.446021 0.0548714
0.753872 0.45597 0.0549477
0.844694 0.456794 0.05449
0.924285 0.4551 0.0539101
0.982498 0.451362 0.053315
0.079408 0.165972 0.0272831
0.079408 0.165972 0.0272831
0.212741 0.345998 0.0483406
0.470436 0.476646 0.0581216
0.650858 0.528161 0.0605325
0.798184 0.550561 0.0608682
0.929488 0.558633 0.0604105
1 0.56286 0.0598001
1 0.5626 0.0591745
0.0863355 0.180652 0.0289311
0.0863355 0.180652 0.0289311
0.12639 0.273442 0.0409857
0.398825 0.494087 0.0597696
0.627451 0.58616 0.0640269
0.805035 0.627985 0.0647288
0.978714 0.650904 0.064332
1 0.659236 0.0634928
1 0.664363 0.0626688
0.091371 0.191333 0.0304723
0.091371 0.191333 0.0304723
0.091371 0.191333 0.0304723
0.306325 0.473396 0.0587778
0.57499 0.616358 0.0659037
0.779904 0.688167 0.0672923
0.974258 0.725124 0.0668803
1 0.74873 0.0659037
1 0.763363 0.064744
0.0953841 0.200046 0.0317082
0.0954757 0.200244 0.0317388
0.0953841 0.200046 0.0317082
0.203922 0.405921 0.0538796
0.497963 0.615961 0.066392
0.737972 0.728222 0.0689403
0.952407 0.784314 0.0685893
1 0.822065 0.0673686
1 0.845182 0.0659495
0.098146 0.206149 0.0325475
0.0981918 0.206241 0.0325628
0.0982223 0.206287 0.032578
0.127779 0.276997 0.0413825
0.398886 0.578714 0.0651102
0.664424 0.734096 0.0697032
0.896071 0.819577 0.06981
1 0.876204 0.068513
1 0.911482 0.0667735
0.0113527 0.00459297 0.0709087
0.158145 0.0341497 0.122087
0.283101 0.0539559 0.145327
0.351568 0.0616922 0.150332
0.388907 0.0652628 0.14963
0.413336 0.0673838 0.147585
0.429908 0.0686656 0.14406
0.441733 0.0695048 0.140322
0.450553 0.0700847 0.136477
0.0565499 0.109422 0.0972915
0.176165 0.180987 0.181292
0.372625 0.195819 0.166323
0.470558 0.183886 0.154238
0.520211 0.166888 0.142031
0.540841 0.147845 0.131518
0.537514 0.12549 0.120043
0.52047 0.102037 0.109239
0.492821 0.0801556 0.0972915
0.0738842 0.152255 0.0539406
0.124941 0.253452 0.188922
0.386664 0.342535 0.154452
0.539315 0.348211 0.122011
0.63978 0.331121 0.09897
0.701488 0.312154 0.0861372
0.729778 0.290791 0.075639
0.740383 0.270069 0.066392
0.741253 0.251041 0.0574197
0.0753948 0.157412 0.0268711
0.10309 0.203296 0.172412
0.327962 0.414115 0.162844
0.544701 0.461021 0.12398
0.670619 0.464881 0.102678
0.7794 0.453803 0.0739605
0.87042 0.442496 0.0542763
0.952773 0.434653 0.0522774
1 0.424247 0.051194
0.083711 0.175113 0.0282139
0.111986 0.225086 0.16527
0.237827 0.42475 0.162753
0.515633 0.521828 0.10457
0.680598 0.544793 0.0828717
0.819562 0.552529 0.0681468
0.952728 0.55465 0.0603342
1 0.562478 0.0594186
1 0.566873 0.0586099
0.0900893 0.188617 0.0300755
0.117021 0.238895 0.152728
0.165591 0.375113 0.151003
0.450553 0.547829 0.099443
0.679255 0.611566 0.0649271
0.867185 0.6439 0.0649119
1 0.665507 0.0642863
1 0.678569 0.0633249
1 0.694865 0.0622263
0.0946975 0.198535 0.0314946
0.119234 0.246296 0.13669
0.119051 0.246677 0.129458
0.365484 0.541588 0.0897383
0.648585 0.66302 0.0673838
0.925902 0.747311 0.0679026
1 0.78613 0.0666972
1 0.813855 0.0650187
1 0.822019 0.0634012
0.0978561 0.205493 0.0324712
0.120165 0.250477 0.120439
0.118334 0.246937 0.111299
0.269947 0.498817 0.0787823
0.605585 0.694453 0.0688792
0.927016 0.823011 0.0695964
1 0.859678 0.067689
1 0.866545 0.0657359
1 0.849622 0.064271
0.100404 0.211185 0.0332494
0.119203 0.25005 0.102068
0.117006 0.245579 0.0923934
0.172488 0.406058 0.067216
0.529259 0.689372 0.0692302
0.830411 0.814328 0.0702831
1 0.863294 0.0687572
1 0.904799 0.0667124
1 0.931853 0.0646372
0.0170443 0.00640879 0.11046
0.140581 0.03122 0.161074
0.248966 0.0513924 0.193484
0.320668 0.0620432 0.211109
0.361807 0.0672618 0.219699
0.388357 0.0702831 0.223728
0.407507 0.0722972 0.226001
0.421225 0.0735943 0.226261
0.431724 0.0745403 0.226139
0.0694285 0.122347 0.202701
0.17351 0.189319 0.280339
0.369116 0.197482 0.292821
0.468925 0.174105 0.274022
0.504067 0.145769 0.253452
0.494652 0.112902 0.231724
0.462867 0.0814679 0.209064
0.44593 0.0735027 0.192828
0.396521 0.0673075 0.167483
0.0937514 0.183749 0.161273
0.135409 0.269566 0.271992
0.361929 0.361074 0.318303
0.531914 0.379126 0.300755
0.643732 0.372656 0.29073
0.718624 0.356619 0.280232
0.769238 0.338964 0.271336
0.798383 0.320668 0.263523
0.806088 0.299702 0.254261
0.0991379 0.20209 0.107576
0.120043 0.232105 0.256168
0.314504 0.446006 0.326986
0.564416 0.509239 0.278874
0.716869 0.512108 0.249912
0.835477 0.499306 0.231373
0.918441 0.486061 0.222232
0.971588 0.470634 0.214466
1 0.451606 0.207385
0.0982528 0.204227 0.0631876
0.12604 0.246296 0.263005
0.231724 0.465217 0.32108
0.513466 0.586496 0.308049
0.714549 0.624659 0.264363
0.857328 0.625116 0.243473
0.99266 0.614145 0.216098
1 0.595056 0.196979
1 0.578592 0.184634
0.0921798 0.193103 0.0307317
0.133913 0.265995 0.268772
0.188373 0.426703 0.317983
0.435554 0.624964 0.319219
0.680827 0.706477 0.26247
0.864134 0.726711 0.240269
1 0.731548 0.226658
1 0.723827 0.206531
1 0.70428 0.181094
0.0959793 0.201343 0.0318914
0.139528 0.280964 0.270085
0.140764 0.283314 0.277546
0.350942 0.625193 0.309117
0.626841 0.764752 0.27538
0.841932 0.80705 0.223026
1 0.827085 0.214069
1 0.831449 0.202472
1 0.823377 0.185046
0.0989548 0.207935 0.0328069
0.143435 0.292042 0.268223
0.143435 0.2916 0.271336
0.25507 0.582071 0.296132
0.560006 0.788952 0.279637
0.791562 0.867994 0.230015
1 0.896864 0.196017
1 0.906737 0.184451
1 0.909728 0.174609
0.101579 0.213825 0.0336004
0.145556 0.298726 0.263218
0.145495 0.298405 0.264164
0.206958 0.498711 0.288838
0.469123 0.767971 0.277424
0.726253 0.898009 0.230503
0.957153 0.941253 0.182727
1 0.962463 0.164462
1 0.974334 0.153979
0.020798 0.00775158 0.136889
0.134569 0.0303502 0.186084
0.236683 0.0496834 0.219181
0.306294 0.0608225 0.240314
0.350332 0.0669871 0.252781
0.379034 0.0706798 0.261204
0.398901 0.0730602 0.265919
0.41413 0.0748302 0.269657
0.424826 0.0760357 0.272343
0.0743877 0.123308 0.263783
0.169482 0.19266 0.34699
0.346258 0.209842 0.359625
0.444953 0.181827 0.360983
0.478538 0.146242 0.336996
0.466453 0.106706 0.305715
0.436377 0.0771954 0.271794
0.417044 0.0740368 0.242161
0.393469 0.0707103 0.222171
0.104402 0.195895 0.246479
0.141772 0.271626 0.382162
0.360937 0.370825 0.413916
0.558206 0.378607 0.413748
0.677226 0.361608 0.400549
0.744076 0.338872 0.387549
0.777874 0.316655 0.376806
0.783688 0.292195 0.364431
0.780911 0.268559 0.35346
0.114763 0.22652 0.203601
0.122133 0.230381 0.305791
0.324193 0.462318 0.41146
0.524498 0.519173 0.434989
0.676783 0.536034 0.419898
0.803525 0.534142 0.403922
0.906737 0.525338 0.395773
0.972396 0.512596 0.387076
1 0.499504 0.379705
0.11693 0.238224 0.156252
0.13022 0.253086 0.291417
0.231815 0.483528 0.422415
0.497841 0.606073 0.443153
0.711055 0.65507 0.395224
0.891585 0.657084 0.349081
1 0.64448 0.332082
1 0.632151 0.324102
1 0.617441 0.31783
0.114504 0.238041 0.106874
0.13637 0.270344 0.284657
0.19736 0.44242 0.425284
0.436439 0.655268 0.441764
0.665751 0.747921 0.423026
0.887098 0.779019 0.366064
1 0.7841 0.345754
1 0.769711 0.317891
1 0.753689 0.301137
0.108736 0.228336 0.0626383
0.141482 0.284504 0.282948
0.149676 0.295628 0.369162
0.349966 0.657954 0.433997
0.603891 0.810208 0.439826
0.84593 0.882307 0.373968
1 0.904982 0.348287
1 0.910933 0.333867
1 0.903944 0.311284
0.099382 0.208881 0.032929
0.145388 0.295491 0.28249
0.153948 0.308003 0.369467
0.251499 0.61474 0.421454
0.544305 0.839017 0.434043
0.784451 0.955337 0.399558
1 1 0.339467
1 1 0.329213
1 1 0.317662
0.101915 0.214572 0.0337072
0.148226 0.303456 0.283284
0.156603 0.316289 0.366308
0.220127 0.52842 0.417594
0.465095 0.825879 0.425559
0.71722 0.9991 0.410224
0.964523 1 0.354055
1 1 0.317082
1 1 0.307439
0.0233921 0.00868238 0.155215
0.131395 0.029984 0.204486
0.230121 0.0487221 0.237476
0.297978 0.0598459 0.260258
0.342763 0.0663767 0.274922
0.373419 0.0705119 0.285756
0.394095 0.0731518 0.292592
0.410147 0.0751202 0.298222
0.422614 0.0766155 0.302724
0.0780194 0.124331 0.308507
0.163928 0.192981 0.392218
0.342809 0.212696 0.410788
0.43563 0.196338 0.414298
0.475822 0.157229 0.398291
0.467918 0.112062 0.364752
0.437461 0.078645 0.322438
0.413413 0.0751049 0.28159
0.394781 0.0724651 0.261097
0.11133 0.202502 0.315419
0.144228 0.270665 0.441596
0.35697 0.375616 0.4804
0.516991 0.393256 0.488731
0.642786 0.364584 0.488365
0.713664 0.337392 0.473487
0.742687 0.310109 0.457832
0.744259 0.282841 0.442084
0.733257 0.255909 0.426734
0.12401 0.238834 0.27921
0.12874 0.236789 0.382361
0.295857 0.462715 0.491432
0.524361 0.528176 0.518807
0.703746 0.537057 0.51104
0.843641 0.530037 0.503288
0.941756 0.51667 0.494591
1 0.499641 0.485908
1 0.479683 0.477424
0.128954 0.257618 0.235828
0.137072 0.262715 0.353445
0.231022 0.490379 0.45333
0.4981 0.61944 0.530938
0.666789 0.661738 0.531975
0.825879 0.678859 0.518151
0.965499 0.676799 0.501823
1 0.672633 0.492012
1 0.663127 0.485863
0.129366 0.264775 0.192599
0.143206 0.281605 0.338186
0.206485 0.471839 0.450126
0.432319 0.66891 0.53106
0.649088 0.765164 0.539956
0.858595 0.806851 0.49749
1 0.812024 0.440864
1 0.800641 0.419242
1 0.787915 0.412177
0.126528 0.263355 0.148058
0.146715 0.293233 0.325338
0.170428 0.350332 0.430304
0.346502 0.674998 0.526131
0.601724 0.834379 0.539269
0.818753 0.917678 0.520485
1 0.950408 0.454047
1 0.958618 0.431754
1 0.950347 0.407279
0.12076 0.25391 0.102235
0.149874 0.303578 0.315847
0.157519 0.313207 0.409247
0.253208 0.631281 0.513664
0.54255 0.869856 0.537224
0.759167 0.992752 0.539696
1 1 0.467323
1 1 0.440513
1 1 0.424506
0.112276 0.237186 0.0569772
0.151385 0.309209 0.306905
0.161227 0.323415 0.416342
0.226963 0.54107 0.512215
0.462547 0.856214 0.530068
0.706722 1 0.53576
0.950057 1 0.499535
1 1 0.437873
1 1 0.423972
0.0252689 0.00936904 0.168688
0.129488 0.0298009 0.219669
0.226032 0.0481575 0.252735
0.292271 0.0591135 0.275746
0.337499 0.0658427 0.291493
0.368139 0.0700847 0.303075
0.390494 0.0730144 0.311772
0.407935 0.0752117 0.318975
0.421073 0.0768139 0.324132
0.0795453 0.123049 0.337362
0.158434 0.192477 0.427527
0.340749 0.213153 0.453544
0.430121 0.20264 0.453483
0.476936 0.171695 0.44445
0.478065 0.126268 0.416236
0.446143 0.0820935 0.369696
0.427008 0.0775158 0.325353
0.396506 0.0734112 0.2916
0.115084 0.204898 0.364126
0.144808 0.266789 0.485283
0.352026 0.377859 0.534356
0.510643 0.398428 0.542382
0.617182 0.380209 0.550332
0.69247 0.344579 0.545403
0.717647 0.31107 0.526818
0.72018 0.281865 0.509285
0.708827 0.253162 0.49012
0.129992 0.245579 0.341573
0.132158 0.238544 0.437385
0.293614 0.46685 0.557855
0.520867 0.532952 0.586816
0.685832 0.544259 0.594095
0.85095 0.529595 0.58703
0.9458 0.510689 0.573175
1 0.490471 0.561898
1 0.468147 0.550591
0.136507 0.268177 0.302861
0.14284 0.269566 0.420401
0.209857 0.472389 0.52134
0.485649 0.623697 0.582162
0.667094 0.670619 0.61178
0.834287 0.685008 0.605219
0.987625 0.678767 0.595468
1 0.669749 0.588678
1 0.655116 0.581292
0.139254 0.281178 0.263249
0.148806 0.289662 0.394842
0.19791 0.434501 0.495872
0.45156 0.686168 0.569848
0.648829 0.777188 0.623056
0.814466 0.813046 0.62121
0.982925 0.833616 0.607828
1 0.834943 0.591516
1 0.832395 0.577264
0.138628 0.285145 0.22327
0.152239 0.302022 0.376516
0.15845 0.313634 0.426963
0.362966 0.69633 0.579751
0.600504 0.851713 0.625269
0.801282 0.936049 0.630121
1 0.976516 0.585229
1 0.989349 0.533547
1 0.979431 0.496803
0.135485 0.282216 0.183429
0.155123 0.312108 0.364706
0.158663 0.315389 0.418296
0.262913 0.651438 0.576181
0.5402 0.888747 0.62472
0.760281 1 0.632731
0.977234 1 0.611429
1 1 0.545525
1 1 0.507485
0.130434 0.274418 0.14052
0.156237 0.317143 0.352148
0.161685 0.324269 0.420325
0.23331 0.557366 0.580056
0.459709 0.876295 0.617044
0.707012 1 0.631266
0.914199 1 0.628748
1 1 0.54786
1 1 0.516716
0.0268254 0.00991836 0.179797
0.127581 0.0296178 0.232654
0.223209 0.0477913 0.266255
0.28748 0.0584878 0.288655
0.333974 0.0654765 0.305531
0.364385 0.0697337 0.317494
0.387793 0.0728313 0.326711
0.406027 0.0751659 0.334203
0.419059 0.0767834 0.339849
0.0817273 0.123659 0.365927
0.152071 0.191623 0.458091
0.338125 0.213626 0.491615
0.428031 0.205371 0.488487
0.47686 0.180911 0.479713
0.487724 0.14229 0.458289
0.459892 0.092134 0.414618
0.442084 0.0797742 0.370504
0.397131 0.0738689 0.315175
0.11722 0.205173 0.401114
0.143587 0.259266 0.519203
0.345754 0.37792 0.582345
0.508675 0.399893 0.595834
0.604669 0.391333 0.595499
0.682506 0.359136 0.601083
0.712627 0.31986 0.587716
0.714809 0.285801 0.569055
0.701732 0.253422 0.545922
0.133898 0.249042 0.391943
0.134585 0.239719 0.478904
0.286885 0.467185 0.612055
0.517357 0.53666 0.650233
0.658656 0.553506 0.65214
0.804669 0.539452 0.66424
0.912139 0.514824 0.653559
0.972335 0.490715 0.639536
1 0.466453 0.625162
0.142214 0.275578 0.361959
0.146288 0.271992 0.476616
0.213046 0.476143 0.59791
0.482963 0.628336 0.670573
0.663935 0.676234 0.6878
0.873152 0.686061 0.689509
1 0.67509 0.67628
1 0.662593 0.667613
1 0.644892 0.657282
0.146105 0.291447 0.325597
0.153521 0.295689 0.452796
0.183459 0.3794 0.536416
0.405035 0.673274 0.625879
0.649363 0.782834 0.675044
0.814755 0.823453 0.704356
0.977554 0.841016 0.697963
1 0.839612 0.688106
1 0.832135 0.681086
0.147158 0.299779 0.287572
0.156863 0.308675 0.428565
0.158145 0.308659 0.458244
0.357565 0.698787 0.602258
0.609125 0.867155 0.693736
0.802289 0.951095 0.715511
0.979126 0.986099 0.710613
1 1 0.696513
1 1 0.680674
0.145464 0.300282 0.250507
0.159686 0.319203 0.412879
0.161395 0.3196 0.449454
0.285527 0.678447 0.588266
0.541161 0.90425 0.701534
0.757702 1 0.719081
0.956313 1 0.718532
1 1 0.676234
1 1 0.619669
0.142763 0.297932 0.213809
0.160891 0.324956 0.397604
0.163897 0.327886 0.444678
0.243626 0.600763 0.591882
0.457694 0.890547 0.695735
0.704875 1 0.718746
0.91574 1 0.720394
1 1 0.700923
1 1 0.631861
0.0281529 0.0103914 0.189349
0.125795 0.0294194 0.243839
0.220798 0.0474708 0.277195
0.283955 0.0580301 0.300038
0.331411 0.0652018 0.316976
0.36202 0.0695048 0.328679
0.385809 0.072694 0.338445
0.403418 0.0749523 0.345632
0.417487 0.0767224 0.352438
0.0830243 0.123247 0.388067
0.144869 0.190539 0.482353
0.3346 0.21326 0.52137
0.42652 0.20621 0.518471
0.476341 0.185931 0.509255
0.493538 0.153033 0.490913
0.475685 0.10779 0.45391
0.449363 0.0808728 0.405722
0.396139 0.07393 0.331411
0.119768 0.206851 0.436561
0.142504 0.253223 0.54522
0.339239 0.377539 0.622324
0.506294 0.401007 0.641917
0.601221 0.395895 0.63856
0.673106 0.371786 0.642054
0.712322 0.333761 0.639048
0.718853 0.296117 0.622614
0.704402 0.258839 0.596185
0.13666 0.251072 0.432853
0.136172 0.240482 0.507469
0.27985 0.466178 0.656947
0.513344 0.53817 0.706081
0.656504 0.555871 0.711086
0.775051 0.551781 0.71487
0.882628 0.525963 0.723461
0.942748 0.496162 0.71284
0.971771 0.467887 0.695384
0.146181 0.28014 0.410574
0.148608 0.273442 0.518227
0.215076 0.477592 0.651987
0.476493 0.630396 0.731502
0.660807 0.680781 0.753887
0.812314 0.694987 0.753094
1 0.680018 0.762051
1 0.663859 0.751949
1 0.639994 0.735073
0.151156 0.298436 0.379782
0.156359 0.297612 0.504097
0.182666 0.370092 0.593149
0.391897 0.672419 0.712428
0.635645 0.786664 0.766735
0.813016 0.829801 0.78172
1 0.839323 0.770077
1 0.836805 0.762417
1 0.826185 0.754894
0.153246 0.309163 0.346029
0.160784 0.313848 0.479744
0.161334 0.312581 0.503151
0.302724 0.667475 0.652384
0.597864 0.869184 0.727871
0.804623 0.959152 0.791394
0.979141 0.996139 0.794247
1 1 0.788449
1 1 0.780438
0.152575 0.312367 0.309209
0.163333 0.324346 0.45861
0.164553 0.324437 0.487221
0.255314 0.645029 0.622583
0.568307 0.930053 0.722164
0.757397 1 0.800595
0.958267 1 0.803204
1 1 0.801953
1 1 0.784375
0.150942 0.31252 0.274617
0.164828 0.331182 0.441306
0.166629 0.332082 0.477791
0.240223 0.582498 0.613108
0.483253 0.921401 0.727169
0.701991 1 0.801144
0.915297 1 0.807767
1 1 0.808301
1 1 0.762432
0.0292821 0.0107881 0.197635
0.124041 0.029221 0.253513
0.219196 0.0472877 0.287373
0.281178 0.0576791 0.309682
0.328664 0.0648814 0.32636
0.360052 0.0693065 0.33846
0.383764 0.0725109 0.348669
0.401556 0.074815 0.356191
0.416236 0.0766613 0.362692
0.0836652 0.122087 0.404715
0.138033 0.189151 0.503609
0.331014 0.213138 0.549111
0.424567 0.206043 0.546899
0.475166 0.18851 0.535653
0.4963 0.160403 0.517296
0.486259 0.120577 0.485603
0.456077 0.082414 0.437629
0.428199 0.0781872 0.375296
0.121477 0.207553 0.464897
0.139971 0.244266 0.562844
0.332738 0.376623 0.660029
0.503426 0.40148 0.685908
0.599344 0.397848 0.68336
0.667475 0.378592 0.679011
0.711955 0.34789 0.678248
0.724895 0.30985 0.667323
0.713146 0.269184 0.642145
0.138506 0.251774 0.46688
0.137514 0.241016 0.53315
0.271824 0.463294 0.697246
0.509316 0.539132 0.75935
0.653971 0.558068 0.769451
0.765972 0.557183 0.766079
0.865492 0.539696 0.775448
0.932525 0.50837 0.77644
0.955596 0.473381 0.758709
0.149096 0.283131 0.451377
0.150591 0.27483 0.554589
0.215686 0.474937 0.700099
0.469444 0.630182 0.789563
0.657191 0.684459 0.819989
0.802502 0.697444 0.819501
0.952895 0.695308 0.828824
1 0.671122 0.835554
1 0.64332 0.819181
0.154681 0.302831 0.424002
0.15845 0.298741 0.546212
0.185763 0.37464 0.64828
0.392737 0.676402 0.78735
0.631098 0.791012 0.841672
0.809171 0.834974 0.859144
0.998276 0.847166 0.859403
1 0.837156 0.858
1 0.823072 0.847333
0.157656 0.315465 0.395468
0.163958 0.317357 0.529427
0.163928 0.314733 0.550835
0.281132 0.653788 0.722515
0.572747 0.867247 0.819577
0.786969 0.962615 0.864988
0.977646 1 0.881941
1 1 0.870146
1 1 0.858564
0.157748 0.320211 0.362737
0.166949 0.329427 0.506462
0.168002 0.32961 0.531823
0.246204 0.600809 0.678477
0.523033 0.90808 0.773236
0.768673 1 0.83476
0.958007 1 0.898924
1 1 0.895277
1 1 0.88658
0.157 0.322667 0.328954
0.16817 0.335897 0.485557
0.169406 0.336202 0.514336
0.225788 0.518273 0.65098
0.477241 0.921584 0.750286
0.71928 1 0.851606
0.91664 1 0.902693
1 1 0.904158
1 1 0.897307
